!!!!SEGMENT: pl-stab--26a--005_nowakiewicz-kazimierz--missa-in-d-et-resurrexit.krn
!!!cenid: 18xx:3515
!!!COM: Nowakiewicz, Kazimierz
!!!COM-rismID:
!!!CDT: <1800->1824
!!!CNT: Polish
!!!OPR: Missa in D
!!!OTL: Et resurrexit
!!!OMV: 005
!!!PDT: 1810
!!!AGN:
!!!SMS-siglum: PL-STAb
!!!SMS-shelfmark: 26a
!!!SMS-shelfwork: M
!!!SMS-variant:
!!!SMS-altvar:
!!!NIFC-rismSourceID: 301050704
!!!NIFC-islandoraID: pl-stab:3636
!!!URL-pdf-islandora: https://repozytorium.nifc.pl/islandora/object/pl-stab%3A3636/datastream/PDF/view
!!!URL-scan: https://polish.musicsources.pl/pl/lokalizacje/galeria/rekopisy/4469 @EN{Scan on Polish Music Herritage in Open Access Website} @PL{Skany w portalu Dziedzictwo Muzyki Polskiej w otwartym dostępie}
!!!ONB-nifc: UWAGA: części Mszy: 1. Kyrie, 2. Gloria, 3. Credo, 4. Et incarnatus, 5. Et resurrexit, 6. Sanctus, 7. Benedictus, 8. Osanna, 9. Agnus Dei, 10. Dona nobis
!!!AIN: 1 bass 1 calto 2 cor 2 oboe 1 organ 1 soprn 1 tenor 1 viola 2 violn
!!!key: D
**kern	**dynam	**kern	**kern	**dynam	**kern	**kern	**text	**kern	**text	**kern	**text	**dynam	**kern	**text	**dynam	**kern	**dynam	**kern	**dynam	**kern	**dynam	**kern	**dynam
*part12	*part12	*part11	*part10	*part10	*part9	*part8	*part8	*part7	*part7	*part6	*part6	*part6	*part5	*part5	*part5	*part4	*part4	*part3	*part3	*part2	*part2	*part1	*part1
*staff12	*	*staff11	*staff10	*	*staff9	*staff8	*staff8	*staff7	*staff7	*staff6	*staff6	*	*staff5	*staff5	*	*staff4	*	*staff3	*	*staff2	*	*staff1	*
*I"Organo.	*	*I"Alto Viola	*I"Violino Secundo 1 mo	*	*I"[Violino Primo]	*I"Baſso	*	*I"Tenor	*	*I"Alto	*	*	*I"Canto	*	*	*I"Clarino Secundo et Cornu	*	*I"Clarino Primo et Cornu	*	*I"Oboe Secundo	*	*I"Oboe Primo	*
*I'org	*	*I'a-vla	*I'vl 2	*	*I'[vl 1]	*I'B	*	*I'T	*	*I'A	*	*	*I'S	*	*	*I'clar 2 cor 2	*	*I'clar 1 cor 1	*	*I'ob 2	*	*I'ob 1	*
*Iorgan	*	*Iviola	*Ivioln	*	*Ivioln	*Ibass	*	*Itenor	*	*Icalto	*	*	*Isoprn	*	*	*Icor	*	*Icor	*	*Ioboe	*	*Ioboe	*
*ICklav	*	*ICstr	*ICstr	*	*ICstr	*ICvox	*	*ICvox	*	*ICvox	*	*	*ICvox	*	*	*ICbras	*	*ICbras	*	*ICww	*	*ICww	*
*	*	*	*	*	*	*IGcoro	*	*IGcoro	*	*IGcoro	*	*	*IGcoro	*	*	*	*	*	*	*	*	*	*
*clefF4	*	*clefC3	*clefG2	*	*clefG2	*clefF4	*	*clefC4	*	*clefC3	*	*	*clefC1	*	*	*clefG2	*	*clefG2	*	*clefG2	*	*clefG2	*
*	*	*	*	*	*	*	*	*	*	*	*	*	*	*	*	*ITrd6c10	*	*ITrd6c10	*	*	*	*	*
*k[f#c#]	*	*k[f#c#]	*k[f#c#]	*	*k[f#c#]	*k[f#c#]	*	*k[f#c#]	*	*k[f#c#]	*	*	*k[f#c#]	*	*	*k[f#c#]	*	*k[f#c#]	*	*k[f#c#]	*	*k[f#c#]	*
*D:	*	*D:	*D:	*	*D:	*D:	*	*D:	*	*D:	*	*	*D:	*	*	*D:	*	*D:	*	*D:	*	*D:	*
*M4/4	*	*M4/4	*	*	*M4/4	*M4/4	*	*M4/4	*	*M4/4	*	*	*M4/4	*	*	*M4/4	*	*M4/4	*	*M4/4	*	*M4/4	*
*met(c)	*	*met(c)	*met(c)	*	*met(c)	*met(c)	*	*met(c)	*	*met(c)	*	*	*met(c)	*	*	*met(c)	*	*met(c)	*	*met(c)	*	*met(c)	*
=1	=1	=1	=1	=1	=1	=1	=1	=1	=1	=1	=1	=1	=1	=1	=1	=1	=1	=1	=1	=1	=1	=1	=1
*	*	*	*tremolo	*	*	*	*	*	*	*2\right	*	*	*2\right	*	*	*	*	*	*	*	*	*2\right	*
!	!	!	!	!	!	!	!	!	!	!	!	!	!	!	!	!	!	!LO:TX:a:i:t=in D.	!	!	!	!LO:TX:a:i:t=allo	!
!LO:TX:a:i:t=allo	!	!LO:TX:a:i:t=allo	!LO:TX:a:i:t=allo	!LO:DY:rj	!	!LO:TX:a:i:t=allo	!	!LO:TX:a:i:t=allo	!	!LO:TX:a:i:t=allo	!	!LO:DY:b	!LO:TX:a:i:t=allo	!	!	!LO:TX:a:i:t=allo	!LO:DY:rj:t=f.	!LO:TX:a:i:t=allo	!LO:DY:rj:t=f.	!LO:TX:a:i:t=allo	!LO:DY:rj:t=f	!	!LO:DY:t=f.
8D\L	.	8D/L	16d/LL 16f#/	ff	1ryy	2D\	Et	2D/	Et	2dd\	Et	f	2dd\	Et	.	2D/	f	2D/	f	2d/	f	2dd\	f
.	.	.	16d/ 16f#/	.	.	.	.	.	.	.	.	.	.	.	.	.	.	.	.	.	.	.	.
(>16E\L	.	8F#/	16d/ 16f#/	.	.	.	.	.	.	.	.	.	.	.	.	.	.	.	.	.	.	.	.
16F#\JJ	.	.	16d/ 16f#/	.	.	.	.	.	.	.	.	.	.	.	.	.	.	.	.	.	.	.	.
16G\LL	.	8A/	16d/ 16f#/	.	.	.	.	.	.	.	.	.	.	.	.	.	.	.	.	.	.	.	.
16A\	.	.	16d/ 16f#/	.	.	.	.	.	.	.	.	.	.	.	.	.	.	.	.	.	.	.	.
16B\)	.	8c#/J	16d/ 16f#/	.	.	.	.	.	.	.	.	.	.	.	.	.	.	.	.	.	.	.	.
16c#\JJ	.	.	16d/JJ 16f#/	.	.	.	.	.	.	.	.	.	.	.	.	.	.	.	.	.	.	.	.
8d\L	.	8d/L	16d/LL 16f#/	.	.	4F#\	re-	4F#/	re-	4a\	re-	.	4a\	re-	.	4F#/	.	4F#/	.	4f#/	.	4ff#\	.
.	.	.	16d/ 16f#/	.	.	.	.	.	.	.	.	.	.	.	.	.	.	.	.	.	.	.	.
8D\	.	8A/	16d/ 16f#/	.	.	.	.	.	.	.	.	.	.	.	.	.	.	.	.	.	.	.	.
.	.	.	16d/ 16f#/	.	.	.	.	.	.	.	.	.	.	.	.	.	.	.	.	.	.	.	.
8F#\	.	8F#/	16d/ 16f#/	.	.	4A\	-sur-	4A/	-sur-	4f#\	-sur-	.	4f#\	-sur-	.	4A/	.	4A/	.	4a/	.	4aa\	.
.	.	.	16d/ 16f#/	.	.	.	.	.	.	.	.	.	.	.	.	.	.	.	.	.	.	.	.
8D\J	.	8D/J	16d/ 16f#/	.	.	.	.	.	.	.	.	.	.	.	.	.	.	.	.	.	.	.	.
.	.	.	16d/JJ 16f#/	.	.	.	.	.	.	.	.	.	.	.	.	.	.	.	.	.	.	.	.
=2	=2	=2	=2	=2	=2	=2	=2	=2	=2	=2	=2	=2	=2	=2	=2	=2	=2	=2	=2	=2	=2	=2	=2
8A\L	.	8d/L	16d/LL 16f#/	.	1ryy	4d\	-re-	4d\	-re-	4d\	-re-	.	4d/	-re-	.	4F#/	.	4d\	.	4f#/	.	4ff#\	.
.	.	.	16d/ 16f#/	.	.	.	.	.	.	.	.	.	.	.	.	.	.	.	.	.	.	.	.
!	!LO:DY:t=po.	!	!	!	!	!	!	!	!	!	!	!	!	!	!	!	!	!	!	!	!	!	!
8D\J	p	8A/	16d/ 16f#/	.	.	.	.	.	.	.	.	.	.	.	.	.	.	.	.	.	.	.	.
.	.	.	16d/ 16f#/	.	.	.	.	.	.	.	.	.	.	.	.	.	.	.	.	.	.	.	.
*2\right	*	*	*	*	*	*	*	*	*	*	*	*	*	*	*	*	*	*	*	*	*	*	*
*tremolo	*	*	*	*	*	*	*	*	*	*	*	*	*	*	*	*	*	*	*	*	*	*	*
8F#\L	.	8F#/	16d/ 16f#/	.	.	4D\	-xit	4f#\	-xit	4d\	-xit	.	4d/	-xit	.	8F#/L	.	8d\L	.	4d/	.	4dd\	.
.	.	.	16d/ 16f#/	.	.	.	.	.	.	.	.	.	.	.	.	.	.	.	.	.	.	.	.
8D\	.	8D/J	16d/ 16f#/	.	.	.	.	.	.	.	.	.	.	.	.	8F#/J	.	8d\J	.	.	.	.	.
.	.	.	16d/ 16f#/	.	.	.	.	.	.	.	.	.	.	.	.	.	.	.	.	.	.	.	.
*	*	*tremolo	*	*	*	*	*	*	*	*	*	*	*	*	*	*	*	*	*	*	*	*	*
8F#\	.	8F#/L	16d/ 16f#/	.	.	4F#\	ter-	4A\	ter-	4f#\	ter-	.	4f#/	ter-	.	4F#/	.	4d\	.	4f#/	.	4a/	.
.	.	.	16d/ 16f#/	.	.	.	.	.	.	.	.	.	.	.	.	.	.	.	.	.	.	.	.
8D\J	.	8A/	16d/ 16f#/	.	.	.	.	.	.	.	.	.	.	.	.	.	.	.	.	.	.	.	.
.	.	.	16d/ 16f#/	.	.	.	.	.	.	.	.	.	.	.	.	.	.	.	.	.	.	.	.
*Xtremolo	*	*	*	*	*	*	*	*	*	*	*	*	*	*	*	*	*	*	*	*	*	*	*
8A\L	.	8F#/	16d/ 16f#/	.	.	8A\	-tia	8c#\	-ti-	8a\	-tia	.	8a\	-ti-	.	4r	.	4r	.	4a/	.	4f#/	.
.	.	.	16d/ 16f#/	.	.	.	.	.	.	.	.	.	.	.	.	.	.	.	.	.	.	.	.
8D\J	.	8A/J	16d/ 16f#/	.	.	8A\	.	8c#\	-a	8a\	.	.	8a\	-a	.	.	.	.	.	.	.	.	.
.	.	.	16d/JJ 16f#/	.	.	.	.	.	.	.	.	.	.	.	.	.	.	.	.	.	.	.	.
*	*	*Xtremolo	*	*	*	*	*	*	*	*	*	*	*	*	*	*	*	*	*	*	*	*	*
=3	=3	=3	=3	=3	=3	=3	=3	=3	=3	=3	=3	=3	=3	=3	=3	=3	=3	=3	=3	=3	=3	=3	=3
*	*	*	*	*	*	*	*	*	*	*	*	*	*	*	*	*	*	*	*	*2\right	*	*	*
8d\L	f	8d/L	16d/LL 16f#/	.	1ryy	4d\	-di-	4d\	-di-	4dd\	-di-	.	4ff#\	-di-	.	4D/	.	4d\	.	2dd\	.	2d/	.
.	.	.	16d/ 16f#/	.	.	.	.	.	.	.	.	.	.	.	.	.	.	.	.	.	.	.	.
8D\	.	8A/	16d/ 16f#/	.	.	.	.	.	.	.	.	.	.	.	.	.	.	.	.	.	.	.	.
.	.	.	16d/ 16f#/	.	.	.	.	.	.	.	.	.	.	.	.	.	.	.	.	.	.	.	.
8F#\	.	8F#/	16d/ 16f#/	.	.	4D/	-e	4f#\	-e	4a\	-e	.	4dd\	-e	.	4D/	.	4F#/	.	.	.	.	.
.	.	.	16d/ 16f#/	.	.	.	.	.	.	.	.	.	.	.	.	.	.	.	.	.	.	.	.
8D\J	.	8A/J	16d/ 16f#/	.	.	.	.	.	.	.	.	.	.	.	.	.	.	.	.	.	.	.	.
.	.	.	16d/ 16f#/	.	.	.	.	.	.	.	.	.	.	.	.	.	.	.	.	.	.	.	.
*	*	*rep	*	*	*	*	*	*	*	*	*	*	*	*	*	*	*	*	*	*	*	*	*
8AA/L	.	8d/Lyy	16d/ 16f#/	.	.	8F#\L	se-	(8d\	se-	8a\	se-	.	8ff#\	se-	.	4D/	.	4F#/	.	4a/	.	4f#/	.
.	.	.	16d/ 16f#/	.	.	.	.	.	.	.	.	.	.	.	.	.	.	.	.	.	.	.	.
8D/	.	8A/yy	16d/ 16f#/	.	.	8E\J	-cun-	8f#\)	.	8a\	-cun-	.	8dd\	-cun-	.	.	.	.	.	.	.	.	.
.	.	.	16d/ 16f#/	.	.	.	.	.	.	.	.	.	.	.	.	.	.	.	.	.	.	.	.
8F#/	.	8F#/yy	16d/ 16f#/	.	.	4D\	-du(m)	8f#\	-cun-	8a\	-du(m)	.	8dd\	-dum	.	4D/	.	4F#/	.	4f#/	.	4a/	.
.	.	.	16d/ 16f#/	.	.	.	.	.	.	.	.	.	.	.	.	.	.	.	.	.	.	.	.
8D/J	.	8A/Jyy	16d/ 16f#/	.	.	.	.	8d\	-dum	8a\	Scri-	.	8ff#\	Scri-	.	.	.	.	.	.	.	.	.
.	.	.	16d/JJ 16f#/	.	.	.	.	.	.	.	.	.	.	.	.	.	.	.	.	.	.	.	.
*	*	*Xrep	*Xtremolo	*	*	*	*	*	*	*	*	*	*	*	*	*	*	*	*	*	*	*	*
=4	=4	=4	=4	=4	=4	=4	=4	=4	=4	=4	=4	=4	=4	=4	=4	=4	=4	=4	=4	=4	=4	=4	=4
4A\	.	8D/	8f#/L	.	1ryy	4r	.	4r	.	4a\	-ptu-	.	8aa\L	-ptu-	.	4D/	.	4F#/	.	4d/	.	4dd\	.
.	.	4F#/ 4A/	8a/	.	.	.	.	.	.	.	.	.	8ff#\J	.	.	.	.	.	.	.	.	.	.
4d\	.	.	8d/	.	.	8r	.	8r	.	8a\	-ras	.	4dd\	-ras	.	4r	.	4r	.	4r	.	4r	.
.	.	4F#/ 4A/	8f#/J	.	.	8A\	Scri-	8F#\	Scri-	8r	.	.	.	.	.	.	.	.	.	.	.	.	.
4D/	.	.	8a/L	.	.	8F#\	-ptu-	8A\	-ptu-	4r	.	.	4r	.	.	8r	.	8r	.	8r	.	8r	.
.	.	4F#/ 4A/	8dd/	.	.	8D\	-ras	8d\	-ras	.	.	.	.	.	.	8D/L	.	8F#/L	.	8f#/L	.	8dd\L	.
4d\	.	.	8d/	.	.	8D\L	et	4r	.	8d\	et	.	8dd\	Et	.	8D/J	.	8F#/J	.	8f#/J	.	8dd\J	.
.	.	8F#/ 8A/	8dd/J	.	.	8F#\J	.	.	.	8f#\	ascen-	.	8ff#\	as-	.	8r	.	8r	.	8r	.	8r	.
=5	=5	=5	=5	=5	=5	=5	=5	=5	=5	=5	=5	=5	=5	=5	=5	=5	=5	=5	=5	=5	=5	=5	=5
!	!	!	!LO:TX:t=P:problem=mixed beam	!	!	!	!	!	!	!	!	!	!	!	!	!	!	!	!	!	!	!	!
4D\	.	8F#/ 8A/	8ff#\L	.	1ryy	8A\	as-	8f#\	Et	8a\	-dit	.	8aa\L	-cen-	.	1r	.	1r	.	8a/L	.	8aa\L	.
!	!	!	!	!	!	!	!	!	!	!	!	!	!	!	!	!	!	!	!	!	!	!	!
.	.	4F#/ 4A/	8d/	.	.	8F#\	-scen-	8f#\	a-	8f#\	.	.	8ff#\J	.	.	.	.	.	.	8f#/	.	8ff#\	.
!	!	!	!	!	!	!	!	!	!	!LO:LB:g=original	!	!	!	!	!	!	!	!	!	!	!	!	!
4d\	.	.	8f#/	.	.	8D\	-dit	8f#\	-scen-	(8d\	in	.	8dd\	-dit	.	.	.	.	.	8d/	.	8dd\	.
.	.	4F#/ 4A/	8a/J	.	.	8F#\	-in	16f#\	-dit	8f#\)	.	.	8ff#\	in	.	.	.	.	.	8f#/J	.	8ff#\J	.
.	.	.	.	.	.	.	.	16f#\	in	.	.	.	.	.	.	.	.	.	.	.	.	.	.
!	!	!	!	!	!	!LO:LB:g=original	!	!LO:SIC:v:l:t=cae	!	!LO:SIC:v:l:t=cae-	!	!	!	!	!	!	!	!	!	!	!	!	!
!	!	!	!	!	!	!LO:SIC:v:l:t=cae	!	!	!	!	!	!	!	!	!	!	!	!	!	!	!	!	!
4D/	.	.	4dd\	.	.	8A\	ce-	4f#\	ce-	8a\	ce-	.	(8aa\L	Cae-	.	.	.	.	.	8a/L	.	8aa\L	.
.	.	4F#/ 4A/	.	.	.	8F#\	.	.	.	8f#\	.	.	8ff#\J)	.	.	.	.	.	.	8f#/J	.	8ff#\J	.
4d\	.	.	4d/	.	.	4D\	-lum	4f#\	-lu(m)	4d\	-lum	.	4dd\	-lum	.	.	.	.	.	4d/	.	4dd\	.
.	.	8F#/ 8A/	.	.	.	.	.	.	.	.	.	.	.	.	.	.	.	.	.	.	.	.	.
!LO:LB:g=original	!	!	!	!	!	!	!	!LO:LB:g=original	!	!	!	!	!LO:LB:g=original	!	!	!	!	!	!	!	!	!	!
=6	=6	=6	=6	=6	=6	=6	=6	=6	=6	=6	=6	=6	=6	=6	=6	=6	=6	=6	=6	=6	=6	=6	=6
*	*	*tremolo	*tremolo	*	*	*	*	*	*	*	*	*	*	*	*	*	*	*	*	*	*	*	*
2A\	.	16E/LL 16c#/	16A/LL 16g/	.	1ryy	4A\	se-	4e\	se-	4cc#\	sedet	.	4gg\	se-	.	4A/	.	4e\	.	8g/	.	8cc#\	.
.	.	16E/ 16c#/	16A/ 16g/	.	.	.	.	.	.	.	.	.	.	.	.	.	.	.	.	.	.	.	.
.	.	16E/ 16c#/	16A/ 16g/	.	.	.	.	.	.	.	.	.	.	.	.	.	.	.	.	4e/	.	4cc#\	.
.	.	16E/ 16c#/	16A/ 16g/	.	.	.	.	.	.	.	.	.	.	.	.	.	.	.	.	.	.	.	.
.	.	16E/ 16c#/	16A/ 16g/	.	.	8A\	-det	8e\	-det	8cc#\	ad	.	8gg\L	-det-	.	8r	.	8r	.	.	.	.	.
.	.	16E/ 16c#/	16A/ 16g/	.	.	.	.	.	.	.	.	.	.	.	.	.	.	.	.	.	.	.	.
.	.	16E/ 16c#/	16A/ 16g/	.	.	8A\	ad	8e\	ad	8cc#\	.	.	8gg\J	ad	.	8A/	.	8e\	.	4e/	.	4cc#\	.
.	.	16E/JJ 16c#/	16A/JJ 16g/	.	.	.	.	.	.	.	.	.	.	.	.	.	.	.	.	.	.	.	.
4AA/	.	16E/LL 16c#/	16A/LL 16g/	.	.	4A\	dex-	4e\	dex-	4cc#\	dex-	.	4gg\	dex-	.	4A/	.	4e\	.	.	.	.	.
.	.	16E/ 16c#/	16A/ 16g/	.	.	.	.	.	.	.	.	.	.	.	.	.	.	.	.	.	.	.	.
.	.	16E/ 16c#/	16A/ 16g/	.	.	.	.	.	.	.	.	.	.	.	.	.	.	.	.	4e/	.	4cc#\	.
.	.	16E/ 16c#/	16A/ 16g/	.	.	.	.	.	.	.	.	.	.	.	.	.	.	.	.	.	.	.	.
4AA/	.	16E/ 16c#/	16A/ 16g/	.	.	8A\	-ter-	8e\	-ter-	8cc#\	-ter-	.	8gg\	-ter-	.	8r	.	8r	.	.	.	.	.
.	.	16E/ 16c#/	16A/ 16g/	.	.	.	.	.	.	.	.	.	.	.	.	.	.	.	.	.	.	.	.
.	.	16E/ 16c#/	16A/ 16g/	.	.	8A\	-a(m)	8e\	-am	8cc#\	-a(m)	.	8gg\	-am	.	8A/	.	8e\	.	8e/	.	8cc#\	.
.	.	16E/JJ 16c#/	16A/JJ 16g/	.	.	.	.	.	.	.	.	.	.	.	.	.	.	.	.	.	.	.	.
!	!	!	!	!	!	!	!	!	!	!	!	!	!	!	!	!	!	!	!	!LO:LB:g=original	!	!	!
=7	=7	=7	=7	=7	=7	=7	=7	=7	=7	=7	=7	=7	=7	=7	=7	=7	=7	=7	=7	=7	=7	=7	=7
*tremolo	*	*rep	*	*	*	*	*	*	*	*	*	*	*	*	*	*	*	*	*	*	*	*	*
8C#/L	.	16E/LLyy 16c#/	16A/LL 16g/	.	1ryy	4A\	Pa-	4e\	Pa-	4cc#\	Pa-	.	4gg\	Pa-	.	4A/	.	4e\	.	4g/	.	4ee\	.
.	.	16E/yy 16c#/	16A/ 16g/	.	.	.	.	.	.	.	.	.	.	.	.	.	.	.	.	.	.	.	.
8AA/	.	16E/yy 16c#/	16A/ 16g/	.	.	.	.	.	.	.	.	.	.	.	.	.	.	.	.	.	.	.	.
.	.	16E/yy 16c#/	16A/ 16g/	.	.	.	.	.	.	.	.	.	.	.	.	.	.	.	.	.	.	.	.
8C#/	.	16E/yy 16c#/	16A/ 16g/	.	.	4AA/	-tris	8g\	-tris	8cc#\	-tris	.	8ee\	-tris	.	4r	.	4r	.	4r	.	4r	.
.	.	16E/yy 16c#/	16A/ 16g/	.	.	.	.	.	.	.	.	.	.	.	.	.	.	.	.	.	.	.	.
8AA/J	.	16E/yy 16c#/	16A/ 16g/	.	.	.	.	8r	.	8r	.	.	8r	.	.	.	.	.	.	.	.	.	.
.	.	16E/JJyy 16c#/	16A/ 16g/	.	.	.	.	.	.	.	.	.	.	.	.	.	.	.	.	.	.	.	.
*Xtremolo	*	*Xrep	*	*	*	*	*	*	*	*	*	*	*	*	*	*	*	*	*	*	*	*	*
*	*	*rep	*	*	*	*	*	*	*	*	*	*	*	*	*	*	*	*	*	*	*	*	*
8E/L	.	16E/LLyy 16c#/	16A/ 16g/	.	.	2r	.	4r	.	2r	.	.	2r	.	.	2r	.	2r	.	8r	.	8r	.
.	.	16E/yy 16c#/	16A/ 16g/	.	.	.	.	.	.	.	.	.	.	.	.	.	.	.	.	.	.	.	.
8AA/	.	16E/yy 16c#/	16A/ 16g/	.	.	.	.	.	.	.	.	.	.	.	.	.	.	.	.	8g/L	.	8ee\L	.
.	.	16E/yy 16c#/	16A/ 16g/	.	.	.	.	.	.	.	.	.	.	.	.	.	.	.	.	.	.	.	.
8C#/	.	16E/yy 16c#/	16A/ 16g/	.	.	.	.	4ryy	.	.	.	.	.	.	.	.	.	.	.	8g/J	.	8ee\J	.
.	.	16E/yy 16c#/	16A/ 16g/	.	.	.	.	.	.	.	.	.	.	.	.	.	.	.	.	.	.	.	.
8AA/J	.	16E/yy 16c#/	16A/ 16g/	.	.	.	.	.	.	.	.	.	.	.	.	.	.	.	.	8r	.	8r	.
.	.	16E/JJyy 16c#/	16A/JJ 16g/	.	.	.	.	.	.	.	.	.	.	.	.	.	.	.	.	.	.	.	.
*	*	*Xrep	*	*	*	*	*	*	*	*	*	*	*	*	*	*	*	*	*	*	*	*	*
!	!	!LO:LB:g=original	!	!	!	!	!	!	!	!	!	!	!	!	!	!LO:PB:g=original	!	!	!	!	!	!LO:LB:g=original	!
=8	=8	=8	=8	=8	=8	=8	=8	=8	=8	=8	=8	=8	=8	=8	=8	=8	=8	=8	=8	=8	=8	=8	=8
*tremolo	*	*	*	*	*	*	*	*	*	*	*	*	*	*	*	*	*	*	*	*	*	*	*
!	!	!	!	!	!	!	!	!	!	!	!	!	!	!	!	!	!	!LO:TX:t=P:problem=takty 8 i 9 - repetycja	!	!	!	!	!
8AA/L	.	16E/LL 16c#/	16A/LL 16g/	.	1ryy	4A\	et	4c#\	Et	4ee\	Et	.	4gg\	Et	.	4A/	.	4e\	.	8g/	.	8ee\	.
.	.	16E/ 16c#/	16A/ 16g/	.	.	.	.	.	.	.	.	.	.	.	.	.	.	.	.	.	.	.	.
8C#/	.	16E/ 16c#/	16A/ 16g/	.	.	.	.	.	.	.	.	.	.	.	.	.	.	.	.	4g/	.	4ee\	.
.	.	16E/ 16c#/	16A/ 16g/	.	.	.	.	.	.	.	.	.	.	.	.	.	.	.	.	.	.	.	.
*	*	*	*	*	*	*	*	*	*	*	*	*	*	*	*	*	*	*2\right	*	*	*	*	*
8AA/	.	16E/ 16c#/	16A/ 16g/	.	.	4G\	i-	4A\	i-	4cc#\	i-	.	4ee\	i-	.	2A/	.	2e\	.	.	.	.	.
.	.	16E/ 16c#/	16A/ 16g/	.	.	.	.	.	.	.	.	.	.	.	.	.	.	.	.	.	.	.	.
8C#/J	.	16E/ 16c#/	16A/ 16g/	.	.	.	.	.	.	.	.	.	.	.	.	.	.	.	.	4g/	.	4ee\	.
*Xtremolo	*	*	*	*	*	*	*	*	*	*	*	*	*	*	*	*	*	*	*	*	*	*	*
.	.	16E/JJ 16c#/	16A/JJ 16g/	.	.	.	.	.	.	.	.	.	.	.	.	.	.	.	.	.	.	.	.
8E/L	.	16A/LL 16g/	16e/LL 16cc#/	.	.	4E\	-te-	4G\	-te-	4a\	-te-	.	4cc#\	-te-	.	.	.	.	.	.	.	.	.
.	.	16A/ 16g/	16e/ 16cc#/	.	.	.	.	.	.	.	.	.	.	.	.	.	.	.	.	.	.	.	.
8C#/	.	16A/ 16g/	16e/ 16cc#/	.	.	.	.	.	.	.	.	.	.	.	.	.	.	.	.	4g/	.	4ee\	.
.	.	16A/ 16g/	16e/ 16cc#/	.	.	.	.	.	.	.	.	.	.	.	.	.	.	.	.	.	.	.	.
8AA/	.	16A/ 16g/	16e/ 16cc#/	.	.	8A\	-rum	8A\	-rum	8cc#\	-rum	.	8ee\	-rum	.	4A/	.	4e\	.	.	.	.	.
.	.	16A/ 16g/	16e/ 16cc#/	.	.	.	.	.	.	.	.	.	.	.	.	.	.	.	.	.	.	.	.
8AA/J	.	16A/ 16g/	16e/ 16cc#/	.	.	8A\	ven-	8A\	ven-	8cc#\	ven-	.	8ee\	ven-	.	.	.	.	.	8g/	.	8ee\	.
.	.	16A/JJ 16g/	16e/JJ 16cc#/	.	.	.	.	.	.	.	.	.	.	.	.	.	.	.	.	.	.	.	.
*	*	*Xtremolo	*Xtremolo	*	*	*	*	*	*	*	*	*	*	*	*	*	*	*	*	*	*	*	*
!	!	!	!LO:LB:g=original	!	!	!	!	!	!	!	!	!	!	!	!	!	!	!	!	!	!	!	!
=9	=9	=9	=9	=9	=9	=9	=9	=9	=9	=9	=9	=9	=9	=9	=9	=9	=9	=9	=9	=9	=9	=9	=9
!	!	!	!LO:TX:t=P:problem=mixed beam	!	!	!	!	!	!	!	!	!	!	!	!	!	!	!	!	!	!	!	!
!	!	!	!LO:N:vis=16	!	!	!	!	!	!	!	!	!	!	!	!	!	!LO:DY:t=p.	!	!	!	!	!	!
8D\L	.	8D/L	8dd\L	.	1ryy	4d\	-tu-	4A/	-tu-	4dd\	-tu-	.	4ff#\	-tu-	.	4F#/	p	4d\	.	4f#/	.	4dd\	.
.	.	.	.	.	.	.	.	.	.	.	.	.	.	.	.	.	.	.	.	.	.	.	.
!	!	!	!LO:N:vis=16	!	!	!	!	!	!	!	!	!	!	!	!	!	!	!	!	!	!	!	!
8d\J	.	8F#/	8d/	.	.	.	.	.	.	.	.	.	.	.	.	.	.	.	.	.	.	.	.
.	.	.	.	.	.	.	.	.	.	.	.	.	.	.	.	.	.	.	.	.	.	.	.
*tremolo	*	*	*	*	*	*	*	*	*	*	*	*	*	*	*	*	*	*	*	*	*	*	*
!LO:N:vis=2	!	!	!LO:N:vis=16	!	!	!	!	!	!	!	!	!	!	!	!	!	!	!	!	!	!	!	!
8D\L	.	8A/	8f#/	.	.	4D\	-rus	4F#/	-rus	4a\	-rus	.	4dd\	-rus	.	4r	.	4r	.	4r	.	4r	.
.	.	.	.	.	.	.	.	.	.	.	.	.	.	.	.	.	.	.	.	.	.	.	.
!	!	!	!LO:N:vis=16	!	!	!	!	!	!	!	!	!	!	!	!	!	!	!	!	!	!	!	!
8D\	.	8F#/J	8a/J	.	.	.	.	.	.	.	.	.	.	.	.	.	.	.	.	.	.	.	.
.	.	.	.	.	.	.	.	.	.	.	.	.	.	.	.	.	.	.	.	.	.	.	.
*	*	*rep	*tremolo	*	*	*	*	*	*	*	*	*	*	*	*	*	*	*	*	*	*	*	*
8D\	.	8D/Lyy	16dd/LL	.	.	4D\	est	4F#/	est	4a\	eſt	.	4a\	est	.	2r	.	2r	.	2r	.	2r	.
.	.	.	16dd/	.	.	.	.	.	.	.	.	.	.	.	.	.	.	.	.	.	.	.	.
8D\	.	8F#/yy	16a/	.	.	.	.	.	.	.	.	.	.	.	.	.	.	.	.	.	.	.	.
.	.	.	16a/	.	.	.	.	.	.	.	.	.	.	.	.	.	.	.	.	.	.	.	.
8D\	.	8A/yy	16f#/	.	.	4r	.	4r	.	4r	.	.	4r	.	.	.	.	.	.	.	.	.	.
.	.	.	16f#/	.	.	.	.	.	.	.	.	.	.	.	.	.	.	.	.	.	.	.	.
8D\J	.	8F#/Jyy	16d/	.	.	.	.	.	.	.	.	.	.	.	.	.	.	.	.	.	.	.	.
.	.	.	16d/JJ	.	.	.	.	.	.	.	.	.	.	.	.	.	.	.	.	.	.	.	.
*	*	*Xrep	*	*	*	*	*	*	*	*	*	*	*	*	*	*	*	*	*	*	*	*	*
=10	=10	=10	=10	=10	=10	=10	=10	=10	=10	=10	=10	=10	=10	=10	=10	=10	=10	=10	=10	=10	=10	=10	=10
!LO:TX:t=P:problem=nadmiarowe 2 takty w cr1	!	!LO:TX:t=P:problem=nadmiarowe 2 takty w cr1	!LO:TX:t=P:problem=nadmiarowe 2 takty w cr1	!	!	!LO:TX:t=P:problem=nadmiarowe 2 takty w cr1	!	!LO:TX:t=P:problem=nadmiarowe 2 takty w cr1	!	!LO:TX:t=P:problem=nadmiarowe 2 takty w cr1	!	!	!LO:TX:t=P:problem=nadmiarowe 2 takty w cr1	!	!	!LO:TX:t=P:problem=nadmiarowe 2 takty w cr1	!	!	!	!LO:TX:t=P:problem=nadmiarowe 2 takty w cr1	!	!LO:TX:t=P:problem=nadmiarowe 2 takty w cr1	!
1ryy	.	1ryy	1ryy	.	1ryy	1ryy	.	1ryy	.	1ryy	.	.	1ryy	.	.	1ryy	.	4e\yy	.	1ryy	.	1ryy	.
.	.	.	.	.	.	.	.	.	.	.	.	.	.	.	.	.	.	2e\yy	.	.	.	.	.
.	.	.	.	.	.	.	.	.	.	.	.	.	.	.	.	.	.	4e\yy	.	.	.	.	.
=11	=11	=11	=11	=11	=11	=11	=11	=11	=11	=11	=11	=11	=11	=11	=11	=11	=11	=11	=11	=11	=11	=11	=11
1ryy	.	1ryy	1ryy	.	1ryy	1ryy	.	1ryy	.	1ryy	.	.	1ryy	.	.	1ryy	.	4d\yy	.	1ryy	.	1ryy	.
.	.	.	.	.	.	.	.	.	.	.	.	.	.	.	.	.	.	4ryy	.	.	.	.	.
.	.	.	.	.	.	.	.	.	.	.	.	.	.	.	.	.	.	2ryy	.	.	.	.	.
=12	=12	=12	=12	=12	=12	=12	=12	=12	=12	=12	=12	=12	=12	=12	=12	=12	=12	=12	=12	=12	=12	=12	=12
!LO:TX:t=P:problem=mixed beam	!	!	!	!	!	!	!	!	!	!	!	!	!	!	!	!	!	!	!	!	!	!	!
8E\L	.	8E/L	16A/LL	.	1ryy	4A\	Ju-	4e\	Ju-	4g\	Ju-	.	4a\	Ju-	.	4A/	.	4e\	.	4ee\	.	4gg\	.
.	.	.	16A/	.	.	.	.	.	.	.	.	.	.	.	.	.	.	.	.	.	.	.	.
8AA/	.	8G/	16c#/	.	.	.	.	.	.	.	.	.	.	.	.	.	.	.	.	.	.	.	.
.	.	.	16c#/	.	.	.	.	.	.	.	.	.	.	.	.	.	.	.	.	.	.	.	.
8E\	.	8A/	16e/	.	.	4A\	-di-	4e\	-di-	4g\	-di-	.	4cc#\	-di-	.	2A/	.	2e\	.	2ee\	.	2gg\	.
.	.	.	16e/	.	.	.	.	.	.	.	.	.	.	.	.	.	.	.	.	.	.	.	.
8AA/J	.	8G/J	16g/	.	.	.	.	.	.	.	.	.	.	.	.	.	.	.	.	.	.	.	.
.	.	.	16g/JJ	.	.	.	.	.	.	.	.	.	.	.	.	.	.	.	.	.	.	.	.
*	*	*rep	*	*	*	*	*	*	*	*	*	*	*	*	*	*	*	*	*	*	*	*	*
!LO:TX:t=P:problem=mixed beam	!	!	!	!	!	!	!	!	!	!	!	!	!	!	!	!	!	!	!	!	!	!	!
8E\L	.	8E/Lyy	16a/LL	.	.	4A\	-ca-	4c#\	-ca-	4g\	-ca-	.	4ee\	-ca-	.	.	.	.	.	.	.	.	.
.	.	.	16a/	.	.	.	.	.	.	.	.	.	.	.	.	.	.	.	.	.	.	.	.
8AA/	.	8G/yy	16cc#/	.	.	.	.	.	.	.	.	.	.	.	.	.	.	.	.	.	.	.	.
.	.	.	16cc#/	.	.	.	.	.	.	.	.	.	.	.	.	.	.	.	.	.	.	.	.
8E\	.	8A/yy	16ee/	.	.	4A\	-re	4e\	-re	4g\	-re	.	4cc#\	-re	.	4A/	.	4e\	.	4ee\	.	4gg\	.
.	.	.	16ee/	.	.	.	.	.	.	.	.	.	.	.	.	.	.	.	.	.	.	.	.
8AA/J	.	8G/Jyy	16a/	.	.	.	.	.	.	.	.	.	.	.	.	.	.	.	.	.	.	.	.
.	.	.	16a/JJ	.	.	.	.	.	.	.	.	.	.	.	.	.	.	.	.	.	.	.	.
*Xtremolo	*	*Xrep	*Xtremolo	*	*	*	*	*	*	*	*	*	*	*	*	*	*	*	*	*	*	*	*
=13	=13	=13	=13	=13	=13	=13	=13	=13	=13	=13	=13	=13	=13	=13	=13	=13	=13	=13	=13	=13	=13	=13	=13
!	!	!	!	!	!	!	!	!	!	!	!	!LO:DY:a	!	!	!LO:DY:a	!	!LO:DY:t=p.	!	!LO:DY:t=p.	!	!	!	!LO:DY:t=po
8D\L	.	8D/L	16dd/LL	.	1ryy	4d\	vi-	4A\	vi-	4f#\	vi-	p	4dd\	vi-	p	4F#/	p	4d\	p	4dd\	p	4ff#\	p
.	.	.	16a/	.	.	.	.	.	.	.	.	.	.	.	.	.	.	.	.	.	.	.	.
8F#\	.	8F#/	16f#/	.	.	.	.	.	.	.	.	.	.	.	.	.	.	.	.	.	.	.	.
.	.	.	16d/JJ	.	.	.	.	.	.	.	.	.	.	.	.	.	.	.	.	.	.	.	.
8F#\	.	8A/	8f#/L	.	.	4D\	-vos	4d\	-vos	4f#\	-vos	.	4ff#\	-vos	.	4r	.	4r	.	8r	.	8r	.
!	!	!	!	!	!	!	!	!	!	!	!	!	!	!	!	!	!	!	!	!LO:TX:t=P:problem=mixed beam	!	!	!
8F#\J	.	8F#/J	8a/J	.	.	.	.	.	.	.	.	.	.	.	.	.	.	.	.	8f#/L	.	8dd\L	.
!	!	!	!	!	!	!	!	!	!	!	!	!	!	!	!	!	!	!	!	!	!	!	!
*tremolo	*	*rep	*	*	*	*	*	*	*	*	*	*	*	*	*	*	*	*	*	*	*	*	*
8F#\L	.	8D/Lyy	16d/LL	.	.	2r	.	2r	.	2r	.	.	2r	.	.	2r	.	2r	.	8dd\J	.	8ff#\J	.
.	.	.	16f#/	.	.	.	.	.	.	.	.	.	.	.	.	.	.	.	.	.	.	.	.
8F#\	.	8F#/yy	16a/	.	.	.	.	.	.	.	.	.	.	.	.	.	.	.	.	8r	.	8r	.
.	.	.	16f#/JJ	.	.	.	.	.	.	.	.	.	.	.	.	.	.	.	.	.	.	.	.
8F#\	.	8A/yy	16ee\LL	.	.	.	.	.	.	.	.	.	.	.	.	.	.	.	.	4r	.	4r	.
.	.	.	16ff#\	.	.	.	.	.	.	.	.	.	.	.	.	.	.	.	.	.	.	.	.
8F#\J	.	8F#/Jyy	16aa\	.	.	.	.	.	.	.	.	.	.	.	.	.	.	.	.	.	.	.	.
.	.	.	16ff#\JJ	.	.	.	.	.	.	.	.	.	.	.	.	.	.	.	.	.	.	.	.
*Xtremolo	*	*Xrep	*	*	*	*	*	*	*	*	*	*	*	*	*	*	*	*	*	*	*	*	*
!	!	!	!	!	!	!LO:LB:g=original	!	!	!	!LO:LB:g=original	!	!	!	!	!	!	!	!	!	!	!	!	!
=14	=14	=14	=14	=14	=14	=14	=14	=14	=14	=14	=14	=14	=14	=14	=14	=14	=14	=14	=14	=14	=14	=14	=14
!LO:TX:t=P:problem=mixed beam	!	!	!	!	!	!	!	!	!	!	!	!	!	!	!	!	!	!	!	!	!	!	!
8G\L	.	8D/L	16gg\LL	.	1ryy	1r	.	1r	.	1r	.	.	1r	.	.	1r	.	1r	.	4b\	.	4gg\	.
.	.	.	16dd\	.	.	.	.	.	.	.	.	.	.	.	.	.	.	.	.	.	.	.	.
8GG/J	.	8G/	16b\	.	.	.	.	.	.	.	.	.	.	.	.	.	.	.	.	.	.	.	.
.	.	.	16g\JJ	.	.	.	.	.	.	.	.	.	.	.	.	.	.	.	.	.	.	.	.
*tremolo	*	*	*	*	*	*	*	*	*	*	*	*	*	*	*	*	*	*	*	*	*	*	*
!	!	!	!	!	!	!	!	!	!	!	!	!	!	!	!	!	!	!	!	!	!LO:DY:t=po	!	!
8G\L	.	8B/	16b/LL	.	.	.	.	.	.	.	.	.	.	.	.	.	.	.	.	8r	p	8r	.
!	!	!	!	!	!	!	!	!	!	!	!	!	!	!	!	!	!	!	!	!	!	!	!
.	.	.	16g/	.	.	.	.	.	.	.	.	.	.	.	.	.	.	.	.	.	.	.	.
!	!	!	!	!	!	!	!	!	!	!	!	!	!	!	!	!	!	!	!	!	!	!	!LO:DY:t=po.
8G\	.	8G/J	16d/	.	.	.	.	.	.	.	.	.	.	.	.	.	.	.	.	8b\L	.	8gg\L	p
.	.	.	16B/JJ	.	.	.	.	.	.	.	.	.	.	.	.	.	.	.	.	.	.	.	.
*	*	*rep	*	*	*	*	*	*	*	*	*	*	*	*	*	*	*	*	*	*	*	*	*
8G\	.	8D/Lyy	16g/LL	.	.	.	.	.	.	.	.	.	.	.	.	.	.	.	.	8gg\J	.	8bb\J	.
.	.	.	16d/	.	.	.	.	.	.	.	.	.	.	.	.	.	.	.	.	.	.	.	.
8G\	.	8G/yy	16B/	.	.	.	.	.	.	.	.	.	.	.	.	.	.	.	.	8r	.	8r	.
.	.	.	16G/JJ	.	.	.	.	.	.	.	.	.	.	.	.	.	.	.	.	.	.	.	.
8G\	.	8B/yy	16A/LL	.	.	.	.	.	.	.	.	.	.	.	.	.	.	.	.	4r	.	4r	.
.	.	.	16c#/	.	.	.	.	.	.	.	.	.	.	.	.	.	.	.	.	.	.	.	.
8G\J	.	8G/Jyy	16e/	.	.	.	.	.	.	.	.	.	.	.	.	.	.	.	.	.	.	.	.
.	.	.	16a/JJ	.	.	.	.	.	.	.	.	.	.	.	.	.	.	.	.	.	.	.	.
*Xtremolo	*	*Xrep	*	*	*	*	*	*	*	*	*	*	*	*	*	*	*	*	*	*	*	*	*
!	!	!	!LO:LB:g=original	!	!	!	!	!	!	!	!	!	!	!	!	!	!	!LO:LB:g=original	!	!	!	!	!
=15	=15	=15	=15	=15	=15	=15	=15	=15	=15	=15	=15	=15	=15	=15	=15	=15	=15	=15	=15	=15	=15	=15	=15
*	*	*	*	*	*	*2\right	*	*2\right	*	*	*	*	*	*	*	*2\right	*	*	*	*	*	*	*
!LO:TX:t=P:problem=mixed beam	!	!	!	!	!	!	!	!	!	!	!	!LO:DY:rj	!	!	!	!	!LO:DY:t=po	!	!LO:DY:t=p.	!	!	!	!
8A\L	.	8D/L	16f#/LL	.	1ryy	2D\	et	2d\	et	2a\	et	f	2ff#\	et	.	(2d\	p	(2f#\	p	(2ff#\	.	(2aa\	.
.	.	.	16a/	.	.	.	.	.	.	.	.	.	.	.	.	.	.	.	.	.	.	.	.
8AA/J	.	8F#/	16d/	.	.	.	.	.	.	.	.	.	.	.	.	.	.	.	.	.	.	.	.
.	.	.	16a/JJ	.	.	.	.	.	.	.	.	.	.	.	.	.	.	.	.	.	.	.	.
*tremolo	*	*	*rep	*	*	*	*	*	*	*	*	*	*	*	*	*	*	*	*	*	*	*	*
8A\L	.	8A/	16f#/LL	.	.	.	.	.	.	.	.	.	.	.	.	.	.	.	.	.	.	.	.
.	.	.	16a/	.	.	.	.	.	.	.	.	.	.	.	.	.	.	.	.	.	.	.	.
8A\	.	8F#/J	16d/	.	.	.	.	.	.	.	.	.	.	.	.	.	.	.	.	.	.	.	.
.	.	.	16a/JJ	.	.	.	.	.	.	.	.	.	.	.	.	.	.	.	.	.	.	.	.
*	*	*	*Xrep	*	*	*	*	*	*	*	*	*	*	*	*	*	*	*	*	*	*	*	*
*	*	*rep	*rep	*	*	*	*	*	*	*	*	*	*	*	*	*	*	*	*	*	*	*	*
8A\	.	8D/Lyy	16f#/LL	.	.	4D\	mor-	4d\	mor-	4a\	mor-	.	4ff#\	mor-	.	4d\)	.	4f#\)	.	4ff#\)	.	4aa\)	.
.	.	.	16a/	.	.	.	.	.	.	.	.	.	.	.	.	.	.	.	.	.	.	.	.
8A\	.	8F#/yy	16d/	.	.	.	.	.	.	.	.	.	.	.	.	.	.	.	.	.	.	.	.
.	.	.	16a/JJ	.	.	.	.	.	.	.	.	.	.	.	.	.	.	.	.	.	.	.	.
*	*	*	*Xrep	*	*	*	*	*	*	*	*	*	*	*	*	*	*	*	*	*	*	*	*
*	*	*	*rep	*	*	*	*	*	*	*	*	*	*	*	*	*	*	*	*	*	*	*	*
8A\	.	8A/yy	16f#/LL	.	.	4D\	-tu-	4d\	-tu-	4a\	-tu-	.	4ff#\	-tu-	.	4r	.	4r	.	4r	.	4r	.
.	.	.	16a/	.	.	.	.	.	.	.	.	.	.	.	.	.	.	.	.	.	.	.	.
8A\J	.	8F#/Jyy	16d/	.	.	.	.	.	.	.	.	.	.	.	.	.	.	.	.	.	.	.	.
.	.	.	16a/JJ	.	.	.	.	.	.	.	.	.	.	.	.	.	.	.	.	.	.	.	.
*	*	*Xrep	*Xrep	*	*	*	*	*	*	*	*	*	*	*	*	*	*	*	*	*	*	*	*
!	!	!	!	!	!	!	!LO:LB:g=original	!	!	!	!	!	!LO:LB:g=original	!	!	!	!	!	!	!	!	!	!
=16	=16	=16	=16	=16	=16	=16	=16	=16	=16	=16	=16	=16	=16	=16	=16	=16	=16	=16	=16	=16	=16	=16	=16
8AA/L	.	8E/L	16g/LL	.	1ryy	4E\	-os	8c#\	-os	8a\	-os	.	4gg\	-os	.	2A/	.	(2e\	.	2gg\	.	(2aa\	.
.	.	.	16a/	.	.	.	.	.	.	.	.	.	.	.	.	.	.	.	.	.	.	.	.
8AA/	.	8A/	16e/	.	.	.	.	8r	.	8r	.	.	.	.	.	.	.	.	.	.	.	.	.
.	.	.	16a/JJ	.	.	.	.	.	.	.	.	.	.	.	.	.	.	.	.	.	.	.	.
*	*	*	*rep	*	*	*	*	*	*	*	*	*	*	*	*	*	*	*	*	*	*	*	*
8AA/	.	8G/	16g/LL	.	.	4r	.	4r	.	4r	.	.	4r	.	.	.	.	.	.	.	.	.	.
.	.	.	16a/	.	.	.	.	.	.	.	.	.	.	.	.	.	.	.	.	.	.	.	.
8AA/J	.	8A/J	16e/	.	.	.	.	.	.	.	.	.	.	.	.	.	.	.	.	.	.	.	.
.	.	.	16a/JJ	.	.	.	.	.	.	.	.	.	.	.	.	.	.	.	.	.	.	.	.
*	*	*	*Xrep	*	*	*	*	*	*	*	*	*	*	*	*	*	*	*	*	*	*	*	*
*	*	*rep	*rep	*	*	*	*	*	*	*	*	*	*	*	*	*	*	*	*	*	*	*	*
8AA/L	.	8E/Lyy	16g/LL	.	.	2r	.	2r	.	2r	.	.	2r	.	.	4A/	.	4e\)	.	4gg\	.	4aa\)	.
.	.	.	16a/	.	.	.	.	.	.	.	.	.	.	.	.	.	.	.	.	.	.	.	.
8AA/	.	8A/yy	16e/	.	.	.	.	.	.	.	.	.	.	.	.	.	.	.	.	.	.	.	.
.	.	.	16a/JJ	.	.	.	.	.	.	.	.	.	.	.	.	.	.	.	.	.	.	.	.
*	*	*	*Xrep	*	*	*	*	*	*	*	*	*	*	*	*	*	*	*	*	*	*	*	*
*	*	*	*rep	*	*	*	*	*	*	*	*	*	*	*	*	*	*	*	*	*	*	*	*
8AA/	.	8G/yy	16g/LL	.	.	.	.	.	.	.	.	.	.	.	.	4r	.	4r	.	4r	.	4r	.
.	.	.	16a/	.	.	.	.	.	.	.	.	.	.	.	.	.	.	.	.	.	.	.	.
8AA/J	.	8A/Jyy	16e/	.	.	.	.	.	.	.	.	.	.	.	.	.	.	.	.	.	.	.	.
.	.	.	16a/JJ	.	.	.	.	.	.	.	.	.	.	.	.	.	.	.	.	.	.	.	.
*Xtremolo	*	*Xrep	*Xrep	*	*	*	*	*	*	*	*	*	*	*	*	*	*	*	*	*	*	*	*
!LO:PB:g=original	!	!	!	!	!	!	!	!	!	!	!	!	!	!	!	!	!	!	!	!	!	!	!
=17	=17	=17	=17	=17	=17	=17	=17	=17	=17	=17	=17	=17	=17	=17	=17	=17	=17	=17	=17	=17	=17	=17	=17
!	!	!	!	!	!	!	!	!	!	!	!	!LO:DY:rj	!	!	!LO:DY:a:rj	!	!	!	!LO:DY:t=p.	!	!LO:DY:t=po	!	!
4D\	.	16D/LL	16f#/LL	.	1ryy	4D\	Cu-	4d\	Cu-	4a\	Cu-	p	4ff#\	Cu-	p	4F#/	p	4d\	p	4dd\	p	4ff#\	.
.	.	16E/	16a/	.	.	.	.	.	.	.	.	.	.	.	.	.	.	.	.	.	.	.	.
.	.	16F#/	16d/	.	.	.	.	.	.	.	.	.	.	.	.	.	.	.	.	.	.	.	.
.	.	16G/JJ	16a/JJ	.	.	.	.	.	.	.	.	.	.	.	.	.	.	.	.	.	.	.	.
*	*	*	*rep	*	*	*	*	*	*	*	*	*	*	*	*	*	*	*	*	*	*	*	*
4r	.	16A/LL	16f#/LL	.	.	8F#\	-ius	8d\	-ius	8a\	-ius	.	8ff#\	-ius	.	4r	.	4r	.	4r	.	4r	.
.	.	16B/	16a/	.	.	.	.	.	.	.	.	.	.	.	.	.	.	.	.	.	.	.	.
.	.	16c#/	16d/	.	.	8D\	re-	8d\	re-	8a\	re-	.	8ff#\	re-	.	.	.	.	.	.	.	.	.
.	.	16d/JJ	16a/JJ	.	.	.	.	.	.	.	.	.	.	.	.	.	.	.	.	.	.	.	.
*	*	*tremolo	*Xrep	*	*	*	*	*	*	*	*	*	*	*	*	*	*	*	*	*	*	*	*
!	!	!	!	!	!	!	!	!	!	!	!	!	!	!	!LO:DY:rj:b	!	!LO:DY:t=f.	!	!	!	!	!	!
(16D\LL	.	8D/L 8d/	(16dd/LL	.	.	4F#\	-gni	4d\	-gni	4a\	-gni	.	8ff#\	-gni	f	8F#/L	f	8d\L	f	8dd\L	f	8ff#\L	.
16E\	.	.	16cc#/	.	.	.	.	.	.	.	.	.	.	.	.	.	.	.	.	.	.	.	.
!	!	!	!	!	!	!	!	!	!	!	!	!	!LO:N:vis=8	!	!	!	!	!	!	!	!	!	!
16F#\	.	8D/ 8d/	16b/	.	.	.	.	.	.	.	.	.	4.ff#\	no(n)	.	16F#/L	.	16d\L	.	16dd\L	.	16ff#\L	f
16G\JJ	.	.	16a/JJ	.	.	.	.	.	.	.	.	.	.	.	.	16F#/JJ	.	16d\JJ	.	16dd\JJ	.	16ff#\JJ	.
16A\LL	.	8D/ 8d/	16g/LL	.	.	4A\	no(n)	4d\	no(n)	4a\	no(n)	.	.	.	.	8F#/L	.	8d\L	.	8dd\L	.	8ff#\L	.
16B\	.	.	16f#/	.	.	.	.	.	.	.	.	.	.	.	.	.	.	.	.	.	.	.	.
16c#\)	.	8D/J 8d/	16e/	.	.	.	.	.	.	.	.	.	.	.	.	8F#/J	.	8d\J	.	8dd\J	.	8ff#\J	.
16d\JJ	.	.	16d/JJ)	.	.	.	.	.	.	.	.	.	.	.	.	.	.	.	.	.	.	.	.
*	*	*Xtremolo	*	*	*	*	*	*	*	*	*	*	*	*	*	*	*	*	*	*	*	*	*
!	!	!	!	!	!	!	!	!	!	!	!	!	!	!	!	!	!	!	!	!LO:LB:g=original	!	!	!
=18	=18	=18	=18	=18	=18	=18	=18	=18	=18	=18	=18	=18	=18	=18	=18	=18	=18	=18	=18	=18	=18	=18	=18
!	!	!	!	!	!	!	!	!	!	!	!	!LO:DY:b:t=p.	!	!	!LO:DY:b	!	!LO:DY:t=p.	!	!LO:DY:t=p.	!	!LO:DY:t=p.	!	!LO:DY:t=p.
4B\	.	16B\LL	16B/LL	.	1ryy	4B\	e-	4d\	e-	4b\	e-	p	4ff#\	e-	p	4D/	p	4d\	p	4b\	p	4ff#\	p
.	.	16c#\	16f#/	.	.	.	.	.	.	.	.	.	.	.	.	.	.	.	.	.	.	.	.
.	.	16d\	16d/	.	.	.	.	.	.	.	.	.	.	.	.	.	.	.	.	.	.	.	.
.	.	16e\JJ	16f#/JJ	.	.	.	.	.	.	.	.	.	.	.	.	.	.	.	.	.	.	.	.
*	*	*	*rep	*	*	*	*	*	*	*	*	*	*	*	*	*	*	*	*	*	*	*	*
4r	.	16f#\LL	16B/LL	.	.	4BB/	-rit	4d\	-rit	4b\	-rit	.	4ff#\	-rit	.	4r	.	4r	.	4r	.	4r	.
.	.	16g#X\	16f#/	.	.	.	.	.	.	.	.	.	.	.	.	.	.	.	.	.	.	.	.
.	.	16a#X\	16d/	.	.	.	.	.	.	.	.	.	.	.	.	.	.	.	.	.	.	.	.
.	.	16b\JJ	16f#/JJ	.	.	.	.	.	.	.	.	.	.	.	.	.	.	.	.	.	.	.	.
!	!	!LO:LB:g=original	!	!	!	!	!	!	!	!	!	!	!	!	!	!	!	!	!	!	!	!LO:LB:g=original	!
*	*	*2\right	*	*	*	*	*	*	*	*	*	*	*	*	*	*	*	*	*	*	*	*	*
*	*	*tremolo	*Xrep	*	*	*	*	*	*	*	*	*	*	*	*	*	*	*	*	*	*	*	*
16BB\LL	.	8f#\L 8b\	16b/LL	.	.	2r	.	2r	.	2r	.	.	2r	.	.	8d\L	f	8f#\L	f	8b\L	.	8bb\L	.
(16C#\	.	.	16a#X/	.	.	.	.	.	.	.	.	.	.	.	.	.	.	.	.	.	.	.	.
!	!	!	!	!	!	!	!	!	!	!	!	!	!	!	!	!	!	!	!	!	!	!	!
16D\	.	8f#\ 8b\	16g#X/	.	.	.	.	.	.	.	.	.	.	.	.	16d\L	.	16f#\L	.	16b\L	f	16bb\L	f
16E\JJ	.	.	16f#/JJ	.	.	.	.	.	.	.	.	.	.	.	.	16d\JJ	.	16f#\JJ	.	16b\JJ	.	16bb\JJ	.
16F#\LL	.	8f#\ 8b\	16e/LL	.	.	.	.	.	.	.	.	.	.	.	.	8d\L	.	8f#\L	.	8b\L	.	8bb\L	.
16G#X\	.	.	16d/	.	.	.	.	.	.	.	.	.	.	.	.	.	.	.	.	.	.	.	.
16A#X\)	.	8f#\J 8b\	16c#/	.	.	.	.	.	.	.	.	.	.	.	.	8d\J	.	8f#\J	.	8b\J	.	8bb\J	.
16B\JJ	.	.	16B/JJ	.	.	.	.	.	.	.	.	.	.	.	.	.	.	.	.	.	.	.	.
*	*	*Xtremolo	*	*	*	*	*	*	*	*	*	*	*	*	*	*	*	*	*	*	*	*	*
=19	=19	=19	=19	=19	=19	=19	=19	=19	=19	=19	=19	=19	=19	=19	=19	=19	=19	=19	=19	=19	=19	=19	=19
*	*	*	*	*	*	*	*ij	*	*ij	*	*ij	*	*	*ij	*	*tremolo	*	*tremolo	*	*tremolo	*	*tremolo	*
!	!	!	!	!	!	!	!	!	!	!	!	!LO:DY:rj:t=p.	!	!	!LO:DY:b	!	!	!	!LO:DY:t=p.	!	!LO:DY:t=p.	!	!
4Gn\	.	16G/LL	16G/LL	.	1ryy	4G\	Cu-	4d\	Cu-	4b\	Cu-	p	4ee\	Cu-	p	8d\L	p	8e\L	p	8b\L	p	8bb\L	p
.	.	16A/	16d/	.	.	.	.	.	.	.	.	.	.	.	.	.	.	.	.	.	.	.	.
.	.	16B/	16B/	.	.	.	.	.	.	.	.	.	.	.	.	8d\	.	8e\	.	8b\	.	8bb\	.
.	.	16c#/JJ	16d/JJ	.	.	.	.	.	.	.	.	.	.	.	.	.	.	.	.	.	.	.	.
*	*	*	*rep	*	*	*	*	*	*	*	*	*	*	*	*	*	*	*	*	*	*	*	*
4r	.	16d\LL	16G/LL	.	.	8G\	-ius	8d\	-ius	8b\	-ius	.	8ee\	-ius	.	8d\	.	8e\	.	8b\	.	8bb\	.
.	.	16e\	16d/	.	.	.	.	.	.	.	.	.	.	.	.	.	.	.	.	.	.	.	.
.	.	16f#\	16B/	.	.	8G\	re-	8d\	re-	8b\	re-	.	8ee\	re-	.	8d\J	.	8e\J	.	8b\J	.	8bb\J	.
*	*	*	*	*	*	*	*	*	*	*	*	*	*	*	*	*Xtremolo	*	*Xtremolo	*	*Xtremolo	*	*Xtremolo	*
.	.	16g\JJ	16d/JJ	.	.	.	.	.	.	.	.	.	.	.	.	.	.	.	.	.	.	.	.
*	*	*tremolo	*Xrep	*	*	*	*	*	*	*	*	*	*	*	*	*	*	*	*	*	*	*	*
!	!	!	!LO:LB:g=original	!	!	!	!	!	!	!	!	!LO:DY:b	!	!	!LO:DY:b:rj:t=fr	!	!LO:DY:t=f.	!	!	!	!	!	!
16GG/LL	.	8G/L 8g/	16g/LL	.	.	4G\	-gni	4d\	-gni	4b\	-gni	f	4ee\	-gni	f	8d\L	f	8e\L	f	8b\L	.	8bb\L	.
16AAn/	.	.	16f#/	.	.	.	.	.	.	.	.	.	.	.	.	.	.	.	.	.	.	.	.
(16BB/	.	8G/ 8g/	16e/	.	.	.	.	.	.	.	.	.	.	.	.	16d\L	.	16e\L	.	16b\L	.	16bb\L	f
16Cn/JJ	.	.	16d/JJ	.	.	.	.	.	.	.	.	.	.	.	.	16d\JJ	.	16e\JJ	.	16b\JJ	.	16bb\JJ	.
16D/LL	.	8G/ 8g/	16cn/LL	.	.	4G\	non	4d\	no(n)	4b\	no(n)	.	4ee\	no(n)	.	8d\L	.	8e\L	.	8b\L	.	8bb\L	.
16E/	.	.	16B/	.	.	.	.	.	.	.	.	.	.	.	.	.	.	.	.	.	.	.	.
16F#/)	.	8G/J 8g/	16A/	.	.	.	.	.	.	.	.	.	.	.	.	8d\J	.	8e\J	.	8b\J	.	8bb\J	.
16G/JJ	.	.	16G/JJ	.	.	.	.	.	.	.	.	.	.	.	.	.	.	.	.	.	.	.	.
=20	=20	=20	=20	=20	=20	=20	=20	=20	=20	=20	=20	=20	=20	=20	=20	=20	=20	=20	=20	=20	=20	=20	=20
*	*	*	*	*	*	*	*	*	*	*	*	*	*	*	*	*tremolo	*	*tremolo	*	*tremolo	*	*tremolo	*
8A\L	.	16A/LL 16g/	16A/LL	.	1ryy	4A\	e-	4c#\	e-	4a\	e-	.	4ee\	e-	.	8A/L	.	8e\L	.	8gg\L	.	8aa\L	.
.	.	16A/ 16g/	16c#X/	.	.	.	.	.	.	.	.	.	.	.	.	.	.	.	.	.	.	.	.
8A\	.	16A/ 16g/	16e/	.	.	.	.	.	.	.	.	.	.	.	.	8A/	.	8e\	.	8gg\	.	8aa\	.
.	.	16A/ 16g/	16c#/JJ	.	.	.	.	.	.	.	.	.	.	.	.	.	.	.	.	.	.	.	.
*	*	*	*rep	*	*	*	*	*	*	*	*	*	*	*	*	*	*	*	*	*	*	*	*
!	!LO:DY:t=po.	!	!	!	!	!	!	!	!	!	!	!	!	!	!	!	!	!	!	!	!	!	!
8c#\	p	16A/ 16g/	16A/LL	.	.	4A\	-rit	4c#\	-rit	4a\	-rit	.	4ee\	-rit	.	8A/	.	8e\	.	8gg\	.	8aa\	.
.	.	16A/ 16g/	16c#X/	.	.	.	.	.	.	.	.	.	.	.	.	.	.	.	.	.	.	.	.
8A\J	.	16A/ 16g/	16e/	.	.	.	.	.	.	.	.	.	.	.	.	8A/J	.	8e\J	.	8gg\J	.	8aa\J	.
.	.	16A/JJ 16g/	16c#/JJ	.	.	.	.	.	.	.	.	.	.	.	.	.	.	.	.	.	.	.	.
*	*	*	*Xrep	*	*	*	*Xij	*	*Xij	*	*Xij	*	*	*Xij	*	*Xtremolo	*	*Xtremolo	*	*Xtremolo	*	*Xtremolo	*
8AA/L	.	16A/LL 16g/	16A/LL	.	.	2AA/	fi-	2c#\	fi[[nis]]-	2a\	fi-	.	2ee\	fi-	.	8A/L	.	8e\L	.	8gg\L	.	8aa\L	.
.	.	16A/ 16g/	16c#/	.	.	.	.	.	.	.	.	.	.	.	.	.	.	.	.	.	.	.	.
8AA/	.	16A/ 16g/	16d/	.	.	.	.	.	.	.	.	.	.	.	.	16A/L	.	16e\L	.	16gg\L	.	16aa\L	.
.	.	16A/ 16g/	16c#/JJ	.	.	.	.	.	.	.	.	.	.	.	.	16A/JJ	.	16e\JJ	.	16gg\JJ	.	16aa\JJ	.
*	*	*	*rep	*	*	*	*	*	*	*	*	*	*	*	*	*	*	*	*	*	*	*	*
8C#/	.	16A/ 16g/	16A/LL	.	.	.	.	.	.	.	.	.	.	.	.	8A/L	.	8e\L	.	8gg\L	.	8aa\L	.
.	.	16A/ 16g/	16c#/	.	.	.	.	.	.	.	.	.	.	.	.	.	.	.	.	.	.	.	.
8AA/J	.	16A/ 16g/	16d/	.	.	.	.	.	.	.	.	.	.	.	.	16A/L	.	16e\L	.	16gg\L	.	16aa\L	.
.	.	16A/JJ 16g/	16c#/JJ	.	.	.	.	.	.	.	.	.	.	.	.	16A/JJ	.	16e\JJ	.	16gg\JJ	.	16aa\JJ	.
*	*	*Xtremolo	*Xrep	*	*	*	*	*	*	*	*	*	*	*	*	*	*	*	*	*	*	*	*
=21	=21	=21	=21	=21	=21	=21	=21	=21	=21	=21	=21	=21	=21	=21	=21	=21	=21	=21	=21	=21	=21	=21	=21
!	!	!	!	!	!	!	!	!	!	!	!	!	!	!	!	!	!LO:DY:t=f	!	!LO:DY:t=f.	!	!	!	!
4D\ 4d\	.	8A/ 8f#/	8d/	.	1ryy	4D\	-nis	4A\	-nis	4f#\	-nis	.	4dd\	-nis	.	4F#/	f	4d\	f	4dd\	.	4ff#\	.
.	.	4D/ 4d/	4A/ 4f#/	.	.	.	.	.	.	.	.	.	.	.	.	.	.	.	.	.	.	.	.
4r	.	.	.	.	.	4r	.	4r	.	4r	.	.	4r	.	.	4F#/	.	4d\	.	4r	.	4r	.
.	.	4D/ 4d/	4A/ 4f#/	.	.	.	.	.	.	.	.	.	.	.	.	.	.	.	.	.	.	.	.
!	!	!	!	!	!	!	!	!	!	!	!	!	!	!	!	!LO:LB:g=original	!	!	!	!	!	!	!
4D\ 4d\	.	.	.	.	.	2r	.	2r	.	2r	.	.	2r	.	.	4F#/	.	4d\	.	2r	.	2r	.
.	.	4D/ 4d/	4A/ 4f#/	.	.	.	.	.	.	.	.	.	.	.	.	.	.	.	.	.	.	.	.
4r	.	.	.	.	.	.	.	.	.	.	.	.	.	.	.	4F#/	.	4d\	.	.	.	.	.
.	.	8D/ 8d/	[8A/ 8f#/	.	.	.	.	.	.	.	.	.	.	.	.	.	.	.	.	.	.	.	.
!LO:LB:g=original	!	!	!	!	!	!LO:LB:g=original	!	!	!	!	!	!	!	!	!	!	!	!	!	!	!	!	!
=22	=22	=22	=22	=22	=22	=22	=22	=22	=22	=22	=22	=22	=22	=22	=22	=22	=22	=22	=22	=22	=22	=22	=22
!	!	!	!	!	!	!	!	!	!	!	!	!LO:DY:b	!	!	!LO:DY:rj	!	!	!	!	!	!LO:DY:rj:t=f.	!	!
8D\L	.	16D/LL	8A/] 8f#/	.	1ryy	4D\	Et	4A\	Et	4f#\	Et	f	4dd\	Et	f	4F#/	.	4d\	.	4dd\	f	4ff#\	.
.	.	16F#/	.	.	.	.	.	.	.	.	.	.	.	.	.	.	.	.	.	.	.	.	.
8D\	.	16A/	4A/ 4f#/	.	.	.	.	.	.	.	.	.	.	.	.	.	.	.	.	.	.	.	f
.	.	16F#/JJ	.	.	.	.	.	.	.	.	.	.	.	.	.	.	.	.	.	.	.	.	.
*	*	*rep	*	*	*	*	*	*	*	*	*	*	*	*	*	*	*	*	*	*	*	*	*
8F#\	.	16D/LLyy	.	.	.	4F#\	in	4A\	in	4f#\	in	.	4dd\	in	.	2F#/	.	2d\	.	2dd\	.	2ff#\	.
.	.	16F#/yy	.	.	.	.	.	.	.	.	.	.	.	.	.	.	.	.	.	.	.	.	.
8D\J	.	16A/yy	4A/ 4f#/	.	.	.	.	.	.	.	.	.	.	.	.	.	.	.	.	.	.	.	.
.	.	16F#/JJyy	.	.	.	.	.	.	.	.	.	.	.	.	.	.	.	.	.	.	.	.	.
*	*	*Xrep	*	*	*	*	*	*	*	*	*	*	*	*	*	*	*	*	*	*	*	*	*
*	*	*rep	*	*	*	*	*	*	*	*	*	*	*	*	*	*	*	*	*	*	*	*	*
8A\L	.	16D/LLyy	.	.	.	4A\	spi-	4A\	spi-	4f#\	ſpi-	.	4dd\	spi-	.	.	.	.	.	.	.	.	.
.	.	16F#/yy	.	.	.	.	.	.	.	.	.	.	.	.	.	.	.	.	.	.	.	.	.
8D\	.	16A/yy	4A/ 4f#/	.	.	.	.	.	.	.	.	.	.	.	.	.	.	.	.	.	.	.	.
.	.	16F#/JJyy	.	.	.	.	.	.	.	.	.	.	.	.	.	.	.	.	.	.	.	.	.
*	*	*Xrep	*	*	*	*	*	*	*	*	*	*	*	*	*	*	*	*	*	*	*	*	*
*	*	*rep	*	*	*	*	*	*	*	*	*	*	*	*	*	*	*	*	*	*	*	*	*
!	!	!	!	!	!	!	!	!	!	!LO:LB:g=original	!	!	!	!	!	!	!	!	!	!	!	!	!
8F#\	.	16D/LLyy	.	.	.	8d\	-ri-	8d\	-ri-	8a\	-ri-	.	8ff#\	-ri-	.	4F#/	.	4d\	.	4dd\	.	4ff#\	.
.	.	16F#/yy	.	.	.	.	.	.	.	.	.	.	.	.	.	.	.	.	.	.	.	.	.
8D\J	.	16A/yy	[8A/ 8f#/	.	.	8d\	-tum	8d\	-tum	8a\	-tum	.	8ff#\	-tu(m)	.	.	.	.	.	.	.	.	.
.	.	16F#/JJyy	.	.	.	.	.	.	.	.	.	.	.	.	.	.	.	.	.	.	.	.	.
*	*	*Xrep	*	*	*	*	*	*	*	*	*	*	*	*	*	*	*	*	*	*	*	*	*
=23	=23	=23	=23	=23	=23	=23	=23	=23	=23	=23	=23	=23	=23	=23	=23	=23	=23	=23	=23	=23	=23	=23	=23
*	*	*tremolo	*	*	*	*	*	*	*	*	*	*	*	*	*	*	*	*	*	*	*	*	*
4E\	.	16E/LL	8A/] 8g/	.	1ryy	4e\	San-	4c#\	San-	4a\	San-	.	4ee\	San-	.	4A/	.	4e\	.	4cc#\	.	4gg\	.
.	.	16G/	.	.	.	.	.	.	.	.	.	.	.	.	.	.	.	.	.	.	.	.	.
.	.	16E/	4A/ 4g/	.	.	.	.	.	.	.	.	.	.	.	.	.	.	.	.	.	.	.	.
.	.	16G/	.	.	.	.	.	.	.	.	.	.	.	.	.	.	.	.	.	.	.	.	.
4r	.	16E/	.	.	.	4G\	-ctu(m)	4d\	-ctu(m)	4a\	-ctu(m)	.	4ee\	-ctu(m)	.	2A/	.	2e\	.	2cc#\	.	2gg\	.
.	.	16G/	.	.	.	.	.	.	.	.	.	.	.	.	.	.	.	.	.	.	.	.	.
.	.	16E/	4A/ 4g/	.	.	.	.	.	.	.	.	.	.	.	.	.	.	.	.	.	.	.	.
.	.	16G/JJ	.	.	.	.	.	.	.	.	.	.	.	.	.	.	.	.	.	.	.	.	.
(4C#/	.	16E/LL	.	.	.	4A\	Do-	4e\	Do-	4cc#\	Do-	.	4gg\	Do-	.	.	.	.	.	.	.	.	.
.	.	16G/	.	.	.	.	.	.	.	.	.	.	.	.	.	.	.	.	.	.	.	.	.
.	.	16E/	4A/ 4g/	.	.	.	.	.	.	.	.	.	.	.	.	.	.	.	.	.	.	.	.
.	.	16G/	.	.	.	.	.	.	.	.	.	.	.	.	.	.	.	.	.	.	.	.	.
4E/	.	16E/	.	.	.	4E\	-mi-	4c#\	-mi-	4a\	-mi-	.	4ee\	-mi-	.	4A/	.	4e\	.	4cc#\	.	4gg\	.
.	.	16G/	.	.	.	.	.	.	.	.	.	.	.	.	.	.	.	.	.	.	.	.	.
.	.	16E/	8A/ 8g/	.	.	.	.	.	.	.	.	.	.	.	.	.	.	.	.	.	.	.	.
.	.	16G/JJ	.	.	.	.	.	.	.	.	.	.	.	.	.	.	.	.	.	.	.	.	.
!	!	!	!	!	!	!	!	!LO:LB:g=original	!	!	!	!	!LO:LB:g=original	!	!	!	!	!	!	!	!	!	!
=24	=24	=24	=24	=24	=24	=24	=24	=24	=24	=24	=24	=24	=24	=24	=24	=24	=24	=24	=24	=24	=24	=24	=24
4G\)	.	16F#/LL	8A/ 8g/	.	1ryy	4D\	-num	4d\	-num	4a\	-num	.	4ff#\	-num	.	4F#/	.	4d\	.	4dd\	.	4ff#\	.
.	.	16A/	.	.	.	.	.	.	.	.	.	.	.	.	.	.	.	.	.	.	.	.	.
.	.	16F#/	4d/ 4dd/	.	.	.	.	.	.	.	.	.	.	.	.	.	.	.	.	.	.	.	.
.	.	16A/	.	.	.	.	.	.	.	.	.	.	.	.	.	.	.	.	.	.	.	.	.
4r	.	16F#/	.	.	.	4r	.	4r	.	4r	.	.	4r	.	.	2F#/	.	2d\	.	2dd\	.	2ff#\	.
.	.	16A/	.	.	.	.	.	.	.	.	.	.	.	.	.	.	.	.	.	.	.	.	.
.	.	16F#/	8d/ 8dd/	.	.	.	.	.	.	.	.	.	.	.	.	.	.	.	.	.	.	.	.
.	.	16A/JJ	.	.	.	.	.	.	.	.	.	.	.	.	.	.	.	.	.	.	.	.	.
(4D\	.	16F#/LL	8a\ 8aa\	.	.	2r	.	2r	.	2r	.	.	2r	.	.	.	.	.	.	.	.	.	.
.	.	16d/	.	.	.	.	.	.	.	.	.	.	.	.	.	.	.	.	.	.	.	.	.
.	.	16F#/	4a\ 4aa\	.	.	.	.	.	.	.	.	.	.	.	.	.	.	.	.	.	.	.	.
.	.	16d/	.	.	.	.	.	.	.	.	.	.	.	.	.	.	.	.	.	.	.	.	.
!	!LO:DY:rj:t=fr.	!	!	!	!	!	!	!	!	!	!	!	!	!	!	!	!	!	!	!	!	!	!
4F#\)	f	16F#/	.	.	.	.	.	.	.	.	.	.	.	.	.	4F#/	.	4d\	.	4dd\	.	4ff#\	.
.	.	16d/	.	.	.	.	.	.	.	.	.	.	.	.	.	.	.	.	.	.	.	.	.
.	.	16F#/	8a\ 8gg\	.	.	.	.	.	.	.	.	.	.	.	.	.	.	.	.	.	.	.	.
.	.	16d/JJ	.	.	.	.	.	.	.	.	.	.	.	.	.	.	.	.	.	.	.	.	.
!	!	!	!LO:LB:g=original	!	!	!	!	!	!	!	!	!	!	!	!	!	!	!	!	!	!	!	!
=25	=25	=25	=25	=25	=25	=25	=25	=25	=25	=25	=25	=25	=25	=25	=25	=25	=25	=25	=25	=25	=25	=25	=25
*	*	*	*2\right	*	*	*	*	*	*	*	*	*	*	*	*	*	*	*	*	*	*	*	*
*	*	*	*tremolo	*	*	*	*	*	*	*	*	*	*	*	*	*	*	*	*	*	*	*	*
4B\	.	16Fn/LL	16b\LL 16bb\	.	1ryy	1r	.	1r	.	1r	.	.	1r	.	.	4D/	.	4d\	.	4dd\	.	4ffn\	.
.	.	16d/	16b\ 16bb\	.	.	.	.	.	.	.	.	.	.	.	.	.	.	.	.	.	.	.	.
.	.	16F/	16b\ 16bb\	.	.	.	.	.	.	.	.	.	.	.	.	.	.	.	.	.	.	.	.
.	.	16d/	16b\ 16bb\	.	.	.	.	.	.	.	.	.	.	.	.	.	.	.	.	.	.	.	.
4BB/	.	16F/	16b\ 16bb\	.	.	.	.	.	.	.	.	.	.	.	.	8D/L	.	8d\L	.	8dd\L	.	8ff\L	.
.	.	16d/	16b\ 16bb\	.	.	.	.	.	.	.	.	.	.	.	.	.	.	.	.	.	.	.	.
.	.	16F/	16b\ 16bb\	.	.	.	.	.	.	.	.	.	.	.	.	8D/J	.	8d\J	.	8dd\J	.	8ff\J	.
.	.	16d/JJ	16b\JJ 16bb\	.	.	.	.	.	.	.	.	.	.	.	.	.	.	.	.	.	.	.	.
*	*	*Xtremolo	*	*	*	*	*	*	*	*	*	*	*	*	*	*	*	*	*	*	*	*	*
4G\	.	16E/LL	16a\LL 16gg\	.	.	.	.	.	.	.	.	.	.	.	.	4A/	.	4e\	.	4cc#\	.	4ee\	.
.	.	16d/	16a\ 16gg\	.	.	.	.	.	.	.	.	.	.	.	.	.	.	.	.	.	.	.	.
.	.	16E/	16a\ 16gg\	.	.	.	.	.	.	.	.	.	.	.	.	.	.	.	.	.	.	.	.
.	.	16d/JJ	16a\ 16gg\	.	.	.	.	.	.	.	.	.	.	.	.	.	.	.	.	.	.	.	.
!	!	!LO:LB:g=original	!	!	!	!	!	!	!	!	!	!	!	!	!	!	!	!	!	!	!	!	!
4AA/	.	16E/LL	16a\ 16gg\	.	.	.	.	.	.	.	.	.	.	.	.	8A/L	.	8e\L	.	8cc#\L	.	8ee\L	.
.	.	16c#/	16a\ 16gg\	.	.	.	.	.	.	.	.	.	.	.	.	.	.	.	.	.	.	.	.
.	.	16E/	16a\ 16gg\	.	.	.	.	.	.	.	.	.	.	.	.	8A/J	.	8e\J	.	8cc#\J	.	8ee\J	.
.	.	16c#/JJ	16a\JJ 16gg\	.	.	.	.	.	.	.	.	.	.	.	.	.	.	.	.	.	.	.	.
!	!	!	!	!	!	!	!	!	!	!	!	!	!	!	!	!	!	!LO:LB:g=original	!	!	!	!LO:LB:g=original	!
=26	=26	=26	=26	=26	=26	=26	=26	=26	=26	=26	=26	=26	=26	=26	=26	=26	=26	=26	=26	=26	=26	=26	=26
!	!	!	!	!	!	!	!	!	!	!	!	!LO:DY:t=pp.	!	!	!LO:DY:rj:b:t=pp.	!	!LO:DY:t=p.	!	!LO:DY:t=p.	!	!LO:DY:t=p.	!	!LO:DY:t=p.
4D/	.	16A\LL	16a\LL 16ff#\	.	1ryy	4D\	Et	4D/	et	4d\	et	pp	4dd\	et	pp	4F#/	p	4d\	p	4dd\	p	4dd\	p
.	.	16f#\	16a\ 16ff#\	.	.	.	.	.	.	.	.	.	.	.	.	.	.	.	.	.	.	.	.
.	.	16d\	16a\ 16ff#\	.	.	.	.	.	.	.	.	.	.	.	.	.	.	.	.	.	.	.	.
.	.	16f#\JJ	16a\ 16ff#\	.	.	.	.	.	.	.	.	.	.	.	.	.	.	.	.	.	.	.	.
*	*	*rep	*	*	*	*	*	*	*	*	*	*	*	*	*	*	*	*	*	*	*	*	*
!	!LO:DY:t=po	!	!	!	!	!	!	!	!	!	!	!	!	!	!	!	!	!	!	!	!	!	!
4d\	p	16A\LLyy	16a\ 16ff#\	.	.	8F#\	vi-	8F#/	vi-	8f#\	vi-	.	8ff#\	vi-	.	4r	.	4r	.	4r	.	4r	.
.	.	16f#\yy	16a\ 16ff#\	.	.	.	.	.	.	.	.	.	.	.	.	.	.	.	.	.	.	.	.
.	.	16d\yy	16a\ 16ff#\	.	.	8F#\	-fi-	8F#/	-fi-	8f#\	-fi-	.	8ff#\	-fi-	.	.	.	.	.	.	.	.	.
.	.	16f#\JJyy	16a\JJ 16ff#\	.	.	.	.	.	.	.	.	.	.	.	.	.	.	.	.	.	.	.	.
*	*	*Xrep	*	*	*	*	*	*	*	*	*	*	*	*	*	*	*	*	*	*	*	*	*
*	*	*rep	*	*	*	*	*	*	*	*	*	*	*	*	*	*	*	*	*	*	*	*	*
4D/	.	16A\LLyy	16a\LL 16ff#\	.	.	8A\	-can-	8A/	-can-	8a\	-can-	.	8aa\	-can-	.	2r	.	2r	.	2r	.	2r	.
.	.	16f#\yy	16a\ 16ff#\	.	.	.	.	.	.	.	.	.	.	.	.	.	.	.	.	.	.	.	.
.	.	16d\yy	16a\ 16ff#\	.	.	8A\	te(m)	8A/	te(m)	8a\	te(m)	.	8aa\	te(m)	.	.	.	.	.	.	.	.	.
.	.	16f#\JJyy	16a\ 16ff#\	.	.	.	.	.	.	.	.	.	.	.	.	.	.	.	.	.	.	.	.
*	*	*Xrep	*	*	*	*	*	*	*	*	*	*	*	*	*	*	*	*	*	*	*	*	*
*	*	*rep	*	*	*	*	*	*	*	*	*	*	*	*	*	*	*	*	*	*	*	*	*
4d\	.	16A\LLyy	16a\ 16ff#\	.	.	8F#\	qui	8F#/	qui	8f#\	qui	.	8ff#\	qui	.	.	.	.	.	.	.	.	.
.	.	16f#\yy	16a\ 16ff#\	.	.	.	.	.	.	.	.	.	.	.	.	.	.	.	.	.	.	.	.
.	.	16d\yy	16a\ 16ff#\	.	.	8F#\	ex	8F#/	ex	8f#\	ex	.	8ff#\	ex	.	.	.	.	.	.	.	.	.
.	.	16f#\JJyy	16a\JJ 16ff#\	.	.	.	.	.	.	.	.	.	.	.	.	.	.	.	.	.	.	.	.
*	*	*Xrep	*	*	*	*	*	*	*	*	*	*	*	*	*	*	*	*	*	*	*	*	*
!	!	!	!	!	!	!	!	!	!	!	!	!	!	!	!	!	!	!	!	!LO:LB:g=original	!	!	!
=27	=27	=27	=27	=27	=27	=27	=27	=27	=27	=27	=27	=27	=27	=27	=27	=27	=27	=27	=27	=27	=27	=27	=27
4A\	.	16A\LL	16cc#\LL 16ee\	.	1ryy	8G\	Pa-	8G/	Pa-	8g\	Pa-	.	8gg\	Pa-	.	1r	.	1r	.	1r	.	1r	.
.	.	16g\	16cc#\ 16ee\	.	.	.	.	.	.	.	.	.	.	.	.	.	.	.	.	.	.	.	.
.	.	16e\	16cc#\ 16ee\	.	.	8G\	-tre	8G/	-tre	8g\	-tre	.	8gg\	-tre	.	.	.	.	.	.	.	.	.
.	.	16g\JJ	16cc#\ 16ee\	.	.	.	.	.	.	.	.	.	.	.	.	.	.	.	.	.	.	.	.
*	*	*rep	*	*	*	*	*	*	*	*	*	*	*	*	*	*	*	*	*	*	*	*	*
4AA/	.	16A\LLyy	16cc#\ 16ee\	.	.	8E\	et	8E/	et	8e\	et	.	8ee\	et	.	.	.	.	.	.	.	.	.
.	.	16g\yy	16cc#\ 16ee\	.	.	.	.	.	.	.	.	.	.	.	.	.	.	.	.	.	.	.	.
.	.	16e\yy	16cc#\ 16ee\	.	.	8E\	fi-	8E/	fi-	8e\	fi-	.	8ee\	fi-	.	.	.	.	.	.	.	.	.
.	.	16g\JJyy	16cc#\JJ 16ee\	.	.	.	.	.	.	.	.	.	.	.	.	.	.	.	.	.	.	.	.
*	*	*Xrep	*	*	*	*	*	*	*	*	*	*	*	*	*	*	*	*	*	*	*	*	*
*	*	*rep	*	*	*	*	*	*	*	*	*	*	*	*	*	*	*	*	*	*	*	*	*
!	!	!	!	!	!	!LO:LB:g=original	!	!	!	!	!	!	!	!	!	!	!	!	!	!	!	!	!
4A\	.	16A\LLyy	16cc#\LL 16ee\	.	.	8C#/	-li-	8C#/	-li-	8c#\	-li-	.	8cc#\	-li-	.	.	.	.	.	.	.	.	.
.	.	16g\yy	16cc#\ 16ee\	.	.	.	.	.	.	.	.	.	.	.	.	.	.	.	.	.	.	.	.
.	.	16e\yy	16cc#\ 16ee\	.	.	8C#/	-o-	8C#/	-o-	8c#\	-o-	.	8cc#\	-o-	.	.	.	.	.	.	.	.	.
.	.	16g\JJyy	16cc#\ 16ee\	.	.	.	.	.	.	.	.	.	.	.	.	.	.	.	.	.	.	.	.
*	*	*Xrep	*	*	*	*	*	*	*	*	*	*	*	*	*	*	*	*	*	*	*	*	*
*	*	*rep	*	*	*	*	*	*	*	*	*	*	*	*	*	*	*	*	*	*	*	*	*
4AA/	.	16A\LLyy	16cc#\ 16ee\	.	.	8G\	-que	8G/	-que	8g\	-que	.	8gg\	-que	.	.	.	.	.	.	.	.	.
.	.	16g\yy	16cc#\ 16ee\	.	.	.	.	.	.	.	.	.	.	.	.	.	.	.	.	.	.	.	.
.	.	16e\yy	16cc#\ 16ee\	.	.	8E\	pro-	8E/	pro-	8e\	pro-	.	8ee\	pro-	.	.	.	.	.	.	.	.	.
.	.	16g\JJyy	16cc#\JJ 16ee\	.	.	.	.	.	.	.	.	.	.	.	.	.	.	.	.	.	.	.	.
*	*	*Xrep	*	*	*	*	*	*	*	*	*	*	*	*	*	*	*	*	*	*	*	*	*
=28	=28	=28	=28	=28	=28	=28	=28	=28	=28	=28	=28	=28	=28	=28	=28	=28	=28	=28	=28	=28	=28	=28	=28
*tremolo	*	*	*	*	*	*	*	*	*	*	*	*	*	*	*	*	*	*	*	*	*	*	*
!	!	!	!	!	!	!	!	!	!	!	!	!	!	!	!	!	!LO:DY:rj	!	!LO:DY:t=ffor	!	!	!	!
8D\L	f	16A\LL	16a\LL 16ff#\	.	1ryy	4F#\	-ce-	4F#/	-ce-	4f#\	-ce-	.	4ff#\	-ce-	.	4D/	f	4d\	ff	4d/	.	4dd\	.
.	.	16f#\	16a\ 16ff#\	.	.	.	.	.	.	.	.	.	.	.	.	.	.	.	.	.	.	.	.
8D\	.	16d\	16a\ 16ff#\	.	.	.	.	.	.	.	.	.	.	.	.	.	.	.	.	.	.	.	.
.	.	16f#\JJ	16a\ 16ff#\	.	.	.	.	.	.	.	.	.	.	.	.	.	.	.	.	.	.	.	.
*	*	*rep	*	*	*	*	*	*	*	*	*	*	*	*	*	*	*	*	*	*	*	*	*
!	!	!	!	!	!	!	!	!	!	!	!	!	!	!	!	!	!	!	!	!	!LO:DY:t=ff.	!	!LO:DY:t=ff.
8D\	.	16A\LLyy	16a\ 16ff#\	.	.	4D\	-dit	4D/	-dit	4d\	-dit	.	4dd\	-dit	.	8F#/L	.	8f#\L	.	8f#/L	ff	8dd\L	ff
.	.	16f#\yy	16a\ 16ff#\	.	.	.	.	.	.	.	.	.	.	.	.	.	.	.	.	.	.	.	.
8D\J	.	16d\yy	16a\ 16ff#\	.	.	.	.	.	.	.	.	.	.	.	.	8F#/J	.	8f#\J	.	8f#/J	.	8dd\J	.
.	.	16f#\JJyy	16a\JJ 16ff#\	.	.	.	.	.	.	.	.	.	.	.	.	.	.	.	.	.	.	.	.
*	*	*Xrep	*	*	*	*	*	*	*	*	*	*	*	*	*	*	*	*	*	*	*	*	*
*	*	*rep	*	*	*	*	*	*	*	*	*	*	*	*	*	*	*	*	*	*	*	*	*
8d\L	.	16A\LLyy	16a\LL 16ff#\	.	.	2r	.	2r	.	2r	.	.	2r	.	.	8A/L	.	8a\L	.	8a/L	.	8aa\L	.
.	.	16f#\yy	16a\ 16ff#\	.	.	.	.	.	.	.	.	.	.	.	.	.	.	.	.	.	.	.	.
8d\	.	16d\yy	16a\ 16ff#\	.	.	.	.	.	.	.	.	.	.	.	.	8A/	.	8a\J	.	8a/	.	8aa\J	.
.	.	16f#\JJyy	16a\ 16ff#\	.	.	.	.	.	.	.	.	.	.	.	.	.	.	.	.	.	.	.	.
*	*	*Xrep	*	*	*	*	*	*	*	*	*	*	*	*	*	*	*	*	*	*	*	*	*
*	*	*rep	*	*	*	*	*	*	*	*	*	*	*	*	*	*	*	*	*	*	*	*	*
8d\	.	16A\LLyy	16a\ 16ff#\	.	.	.	.	.	.	.	.	.	.	.	.	8F#/	.	8f#\L	.	8f#/	.	8ff#\L	.
.	.	16f#\yy	16a\ 16ff#\	.	.	.	.	.	.	.	.	.	.	.	.	.	.	.	.	.	.	.	.
8d\J	.	16d\yy	16a\ 16ff#\	.	.	.	.	.	.	.	.	.	.	.	.	8F#/J	.	8f#\J	.	8f#/J	.	8ff#\J	.
.	.	16f#\JJyy	16a\JJ 16ff#\	.	.	.	.	.	.	.	.	.	.	.	.	.	.	.	.	.	.	.	.
*	*	*Xrep	*	*	*	*	*	*	*	*	*	*	*	*	*	*	*	*	*	*	*	*	*
=29	=29	=29	=29	=29	=29	=29	=29	=29	=29	=29	=29	=29	=29	=29	=29	=29	=29	=29	=29	=29	=29	=29	=29
*	*	*	*	*	*	*	*	*	*	*	*	*	*	*	*	*tremolo	*	*	*	*	*	*	*
8A\L	.	16A\LL	16cc#\LL 16ee\	.	1ryy	1r	.	1r	.	1r	.	.	1r	.	.	8A/L	.	8g\L	.	8g/L	.	8gg\L	.
.	.	16g\	16cc#\ 16ee\	.	.	.	.	.	.	.	.	.	.	.	.	.	.	.	.	.	.	.	.
8A\	.	16e\	16cc#\ 16ee\	.	.	.	.	.	.	.	.	.	.	.	.	8A/	.	8g\	.	8g/J	.	8gg\	.
.	.	16g\JJ	16cc#\ 16ee\	.	.	.	.	.	.	.	.	.	.	.	.	.	.	.	.	.	.	.	.
*	*	*rep	*	*	*	*	*	*	*	*	*	*	*	*	*	*	*	*	*	*	*	*	*
8A\	.	16A\LLyy	16cc#\ 16ee\	.	.	.	.	.	.	.	.	.	.	.	.	8A/	.	8e\	.	8e/L	.	8ee\	.
.	.	16g\yy	16cc#\ 16ee\	.	.	.	.	.	.	.	.	.	.	.	.	.	.	.	.	.	.	.	.
8A\J	.	16e\yy	16cc#\ 16ee\	.	.	.	.	.	.	.	.	.	.	.	.	8A/J	.	8e\J	.	8e/J	.	8ee\J	.
.	.	16g\JJyy	16cc#\JJ 16ee\	.	.	.	.	.	.	.	.	.	.	.	.	.	.	.	.	.	.	.	.
*	*	*Xrep	*	*	*	*	*	*	*	*	*	*	*	*	*	*	*	*	*	*	*	*	*
*	*	*rep	*	*	*	*	*	*	*	*	*	*	*	*	*	*	*	*	*	*	*	*	*
!	!LO:DY:rj:t=po	!	!	!	!	!	!	!	!	!	!	!	!	!	!	!	!	!	!	!	!	!	!
8AA/L	p	16A\LLyy	16a\LL 16gg\	.	.	.	.	.	.	.	.	.	.	.	.	8A/L	.	8e\L	.	8c#/L	.	8cc#\L	.
.	.	16g\yy	16a\ 16gg\	.	.	.	.	.	.	.	.	.	.	.	.	.	.	.	.	.	.	.	.
8AA/	.	16e\yy	16a\ 16gg\	.	.	.	.	.	.	.	.	.	.	.	.	8A/	.	8e\	.	8c#/J	.	8cc#\	.
.	.	16g\JJyy	16a\ 16gg\	.	.	.	.	.	.	.	.	.	.	.	.	.	.	.	.	.	.	.	.
*	*	*Xrep	*	*	*	*	*	*	*	*	*	*	*	*	*	*	*	*	*	*	*	*	*
*	*	*rep	*	*	*	*	*	*	*	*	*	*	*	*	*	*	*	*	*	*	*	*	*
8AA/	.	16A\LLyy	16a\ 16gg\	.	.	.	.	.	.	.	.	.	.	.	.	8A/	.	8g\	.	8g/L	.	8gg\	.
.	.	16g\yy	16a\ 16gg\	.	.	.	.	.	.	.	.	.	.	.	.	.	.	.	.	.	.	.	.
8AA/J	.	16e\yy	16a\ 16gg\	.	.	.	.	.	.	.	.	.	.	.	.	8A/J	.	8e\J	.	8e/J	.	8ee\J	.
.	.	16g\JJyy	16a\JJ 16gg\	.	.	.	.	.	.	.	.	.	.	.	.	.	.	.	.	.	.	.	.
*	*	*Xrep	*Xtremolo	*	*	*	*	*	*	*	*	*	*	*	*	*tremolo	*	*	*	*	*	*	*
!	!	!	!	!	!	!	!	!	!	!LO:PB:g=original	!	!	!	!	!	!	!	!	!	!	!	!	!
=30	=30	=30	=30	=30	=30	=30	=30	=30	=30	=30	=30	=30	=30	=30	=30	=30	=30	=30	=30	=30	=30	=30	=30
*	*	*tremolo	*	*	*	*	*	*	*	*	*	*	*	*	*	*	*	*	*	*	*	*	*
!	!	!	!	!	!	!	!	!	!	!	!	!LO:DY:rj:t=pp.	!	!	!LO:DY:rj:b:t=pp.	!	!LO:DY:t=pp.	!	!LO:DY:t=pp.	!	!LO:DY:t=pp.	!	!
8D\L	.	8A\L 8f#\	8dd\ 8ff#\	.	1ryy	4D\	Qui	4f#\	Qui	4f#\	Qui	pp	4aa\	Qui	pp	4A/	pp	4f#\	pp	4f#/	pp	4ff#\	.
(16E\L	.	8A\ 8f#\	4f#/ 4a/	.	.	.	.	.	.	.	.	.	.	.	.	.	.	.	.	.	.	.	.
16F#\JJ	.	.	.	.	.	.	.	.	.	.	.	.	.	.	.	.	.	.	.	.	.	.	.
!	!	!	!	!	!	!	!	!	!	!	!	!	!	!	!	!	!	!	!	!	!	!	!LO:DY:rj
16G\LL	.	8A\ 8f#\	.	.	.	4F#\	cu(m)	4d\	cum	4a\	cu(m)	.	4ff#\	cu(m)	.	4F#/	.	4d\	.	4d/	.	4dd\	pp
16A\	.	.	.	.	.	.	.	.	.	.	.	.	.	.	.	.	.	.	.	.	.	.	.
16B\)	.	8A\J 8f#\	4f#/ 4a/	.	.	.	.	.	.	.	.	.	.	.	.	.	.	.	.	.	.	.	.
16c#\JJ	.	.	.	.	.	.	.	.	.	.	.	.	.	.	.	.	.	.	.	.	.	.	.
8d'\L	.	8A\L 8f#\	.	.	.	4D\	Pa-	4f#\	Pa-	4f#\	Pa-	.	4aa\	Pa-	.	2F#/	.	2d\	.	2dd\	.	2ff#\	.
8e'\J	.	8A\ 8f#\	4f#/ 4a/	.	.	.	.	.	.	.	.	.	.	.	.	.	.	.	.	.	.	.	.
4f#'\	.	8A\ 8f#\	.	.	.	8F#\	-tre	8d\	-tre	8a\	-tre	.	8ff#\	-tre	.	.	.	.	.	.	.	.	.
.	.	8A\J 8f#\	8f#/ 8a/	.	.	8F#\	et	8d\	et	8a\	et	.	8ff#\	et	.	.	.	.	.	.	.	.	.
!LO:LB:g=original	!	!	!	!	!	!	!	!	!	!	!	!	!LO:LB:g=original	!	!	!	!	!	!	!	!	!	!
=31	=31	=31	=31	=31	=31	=31	=31	=31	=31	=31	=31	=31	=31	=31	=31	=31	=31	=31	=31	=31	=31	=31	=31
(<8AA/L	.	8A\L 8g\	8A/	.	1ryy	4E\	Fi-	4e\	fi-	4g\	Fi-	.	4gg\	Fi-	.	4A/	.	4e\	.	4cc#\	.	4ee\	.
16BB/L	.	8A\ 8g\	4cc#\ 4ee\	.	.	.	.	.	.	.	.	.	.	.	.	.	.	.	.	.	.	.	.
16C#/JJ)	.	.	.	.	.	.	.	.	.	.	.	.	.	.	.	.	.	.	.	.	.	.	.
(16D\LL	.	8A\ 8g\	.	.	.	4G\	-li-	4c#\	-li-	4a\	-li-	.	4ee\	-li-	.	2A/	.	2g\	.	2cc#\	.	2ee\	.
16E\	.	.	.	.	.	.	.	.	.	.	.	.	.	.	.	.	.	.	.	.	.	.	.
16F#\	.	8A\J 8g\	4cc#\ 4ee\	.	.	.	.	.	.	.	.	.	.	.	.	.	.	.	.	.	.	.	.
16G\JJ)	.	.	.	.	.	.	.	.	.	.	.	.	.	.	.	.	.	.	.	.	.	.	.
!	!	!	!	!	!	!	!	!LO:LB:g=original	!	!	!	!	!	!	!	!	!	!	!	!	!	!	!
8A'\L	.	8A\L 8g\	.	.	.	4E\	-o	4e\	-o	4g\	-o	.	4gg\	-o	.	.	.	.	.	.	.	.	.
8B'\J	.	8A\ 8g\	4cc#\ 4ee\	.	.	.	.	.	.	.	.	.	.	.	.	.	.	.	.	.	.	.	.
4c#'\	.	8A\ 8g\	.	.	.	8G\	si-	8c#\	si-	8a\	si-	.	8ee\	si-	.	4A/	.	4e\	.	4cc#\	.	4ee\	.
.	.	8A\J 8g\	8cc#\ 8ee\	.	.	8G\	-mul	8c#\	-mul	8a\	-mul	.	8ee\	-mul	.	.	.	.	.	.	.	.	.
!	!	!LO:LB:g=original	!	!	!	!	!	!	!	!	!	!	!	!	!	!	!	!	!	!	!	!	!
=32	=32	=32	=32	=32	=32	=32	=32	=32	=32	=32	=32	=32	=32	=32	=32	=32	=32	=32	=32	=32	=32	=32	=32
8d\L	.	8A\L 8f#\	8dd\	.	1ryy	4D\	a-	4F#/	a-	4a\	a-	.	4ff#\	a-	.	4F#/	.	4d\	.	4f#/	.	4dd\	.
(16c#\L	.	8A\ 8f#\	4A/ 4f#/	.	.	.	.	.	.	.	.	.	.	.	.	.	.	.	.	.	.	.	.
16B\JJ	.	.	.	.	.	.	.	.	.	.	.	.	.	.	.	.	.	.	.	.	.	.	.
16A\LL	.	8A\ 8f#\	.	.	.	4F#\	-do-	4A/	-do-	4f#\	-do-	.	4dd\	-do-	.	2F#/	.	2d\	.	2f#/	.	2dd\	.
16G\	.	.	.	.	.	.	.	.	.	.	.	.	.	.	.	.	.	.	.	.	.	.	.
16F#\	.	8A\J 8f#\	4A/ 4f#/	.	.	.	.	.	.	.	.	.	.	.	.	.	.	.	.	.	.	.	.
16E\JJ)	.	.	.	.	.	.	.	.	.	.	.	.	.	.	.	.	.	.	.	.	.	.	.
8D\L	.	8A\L 8f#\	.	.	.	4D\	-ra-	4F#/	-ra-	4a\	-ra-	.	4ff#\	-ra-	.	.	.	.	.	.	.	.	.
8AA\J	.	8A\ 8f#\	4A/ 4f#/	.	.	.	.	.	.	.	.	.	.	.	.	.	.	.	.	.	.	.	.
4F#\	.	8A\ 8f#\	.	.	.	8F#\	-tur	8A\	-tur	8f#\	-tur	.	8dd\	-tur	.	4F#/	.	4d\	.	4f#/	.	4dd\	.
.	.	8A\J 8f#\	8A/ 8f#/	.	.	8F#\	et	8A\	et	8f#\	et	.	8dd\	et	.	.	.	.	.	.	.	.	.
!	!	!	!LO:LB:g=original	!	!	!	!	!	!	!	!	!	!	!	!	!	!	!	!	!	!	!	!
=33	=33	=33	=33	=33	=33	=33	=33	=33	=33	=33	=33	=33	=33	=33	=33	=33	=33	=33	=33	=33	=33	=33	=33
*	*	*	*	*	*	*	*	*	*	*	*	*	*	*	*	*tremolo	*	*tremolo	*	*	*	*	*
8A\L	.	8A\L 8e\	8c#/	.	1ryy	4C#/	con-	4E/	con-	4g\	con-	.	4ee\	con-	.	8A/L	.	8e\L	.	4g/	.	4cc#\	.
16G\L	.	8A\ 8e\	4A/ 4g/	.	.	.	.	.	.	.	.	.	.	.	.	8A/	.	8e\	.	.	.	.	.
16F#\JJ	.	.	.	.	.	.	.	.	.	.	.	.	.	.	.	.	.	.	.	.	.	.	.
16E/LL	.	8A\ 8e\	.	.	.	4E/	-glo-	4G/	-glo-	4e\	-glo-	.	4cc#\	-glo-	.	8A/	.	8e\	.	2g/	.	2cc#\	.
16D/	.	.	.	.	.	.	.	.	.	.	.	.	.	.	.	.	.	.	.	.	.	.	.
16C#/	.	8A\J 8e\	4A/ 4g/	.	.	.	.	.	.	.	.	.	.	.	.	8A/J	.	8e\J	.	.	.	.	.
16BB/JJ	.	.	.	.	.	.	.	.	.	.	.	.	.	.	.	.	.	.	.	.	.	.	.
!	!	!	!	!	!	!LO:LB:g=original	!	!	!	!	!	!	!	!	!	!	!	!	!	!	!	!	!
8AA/L	.	8A\L 8e\	.	.	.	4C#/	-ri-	4E/	-ri-	4g\	-ri-	.	4ee\	-ri-	.	8A/L	.	8e\L	.	.	.	.	.
8C#/J	.	8A\ 8e\	4A/ 4g/	.	.	.	.	.	.	.	.	.	.	.	.	8A/	.	8e\	.	.	.	.	.
4AA/	.	8A\ 8e\	.	.	.	4AA/	-fi-	4G/	-fi-	4e\	-fi-	.	4cc#\	-fi-	.	8A/	.	8e\	.	4g/	.	4cc#\	.
.	.	8A\J 8e\	8A/ 8g/	.	.	.	.	.	.	.	.	.	.	.	.	8A/J	.	8e\J	.	.	.	.	.
*	*	*	*	*	*	*	*	*	*	*	*	*	*	*	*	*Xtremolo	*	*Xtremolo	*	*	*	*	*
=34	=34	=34	=34	=34	=34	=34	=34	=34	=34	=34	=34	=34	=34	=34	=34	=34	=34	=34	=34	=34	=34	=34	=34
*	*	*	*tremolo	*	*	*	*	*	*	*	*	*	*	*	*	*	*	*	*	*	*	*	*
!LO:TX:t=P:problem=mixed beam	!	!	!LO:DY:rj	!	!	!	!	!	!	!	!	!LO:DY:a	!	!	!	!	!	!	!LO:DY:t=ffr.	!	!LO:DY:t=f.	!	!
8D/L	.	16A/LL 16d/	16A/LL 16f#/	ff	1ryy	8D\	-ca-	8A\	-ca-	8f#\	-ca-	ff	8dd\	-ca-	.	4F#/	.	4d\	ff	4f#/	f	4dd\	.
.	.	16A/ 16d/	16A/ 16f#/	.	.	.	.	.	.	.	.	.	.	.	.	.	.	.	.	.	.	.	.
8d\J	.	16A/ 16d/	16A/ 16f#/	.	.	8D\	-tur	8A\	-tur	8f#\	-tur	.	8dd\	-tur	.	.	.	.	.	.	.	.	.
.	.	16A/ 16d/	16A/ 16f#/	.	.	.	.	.	.	.	.	.	.	.	.	.	.	.	.	.	.	.	.
*tremolo	*	*	*	*	*	*	*	*	*	*	*	*	*	*	*	*	*	*	*	*	*	*	*
!	!	!	!	!	!	!	!	!	!	!	!	!	!	!	!	!	!	!	!	!	!	!	!
8D\L	.	16A/ 16d/	16A/ 16f#/	.	.	4r	.	4r	.	4r	.	.	4r	.	.	4r	.	4r	.	4r	.	4r	.
.	.	16A/ 16d/	16A/ 16f#/	.	.	.	.	.	.	.	.	.	.	.	.	.	.	.	.	.	.	.	.
8D\	.	16A/ 16d/	16A/ 16f#/	.	.	.	.	.	.	.	.	.	.	.	.	.	.	.	.	.	.	.	.
.	.	16A/JJ 16d/	16A/JJ 16f#/	.	.	.	.	.	.	.	.	.	.	.	.	.	.	.	.	.	.	.	.
8D\	.	16A/LL 16d/	16f#/LL 16a/	.	.	2r	.	2r	.	2r	.	.	2r	.	.	2r	.	2r	.	2r	.	2r	.
.	.	16A/ 16d/	16f#/ 16a/	.	.	.	.	.	.	.	.	.	.	.	.	.	.	.	.	.	.	.	.
8D\	.	16A/ 16d/	16f#/ 16a/	.	.	.	.	.	.	.	.	.	.	.	.	.	.	.	.	.	.	.	.
.	.	16A/ 16d/	16f#/ 16a/	.	.	.	.	.	.	.	.	.	.	.	.	.	.	.	.	.	.	.	.
8D\	.	16A/ 16d/	16f#/ 16a/	.	.	.	.	.	.	.	.	.	.	.	.	.	.	.	.	.	.	.	.
.	.	16A/ 16d/	16f#/ 16a/	.	.	.	.	.	.	.	.	.	.	.	.	.	.	.	.	.	.	.	.
8D\J	.	16A/ 16d/	16f#/ 16a/	.	.	.	.	.	.	.	.	.	.	.	.	.	.	.	.	.	.	.	.
.	.	16A/JJ 16d/	16f#/JJ 16a/	.	.	.	.	.	.	.	.	.	.	.	.	.	.	.	.	.	.	.	.
*Xtremolo	*	*	*	*	*	*	*	*	*	*	*	*	*	*	*	*	*	*	*	*	*	*	*
=35	=35	=35	=35	=35	=35	=35	=35	=35	=35	=35	=35	=35	=35	=35	=35	=35	=35	=35	=35	=35	=35	=35	=35
!	!	!	!	!LO:DY:rj:t=po	!	!	!	!	!	!	!	!LO:DY:rj:t=pp.	!	!	!LO:DY:b:t=pp.	!LO:TX:a:i:t=Solo	!LO:DY:t=po.	!LO:TX:a:i:t=Solo	!LO:DY:t=po	!LO:TX:b:i:t=dol.	!	!LO:TX:b:i:t=dol.	!
4D\	.	16A/LL 16f#/	16d/LL	p	1ryy	4D\	Qui	4f#\	Qui	4f#\	Qui	pp	4aa\	Qui	pp	4.f#\	p	4.a\	p	4.ff#\	.	4.aa\	.
.	.	16A/ 16f#/	16A/	.	.	.	.	.	.	.	.	.	.	.	.	.	.	.	.	.	.	.	.
.	.	16A/ 16f#/	16d/	.	.	.	.	.	.	.	.	.	.	.	.	.	.	.	.	.	.	.	.
.	.	16A/ 16f#/	16A/	.	.	.	.	.	.	.	.	.	.	.	.	.	.	.	.	.	.	.	.
4r	.	16A/ 16f#/	16d/	.	.	4F#\	lo-	4d\	lo-	4a\	lo-	.	4ff#\	lo-	.	.	.	.	.	.	.	.	.
.	.	16A/ 16f#/	16A/	.	.	.	.	.	.	.	.	.	.	.	.	.	.	.	.	.	.	.	.
.	.	16A/ 16f#/	16d/	.	.	.	.	.	.	.	.	.	.	.	.	8d\	.	8f#\	.	8dd\	.	8ff#\	.
.	.	16A/JJ 16f#/	16A/JJ	.	.	.	.	.	.	.	.	.	.	.	.	.	.	.	.	.	.	.	.
!	!	!	!	!	!	!	!	!	!	!	!	!	!	!	!	!LO:LB:g=original	!	!	!	!	!	!	!
!	!	!	!	!	!	!	!	!	!	!	!	!	!	!	!	!LO:TX:t=P:problem=mixed beam	!	!	!	!	!	!	!
4d\	.	16A/LL 16f#/	16d/LL	.	.	4D\	-cu-	4f#\	-cu-	4f#\	-cu-	.	4aa\	-cu-	.	8F#/L	.	8d\L	.	(8a\L	.	8dd'\L	.
.	.	16A/ 16f#/	16A/	.	.	.	.	.	.	.	.	.	.	.	.	.	.	.	.	.	.	.	.
.	.	16A/ 16f#/	16d/	.	.	.	.	.	.	.	.	.	.	.	.	8F#/	.	8d\	.	8a\	.	8dd'\	.
.	.	16A/ 16f#/	16A/	.	.	.	.	.	.	.	.	.	.	.	.	.	.	.	.	.	.	.	.
4rBB	.	16A/ 16f#/	16d/	.	.	4F#\	-tus	4d\	-tus	4a\	-tus	.	4ff#\	-tus	.	8d\	.	8f#\	.	8dd\	.	(8ff#\	.
.	.	16A/ 16f#/	16A/	.	.	.	.	.	.	.	.	.	.	.	.	.	.	.	.	.	.	.	.
.	.	16A/ 16f#/	16d/	.	.	.	.	.	.	.	.	.	.	.	.	8f#\J	.	8a\J	.	8ff#\J)	.	8aa\J)	.
.	.	16A/JJ 16f#/	16A/JJ	.	.	.	.	.	.	.	.	.	.	.	.	.	.	.	.	.	.	.	.
!	!	!	!	!	!	!	!	!	!	!	!	!	!	!	!	!	!	!	!	!	!	!LO:LB:g=original	!
=36	=36	=36	=36	=36	=36	=36	=36	=36	=36	=36	=36	=36	=36	=36	=36	=36	=36	=36	=36	=36	=36	=36	=36
4A\	.	16A/LL	16e/LL	.	1ryy	4E\	est	4e\	est	4g\	est	.	4gg\	est	.	4e\	.	4g\	.	4ee\	.	4gg\	.
.	.	16A/	16c#/	.	.	.	.	.	.	.	.	.	.	.	.	.	.	.	.	.	.	.	.
.	.	16A/	16e/	.	.	.	.	.	.	.	.	.	.	.	.	.	.	.	.	.	.	.	.
.	.	16A/	16c#/	.	.	.	.	.	.	.	.	.	.	.	.	.	.	.	.	.	.	.	.
4r	.	16A/	16e/	.	.	8G\	per	8c#\	p(er)	8a\	per	.	8ee\	per	.	4A/	.	4e\	.	4cc#\	.	4ee\	.
.	.	16A/	16c#/	.	.	.	.	.	.	.	.	.	.	.	.	.	.	.	.	.	.	.	.
!	!	!	!	!	!	!LO:SIC:v:l:t=pro-	!	!LO:SIC:v:l:t=pro-	!	!	!	!	!LO:SIC:v:l:t=pro-	!	!	!	!	!	!	!	!	!	!
.	.	16A/	16e/	.	.	8G\	prof-	8c#\	prof-	8a\	pro-	.	8ee\	prof-	.	.	.	.	.	.	.	.	.
.	.	16A/JJ	16c#/JJ	.	.	.	.	.	.	.	.	.	.	.	.	.	.	.	.	.	.	.	.
*	*	*	*	*	*	*	*	*	*	*	*	*	*	*	*	*tremolo	*	*tremolo	*	*	*	*	*
!	!	!	!	!	!	!	!	!	!	!LO:LB:g=original	!	!	!	!	!	!	!	!LO:TX:t=....	!	!	!	!	!
4AA/	.	16A/LL	16e/LL	.	.	4E\	-fe-	4e\	-fe-	4g\	-fe-	.	4gg\	-fe-	.	8A/L	.	8e'\L	.	8a\L	.	8cc#'\L	.
.	.	16A/	16c#/	.	.	.	.	.	.	.	.	.	.	.	.	.	.	.	.	.	.	.	.
.	.	16A/	16e/	.	.	.	.	.	.	.	.	.	.	.	.	8A/	.	8e'\	.	(8a\	.	(8cc#\	.
.	.	16A/	16c#/	.	.	.	.	.	.	.	.	.	.	.	.	.	.	.	.	.	.	.	.
4r	.	16A/	16e/	.	.	4G\	-tas	4c#\	-tas	4a\	-tas	.	4ee\	-tas	.	8A/	.	8e'\	.	8cc#\	.	8ee\	.
.	.	16A/	16c#/	.	.	.	.	.	.	.	.	.	.	.	.	.	.	.	.	.	.	.	.
.	.	16A/	16e/	.	.	.	.	.	.	.	.	.	.	.	.	8A/J	.	8e'\J	.	8ee\J)	.	8gg\J)	.
.	.	16A/JJ	16c#/JJ	.	.	.	.	.	.	.	.	.	.	.	.	.	.	.	.	.	.	.	.
*	*	*	*	*	*	*	*	*	*	*	*	*	*	*	*	*Xtremolo	*	*Xtremolo	*	*	*	*	*
!	!	!	!	!	!	!	!	!	!	!	!	!	!	!	!	!	!	!	!	!LO:LB:g=original	!	!	!
=37	=37	=37	=37	=37	=37	=37	=37	=37	=37	=37	=37	=37	=37	=37	=37	=37	=37	=37	=37	=37	=37	=37	=37
!	!	!	!	!	!	!	!	!	!	!	!	!LO:DY:b	!	!	!	!	!	!	!	!	!	!	!
4D\	.	8d/L	16d/LL	<	1ryy	4D\	et	4d\	et	4a\	et	<	4ff#\	et	<	4f#\	.	4a\	.	4dd\	<	4ff#\	.
.	.	.	16A/	.	.	.	.	.	.	.	.	.	.	.	.	.	.	.	.	.	.	.	.
.	.	8D/	16d/	.	.	.	.	.	.	.	.	.	.	.	.	.	<	.	.	.	.	.	.
.	.	.	16A/	.	.	.	.	.	.	.	.	.	.	.	.	.	.	.	.	.	.	.	.
!	!	!	!	!	!	!	!	!	!	!	!	!	!	!	!	!	!	!	!	!	!	!	!
4r	.	8d/	16d/	.	.	8D\	u-	8A\	u-	8f#\	u-	.	8dd\	u-	.	4d\	.	4f#\	<	4a\	.	4dd\	.
.	.	.	16A/	.	.	.	.	.	.	.	.	.	.	.	.	.	.	.	.	.	.	.	.
.	.	8D/J	16d/	.	.	8D\	-nam	8A\	-nam	8f#\	-na(m)	.	8dd\	-na(m)	.	.	.	.	.	.	.	.	.
.	.	.	16A/JJ	.	.	.	.	.	.	.	.	.	.	.	.	.	.	.	.	.	.	.	.
*	*	*Xtremolo	*	*	*	*	*	*	*	*	*	*	*	*	*	*	*	*	*	*	*	*	*
!LO:LB:g=original	!	!	!	!	!	!	!	!	!	!	!	!	!	!	!	!	!	!	!	!	!	!	!
4.F#\	.	4.F#/	16d/LL	.	.	4F#\	ſan-	4d\	ſan-	4a\	ſan-	.	4ff#\	ſan-	.	8F#/L	.	8d\L	.	(8f#\L	.	8a\L|	.
.	.	.	16A/	.	.	.	.	.	.	.	.	.	.	.	.	.	.	.	.	.	.	.	.
.	.	.	16d/	.	.	.	.	.	.	.	.	.	.	.	.	8F#/	.	8d\	.	8f#\	.	8a\	.
.	.	.	16A/	.	.	.	.	.	.	.	.	.	.	.	.	.	.	.	.	.	.	.	.
!	!	!	!	!	!	!	!	!	!	!	!	!	!	!	!	!LO:TX:t=P:problem=mixed beam	!	!	!	!	!	!	!
.	.	.	16d/	.	.	8F#\	-cta(m)	8A\	-cta(m)	8f#\	-cta(m)	.	8dd\	-cta(m)	.	8d\	.	8f#\	.	8a\	.	(8dd\	.
.	.	.	16A/	.	.	.	.	.	.	.	.	.	.	.	.	.	.	.	.	.	.	.	.
!	!	!	!	!	!	!	!	!LO:SIC:v:l:t=Ca-	!	!	!	!	!	!	!	!	!	!	!	!	!	!	!
(8G#X\	.	8G#X/	16d/	.	.	8G#X\	ca-	8A\	Cat-	8f#\	ca-	.	8dd\	ca-	.	8f#\J	.	8a\J	.	8dd\J)	.	8ff#\J)	.
.	.	.	16A/JJ	.	.	.	.	.	.	.	.	.	.	.	.	.	.	.	.	.	.	.	.
!	!	!	!	!	!	!	!	!LO:LB:g=original	!	!	!	!	!LO:LB:g=original	!	!	!	!	!LO:LB:g=original	!	!	!	!	!
=38	=38	=38	=38	=38	=38	=38	=38	=38	=38	=38	=38	=38	=38	=38	=38	=38	=38	=38	=38	=38	=38	=38	=38
*	*	*tremolo	*	*	*	*	*	*	*	*	*	*	*	*	*	*	*	*	*	*	*	*	*
!	!	!LO:TX:t=P:problem=mixed beam	!	!	!	!	!-	!LO:SIC:v:l:t=-to	!	!	!	!	!	!	!	!	!	!	!	!	!	!	!LO:HP:t=cres
4A\)	.	8A/L	16c#/LL	.	1ryy	8A\	-to-	8g\	-ho-	8a\	-to-	.	8ee\	-to-	.	4e\	.	4g\	.	4cc#\	.	4ee\	<
.	.	.	16e/	.	.	.	.	.	.	.	.	.	.	.	.	.	.	.	.	.	.	.	.
.	.	8a\	16c#/	.	.	8A\	-li-	8e\	-li-	8a\	-li-	.	8ee\	-li-	.	.	.	.	.	.	.	.	.
.	.	.	16e/	.	.	.	.	.	.	.	.	.	.	.	.	.	.	.	.	.	.	.	.
4r	.	8A/	16c#/	.	.	8A\	-ca(m)	8e\	-ca(m)	8a\	-ca(m)	.	8ee\	-ca(m)	.	4A/	.	4e\	.	4g/	.	4cc#\	.
.	.	.	16e/	.	.	.	.	.	.	.	.	.	.	.	.	.	.	.	.	.	.	.	.
.	.	8a\J	16c#/	.	.	8A\	et	8e\	et	8a\	et	.	8ee\	et	.	.	.	.	.	.	.	.	.
.	.	.	16e/JJ	.	.	.	.	.	.	.	.	.	.	.	.	.	.	.	.	.	.	.	.
*	*	*Xtremolo	*	*	*	*	*	*	*	*	*	*	*	*	*	*tremolo	*	*tremolo	*	*	*	*	*
!	!	!LO:TX:t=P:problem=mixed beam	!	!	!	!	!	!	!	!	!	!	!	!	!	!	!	!	!	!	!	!	!
4.AA/	.	8A/L	16c#/LL	.	.	4.A\	a-	4g\	a-	4a\	a-	.	4ee\	a-	.	8A/L	.	8e\L	.	8e/L	.	8a\L|	.
.	.	.	16e/	.	.	.	.	.	.	.	.	.	.	.	.	.	.	.	.	.	.	.	.
!	!	!	!	!	!	!	!	!	!	!	!	!	!	!	!	!	!	!	!	!	!	!	!
.	.	8g\	16c#/	.	.	.	.	.	.	.	.	.	.	.	.	8A/	.	8e\	.	(8e/	.	8a\	.
.	.	.	16e/	.	.	.	.	.	.	.	.	.	.	.	.	.	.	.	.	.	.	.	.
.	.	8A/	16c#/	.	.	.	.	4e\	-po-	4a\	-po-	.	4ee\	-po-	.	8A/	.	8e\	.	8a/	.	(8cc#\	.
.	.	.	16e/	.	.	.	.	.	.	.	.	.	.	.	.	.	.	.	.	.	.	.	.
(8A#X\	.	8g#X\J	16c#/	.	.	8A#X\	-po-	.	.	.	.	.	.	.	.	8A/J	.	8e\J	.	8g/J)	.	8ee\J)	.
.	.	.	16e/JJ	.	.	.	.	.	.	.	.	.	.	.	.	.	.	.	.	.	.	.	.
*	*	*	*	*	*	*	*	*	*	*	*	*	*	*	*	*Xtremolo	*	*Xtremolo	*	*	*	*	*
=39	=39	=39	=39	=39	=39	=39	=39	=39	=39	=39	=39	=39	=39	=39	=39	=39	=39	=39	=39	=39	=39	=39	=39
!	!	!LO:TX:t=P:problem=mixed beam	!	!LO:DY:rj:t=fr	!	!	!	!	!	!	!	!	!	!	!	!	!	!	!	!	!	!	!
4B\)	.	8b\L	8B/L	f	1ryy	8.B\L	-sto-	8.f#\	-sto-	8b\	-sto-	.	8dd\	-sto-	.	4d\	f	4f#\	f	4b/	f	4dd\	f
.	.	8B/	8B/	.	.	.	.	.	.	8b\	-li-	.	8dd\	-li-	.	.	.	.	.	.	.	.	.
.	.	.	.	.	.	16B\Jk	-li-	16f#\	-li-	.	.	.	.	.	.	.	.	.	.	.	.	.	.
(4BB/	.	8B/	8B/	.	.	4B\	-cam	8.f#\	-cam	8.b\	-cam	.	8.dd\	-ca(m)	.	4r	.	4r	.	4r	.	4r	.
.	.	8B/J	8B/J	.	.	.	.	.	.	.	.	.	.	.	.	.	.	.	.	.	.	.	.
!	!	!	!	!	!	!	!	!LO:SIC:v:l:t=Ec-	!	!	!	!	!	!	!	!	!	!	!	!	!	!	!
.	.	.	.	.	.	.	.	16f#\	e-	16b\	Ec-	.	16dd\	Ec-	.	.	.	.	.	.	.	.	.
!	!	!	!	!LO:DY:t=po	!	!	!	!	!	!	!	!	!	!	!	!	!	!	!	!	!	!	!
4AA#X/)	.	8A#X/L	8A#X/L 8f#/	p	.	2r	.	4.f#\	-Cle-	4.b-X\	-cle-	.	4.cc#\	-cle-	.	2r	.	2r	.	2r	.	2r	.
!	!	!LO:TX:t=P:problem=mixed beam	!	!	!	!	!	!	!	!	!	!	!	!	!	!	!	!	!	!	!	!	!
.	.	8A#/	8A#/ 8f#/	.	.	.	.	.	.	.	.	.	.	.	.	.	.	.	.	.	.	.	.
4F#\	.	8f#\	8A#/ 8f#/	.	.	.	.	.	.	.	.	.	.	.	.	.	.	.	.	.	.	.	.
.	.	8f#\J	8A#/J 8f#/	.	.	.	.	8f#\	-si-	8b-\	-si-	.	8cc#\	-si-	.	.	.	.	.	.	.	.	.
=40	=40	=40	=40	=40	=40	=40	=40	=40	=40	=40	=40	=40	=40	=40	=40	=40	=40	=40	=40	=40	=40	=40	=40
*	*	*tremolo	*	*	*	*	*	*	*	*	*	*	*	*	*	*	*	*	*	*	*	*	*
4B\	p	16d\LL	16B/LL 16f#/	.	1ryy	4r	.	4f#\	-am	4bn\	-am	.	4dd\	-am	.	0r	.	0r	.	0r	.	0r	.
.	.	16d\	16B/ 16f#/	.	.	.	.	.	.	.	.	.	.	.	.	.	.	.	.	.	.	.	.
.	.	16d\	16B/ 16f#/	.	.	.	.	.	.	.	.	.	.	.	.	.	.	.	.	.	.	.	.
.	.	16d\	16B/ 16f#/	.	.	.	.	.	.	.	.	.	.	.	.	.	.	.	.	.	.	.	.
!	!	!	!	!	!	!LO:TX:a:i:t=Solo	!	!	!	!	!	!	!	!	!	!	!	!	!	!	!	!	!
8BB/	.	16d\	16B/ 16f#/	.	.	4B\	Con-	4r	.	4r	.	.	4r	.	.	.	.	.	.	.	.	.	.
.	.	16d\	16B/ 16f#/	.	.	.	.	.	.	.	.	.	.	.	.	.	.	.	.	.	.	.	.
8r	.	16d\	16B/ 16f#/	.	.	.	.	.	.	.	.	.	.	.	.	.	.	.	.	.	.	.	.
.	.	16d\JJ	16B/JJ 16f#/	.	.	.	.	.	.	.	.	.	.	.	.	.	.	.	.	.	.	.	.
8D\	.	16d\LL	16B/LL 16f#/	.	.	4F#\	-fi-	2r	.	2r	.	.	2r	.	.	.	.	.	.	.	.	.	.
.	.	16d\	16B/ 16f#/	.	.	.	.	.	.	.	.	.	.	.	.	.	.	.	.	.	.	.	.
8r	.	16d\	16B/ 16f#/	.	.	.	.	.	.	.	.	.	.	.	.	.	.	.	.	.	.	.	.
.	.	16d\	16B/ 16f#/	.	.	.	.	.	.	.	.	.	.	.	.	.	.	.	.	.	.	.	.
8F#\	.	16d\	16B/ 16f#/	.	.	8B\	-te-	.	.	.	.	.	.	.	.	.	.	.	.	.	.	.	.
.	.	16d\	16B/ 16f#/	.	.	.	.	.	.	.	.	.	.	.	.	.	.	.	.	.	.	.	.
8r	.	16d\	16B/ 16f#/	.	.	8c#\	-or	.	.	.	.	.	.	.	.	.	.	.	.	.	.	.	.
.	.	16d\JJ	16B/JJ 16f#/	.	.	.	.	.	.	.	.	.	.	.	.	.	.	.	.	.	.	.	.
!	!	!	!LO:LB:g=original	!	!	!	!	!	!	!	!	!	!	!	!	!	!	!	!	!	!	!	!
=41	=41	=41	=41	=41	=41	=41	=41	=41	=41	=41	=41	=41	=41	=41	=41	=41	=41	=41	=41	=41	=41	=41	=41
4B\	.	16d\LL	16B/LL 16f#/	.	1ryy	4d\	u-	0r	.	0r	.	.	0r	.	.	.	.	.	.	.	.	.	.
.	.	16d\	16B/ 16f#/	.	.	.	.	.	.	.	.	.	.	.	.	.	.	.	.	.	.	.	.
.	.	16d\	16B/ 16f#/	.	.	.	.	.	.	.	.	.	.	.	.	.	.	.	.	.	.	.	.
.	.	16d\	16B/ 16f#/	.	.	.	.	.	.	.	.	.	.	.	.	.	.	.	.	.	.	.	.
4F#\	.	16d\	16B/ 16f#/	.	.	8.A#X\	-num	.	.	.	.	.	.	.	.	.	.	.	.	.	.	.	.
.	.	16d\	16B/ 16f#/	.	.	.	.	.	.	.	.	.	.	.	.	.	.	.	.	.	.	.	.
.	.	16d\	16B/ 16f#/	.	.	.	.	.	.	.	.	.	.	.	.	.	.	.	.	.	.	.	.
.	.	16d\JJ	16B/ 16f#/	.	.	16A#\	ba-	.	.	.	.	.	.	.	.	.	.	.	.	.	.	.	.
!	!	!	!	!	!	!LO:SIC:v:l:t=-pti-	!	!	!	!	!	!	!	!	!	!	!	!	!	!	!	!	!
4D\	.	16d\LL	16B/ 16f#/	.	.	4B\	-bti-	.	.	.	.	.	.	.	.	.	.	.	.	.	.	.	.
.	.	16d\	16B/ 16f#/	.	.	.	.	.	.	.	.	.	.	.	.	.	.	.	.	.	.	.	.
.	.	16d\	16B/ 16f#/	.	.	.	.	.	.	.	.	.	.	.	.	.	.	.	.	.	.	.	.
.	.	16d\	16B/ 16f#/	.	.	.	.	.	.	.	.	.	.	.	.	.	.	.	.	.	.	.	.
4BB/	.	16d\	16B/ 16f#/	.	.	4F#\	-sma	.	.	.	.	.	.	.	.	.	.	.	.	.	.	.	.
.	.	16d\	16B/ 16f#/	.	.	.	.	.	.	.	.	.	.	.	.	.	.	.	.	.	.	.	.
.	.	16d\	16B/ 16f#/	.	.	.	.	.	.	.	.	.	.	.	.	.	.	.	.	.	.	.	.
.	.	16d\JJ	16B/JJ 16f#/	.	.	.	.	.	.	.	.	.	.	.	.	.	.	.	.	.	.	.	.
!	!	!LO:LB:g=original	!	!	!	!	!	!	!	!	!	!	!	!	!	!	!	!	!	!	!	!	!
=42	=42	=42	=42	=42	=42	=42	=42	=42	=42	=42	=42	=42	=42	=42	=42	=42	=42	=42	=42	=42	=42	=42	=42
8B\	.	16d\LL	16B/LL 16f#/	.	1ryy	4r	.	.	.	.	.	.	.	.	.	1r	.	1r	.	1r	.	1r	.
.	.	16d\	16B/ 16f#/	.	.	.	.	.	.	.	.	.	.	.	.	.	.	.	.	.	.	.	.
8r	.	16d\	16B/ 16f#/	.	.	.	.	.	.	.	.	.	.	.	.	.	.	.	.	.	.	.	.
.	.	16d\	16B/ 16f#/	.	.	.	.	.	.	.	.	.	.	.	.	.	.	.	.	.	.	.	.
8F#\	.	16d\	16B/ 16f#/	.	.	8F#\	in	.	.	.	.	.	.	.	.	.	.	.	.	.	.	.	.
.	.	16d\	16B/ 16f#/	.	.	.	.	.	.	.	.	.	.	.	.	.	.	.	.	.	.	.	.
8r	.	16d\	16B/ 16f#/	.	.	8F#\	re-	.	.	.	.	.	.	.	.	.	.	.	.	.	.	.	.
.	.	16d\JJ	16B/JJ 16f#/	.	.	.	.	.	.	.	.	.	.	.	.	.	.	.	.	.	.	.	.
*	*	*Xtremolo	*Xtremolo	*	*	*	*	*	*	*	*	*	*	*	*	*	*	*	*	*	*	*	*
!	!	!	!	!	!	!LO:SIC:v:l:t=-mis-	!	!	!	!	!	!	!	!	!	!	!	!	!	!	!	!	!
8G\L	.	8G/L	8g'/L	.	.	8G\L	-mi-	.	.	.	.	.	.	.	.	.	.	.	.	.	.	.	.
8F#\	.	8F#/	8f#'/	.	.	8F#\	-si-	.	.	.	.	.	.	.	.	.	.	.	.	.	.	.	.
8E\	.	8E/	8e'/	.	.	8E\	-o-	.	.	.	.	.	.	.	.	.	.	.	.	.	.	.	.
8D\J	.	8D/J	8d'/J	.	.	8D\J	-n(em)	.	.	.	.	.	.	.	.	.	.	.	.	.	.	.	.
=43	=43	=43	=43	=43	=43	=43	=43	=43	=43	=43	=43	=43	=43	=43	=43	=43	=43	=43	=43	=43	=43	=43	=43
4C#/	.	4C#/	4c#/ 4e/	.	1ryy	4E\	pec-	1r	.	1r	.	.	1r	.	.	2r	.	2r	.	2r	.	2r	.
(4AA#X/	.	4A#X/	4c#X/	.	.	4F#\	-ca-	.	.	.	.	.	.	.	.	.	.	.	.	.	.	.	.
8BB/)	.	8B/L	8B/L 8f#/	.	.	8D/	-to-	.	.	.	.	.	.	.	.	4r	.	4r	.	4r	.	4r	.
8r	.	8B/J	8B/J 8f#/	.	.	8BB/	-rum	.	.	.	.	.	.	.	.	.	.	.	.	.	.	.	.
!	!	!	!	!LO:DY:t=fr	!	!	!	!	!	!	!	!	!	!	!	!	!LO:DY:rj	!	!LO:DY:rj:t=f.	!	!LO:DY:t=fr.	!	!LO:DY:t=f.
4B\	f	4b\	4d/ 4f#/	f	.	4r	.	.	.	.	.	.	.	.	.	4d\	f	4f#\	f	4ff#\	f	4bb\	f
=44	=44	=44	=44	=44	=44	=44	=44	=44	=44	=44	=44	=44	=44	=44	=44	=44	=44	=44	=44	=44	=44	=44	=44
*tremolo	*	*tremolo	*	*	*	*	*	*	*	*	*	*	*	*	*	*	*	*	*	*	*	*	*
!	!	!	!	!	!	!	!	!LO:TX:a:i:t=Solo	!	!	!	!LO:DY:t=p.	!	!	!	!	!	!	!	!	!	!	!
8F#\L	.	8f#\L	4r	.	1ryy	4c#\	et	4A#X\	et	4f#\	Et	p	4cc#\	Et	.	0r	.	0r	.	0r	.	0r	.
8F#\	.	8f#\	.	.	.	.	.	.	.	.	.	.	.	.	.	.	.	.	.	.	.	.	.
8F#\	.	8f#\	4A#X/	.	.	4A#X\	ex-	4A#\	ex-	4f#\	ex-	.	4cc#\	ex-	.	.	.	.	.	.	.	.	.
8F#\J	.	8f#\J	.	.	.	.	.	.	.	.	.	.	.	.	.	.	.	.	.	.	.	.	.
!	!LO:DY:rj	!	!	!	!	!LO:LB:g=original	!	!	!	!	!	!	!	!	!LO:DY:rj	!	!	!	!	!	!	!	!
8F#\L	p	8f#\L	4B/	.	.	4B\	-pe-	4B\	-pe-	4f#\	-pe-	.	4dd\	-pe-	p	.	.	.	.	.	.	.	.
8F#\	.	8f#\	.	.	.	.	.	.	.	.	.	.	.	.	.	.	.	.	.	.	.	.	.
8F#\	.	8f#\	4A#/	.	.	4F#\	-cto	4A#\	-cto	4f#\	-cto	.	4cc#\	-cto	.	.	.	.	.	.	.	.	.
8F#\J	.	8f#\J	.	.	.	.	.	.	.	.	.	.	.	.	.	.	.	.	.	.	.	.	.
=45	=45	=45	=45	=45	=45	=45	=45	=45	=45	=45	=45	=45	=45	=45	=45	=45	=45	=45	=45	=45	=45	=45	=45
8F#\L	.	8f#\L	4c#/	.	1ryy	4A#X\	re-	4c#\	re-	4f#\	re-	.	4ee\	re-	.	.	.	.	.	.	.	.	.
8F#\	.	8f#\	.	.	.	.	.	.	.	.	.	.	.	.	.	.	.	.	.	.	.	.	.
8F#\	.	8f#\	4B/	.	.	4F#\	-sur-	4B\	-sur-	4f#\	-sur-	.	4dd\	-sur-	.	.	.	.	.	.	.	.	.
8F#\J	.	8f#\J	.	.	.	.	.	.	.	.	.	.	.	.	.	.	.	.	.	.	.	.	.
8F#\L	.	8f#\L	4A#X/	.	.	4F#\	-re-	4A#X\	-re-	4f#\	-re-	.	4cc#\	-re-	.	.	.	.	.	.	.	.	.
8F#\	.	8f#\	.	.	.	.	.	.	.	.	.	.	.	.	.	.	.	.	.	.	.	.	.
8F#\	.	8f#\	4B/	.	.	4F#\	-cti-	4B\	-cti-	4f#\	-cti-	.	4dd\	-cti-	.	.	.	.	.	.	.	.	.
8F#\J	.	8f#\J	.	.	.	.	.	.	.	.	.	.	.	.	.	.	.	.	.	.	.	.	.
*Xtremolo	*	*Xtremolo	*	*	*	*	*	*	*	*	*	*	*	*	*	*	*	*	*	*	*	*	*
=46	=46	=46	=46	=46	=46	=46	=46	=46	=46	=46	=46	=46	=46	=46	=46	=46	=46	=46	=46	=46	=46	=46	=46
4F#\	.	8f#\L	4B/	.	1ryy	4F#\	-o-	4B\	-o-	4f#\	-o-	.	4dd\	-o-	.	4r	.	4r	.	4r	.	4r	.
.	.	8f#\	.	.	.	.	.	.	.	.	.	.	.	.	.	.	.	.	.	.	.	.	.
2F#\	f	8d\	16a#X\LL	.	.	4F#\	-nem	4A#X\	-nem	4f#\	-nem	.	4cc#\	-nem	.	4c#\	.	4f#\	.	4cc#\	.	4ccc#\	.
.	.	.	16gg\	.	.	.	.	.	.	.	.	.	.	.	.	.	.	.	.	.	.	.	.
.	.	8f#\J	16gg\	.	.	.	.	.	.	.	.	.	.	.	.	.	.	.	.	.	.	.	.
.	.	.	16gg\JJ	.	.	.	.	.	.	.	.	.	.	.	.	.	f	.	.	.	.	.	.
*	*	*tremolo	*tremolo	*	*	*	*	*	*	*	*	*	*	*	*	*	*	*	*	*	*	*	*
!	!	!	!	!	!	!	!	!	!	!	!	!	!	!	!	!	!	!	!	!	!LO:DY:rj:t=fr.	!	!
.	.	8c#\L	16gg\LL	.	.	2r	.	2r	.	2r	.	.	2r	.	.	2c#\	.	2f#\	.	2cc#\	f	2ccc#\	.
.	.	.	16gg\	.	.	.	.	.	.	.	.	.	.	.	.	.	.	.	.	.	.	.	.
.	.	8f#\	16gg\	.	.	.	.	.	.	.	.	.	.	.	.	.	.	.	.	.	.	.	.
.	.	.	16gg\	.	.	.	.	.	.	.	.	.	.	.	.	.	.	.	.	.	.	.	.
4F#\	.	8c#\	16gg\	.	.	.	.	.	.	.	.	.	.	.	.	.	.	.	.	.	.	.	.
.	.	.	16gg\	.	.	.	.	.	.	.	.	.	.	.	.	.	.	.	.	.	.	.	.
.	.	8f#\J	16gg\	.	.	.	.	.	.	.	.	.	.	.	.	.	.	.	.	.	.	.	.
.	.	.	16gg\JJ	.	.	.	.	.	.	.	.	.	.	.	.	.	.	.	.	.	.	.	.
!	!	!	!	!	!	!	!	!LO:LB:g=original	!	!LO:LB:g=original	!	!	!	!	!	!	!	!	!	!	!	!	!
*	*	*	*Xtremolo	*	*	*	*	*	*	*	*	*	*	*	*	*	*	*	*	*	*	*	*
=47	=47	=47	=47	=47	=47	=47	=47	=47	=47	=47	=47	=47	=47	=47	=47	=47	=47	=47	=47	=47	=47	=47	=47
*tremolo	*	*	*	*	*	*	*	*	*	*	*	*	*	*	*	*	*	*	*	*	*	*	*
!	!	!	!	!	!	!	!	!	!	!	!	!	!	!	!	!	!	!	!	!LO:TX:b:i:t=dol	!	!LO:TX:b:i:t=dol	!
8F#\L	.	8F#/L	8ff#\	.	1ryy	(2F#\	pec-	2B\	pec-	2dd\	pec-	.	2ff#\	pec-	.	2d\	.	2f#\	.	2dd\	.	2ff#\	.
8F#\	.	8F#/	8r	.	.	.	.	.	.	.	.	.	.	.	.	.	.	.	.	.	.	.	.
8F#\	.	8F#/	8ff#\	.	.	.	.	.	.	.	.	.	.	.	.	.	.	.	.	.	.	.	.
8F#\J	.	8F#/J	8r	.	.	.	.	.	.	.	.	.	.	.	.	.	.	.	.	.	.	.	.
8F#\L	.	8F#/L	8ff#\	.	.	4F#\)	.	4A#X\	-ca-	4cc#\	-ca-	.	4ee\	-ca-	.	4c#\	.	4e\	.	4cc#\	.	4ee\	.
8F#\	.	8F#/	8r	.	.	.	.	.	.	.	.	.	.	.	.	.	.	.	.	.	.	.	.
8F#\	.	8F#/	8ff#\	.	.	4F#\	-ca-	4B\	.	4b\	.	.	4dd\	.	.	4F#/	.	4d\	.	4b\	.	4dd\	.
8F#\J	.	8F#/J	8r	.	.	.	.	.	.	.	.	.	.	.	.	.	.	.	.	.	.	.	.
*Xtremolo	*	*Xtremolo	*	*	*	*	*	*	*	*	*	*	*	*	*	*	*	*	*	*	*	*	*
=48	=48	=48	=48	=48	=48	=48	=48	=48	=48	=48	=48	=48	=48	=48	=48	=48	=48	=48	=48	=48	=48	=48	=48
4F#\	.	8F#/L	8r	.	1ryy	4F#\	-to-	4e#X\	-to-	4b\	-to-	.	4dd\	-to-	.	4F#/	.	4d\	.	4b/	.	4dd\	.
.	.	8F#/	8ff#\	.	.	.	.	.	.	.	.	.	.	.	.	.	.	.	.	.	.	.	.
2F#\	f	8c#/	16r	.	.	4F#\	-rum	4f#\	-rum	4a#X\	-rum	.	4cc#\	-ru(m)	.	4F#/	.	4c#\	.	4a#X/	.	4cc#\	.
.	.	.	16cc#\LL 16ff#\	.	.	.	.	.	.	.	.	.	.	.	.	.	.	.	.	.	.	.	.
.	.	8f#/J	16cc#\ 16ff#\	.	.	.	.	.	.	.	.	.	.	.	.	.	.	.	.	.	.	.	.
.	.	.	16cc#\JJ 16ff#\	.	.	.	.	.	.	.	.	.	.	.	.	.	.	.	.	.	.	.	.
!	!	!	!LO:LB:g=original	!	!	!	!	!	!	!	!	!	!	!	!	!	!	!	!	!	!	!	!
*	*	*tremolo	*tremolo	*	*	*	*	*	*	*	*	*	*	*	*	*	*	*	*	*	*	*	*
.	.	8c#\L	16cc#\LL 16ff#\	.	.	4r	.	4r	.	4r	.	.	4r	.	.	4r	.	4r	.	4r	.	4r	.
.	.	.	16cc#\ 16ff#\	.	.	.	.	.	.	.	.	.	.	.	.	.	.	.	.	.	.	.	.
.	.	8f#\	16cc#\ 16ff#\	.	.	.	.	.	.	.	.	.	.	.	.	.	.	.	.	.	.	.	.
.	.	.	16cc#\JJ 16ff#\	.	.	.	.	.	.	.	.	.	.	.	.	.	.	.	.	.	.	.	.
*	*	*	*Xtremolo	*	*	*	*	*	*ij	*	*ij	*	*	*ij	*	*	*	*	*	*	*	*	*
4F#\	.	8c#\	8cc#\ 8ff#\	.	.	8.F#\	pec-	8.e#X\	pec-	8.a#X\	pec-	.	8.cc#\	pec-	.	8.F#/L	.	8.c#\L	.	8.a#X/L	.	8cc#\L	.
.	.	8f#\J	8r	.	.	.	.	.	.	.	.	.	.	.	.	.	.	.	.	.	.	8cc#\J	.
.	.	.	.	.	.	16F#\	ca-	16e#\	-ca-	16a#\	ca-	.	16cc#\	ca-	.	16F#/Jk	.	16c#\Jk	.	16a#/Jk	.	.	.
*	*	*Xtremolo	*	*	*	*	*	*	*	*	*	*	*	*	*	*	*	*	*	*	*	*	*
!	!	!	!	!	!	!	!	!	!	!	!	!	!	!	!	!	!	!	!	!	!	!LO:LB:g=original	!
=49	=49	=49	=49	=49	=49	=49	=49	=49	=49	=49	=49	=49	=49	=49	=49	=49	=49	=49	=49	=49	=49	=49	=49
8F#\L	.	8f#\L	8r	.	1ryy	4F#\	-to-	4f#\	-to-	4b\	-to-	.	4dd\	-to-	.	4F#/	.	4d\	.	4b/	.	4dd\	.
8F#\J	.	8f#\	8ff#\	.	.	.	.	.	.	.	.	.	.	.	.	.	.	.	.	.	.	.	.
2F#\	.	8c#\	16r	.	.	4F#\	-rum	4F#/	-rum	4a#X\	-rum	.	4cc#\	-ru(m)	.	4F#/	.	4c#\	.	4a/	.	4cc#\	.
*	*	*	*	*	*	*	*	*	*	*	*Xij	*	*	*Xij	*	*	*	*	*	*	*	*	*
.	.	.	16ff#\LL	.	.	.	.	.	.	.	.	.	.	.	.	.	.	.	.	.	.	.	.
.	.	8f#\J	16ff#\	.	.	.	.	.	.	.	.	.	.	.	.	.	.	.	.	.	.	.	.
.	.	.	16ff#\JJ	.	.	.	.	.	.	.	.	.	.	.	.	.	.	.	.	.	.	.	.
*	*	*tremolo	*tremolo	*	*	*	*	*	*	*	*	*	*	*	*	*	*	*	*	*	*	*	*
.	.	8c#\L	16ff#\LL	.	.	2r	.	2r	.	2r	.	.	2r	.	.	2c#\	.	2f#\	.	2cc#\	.	(2ccc#\	.
.	.	.	16ff#\	.	.	.	.	.	.	.	.	.	.	.	.	.	.	.	.	.	.	.	.
.	.	8f#\	16ff#\	.	.	.	.	.	.	.	.	.	.	.	.	.	.	.	.	.	.	.	.
.	.	.	16ff#\	.	.	.	.	.	.	.	.	.	.	.	.	.	.	.	.	.	.	.	.
4F#\	.	8c#\	16ff#\	.	.	.	.	.	.	.	.	.	.	.	.	.	.	.	.	.	.	.	.
.	.	.	16ff#\	.	.	.	.	.	.	.	.	.	.	.	.	.	.	.	.	.	.	.	.
.	.	8f#\J	16ff#\	.	.	.	.	.	.	.	.	.	.	.	.	.	.	.	.	.	.	.	.
.	.	.	16ff#\JJ	.	.	.	.	.	.	.	.	.	.	.	.	.	.	.	.	.	.	.	.
=50	=50	=50	=50	=50	=50	=50	=50	=50	=50	=50	=50	=50	=50	=50	=50	=50	=50	=50	=50	=50	=50	=50	=50
!	!	!	!	!LO:DY:t=fr	!	!	!	!	!	!	!	!LO:DY:b	!	!	!LO:DY:rj:t=f.	!	!LO:DY:rj	!	!LO:DY:t=f.	!	!LO:DY:rj:t=f.	!	!LO:DY:t=f.
4Fn\	.	16g#X\LL	16gg#X\LL 16bb\	f	1ryy	4E#X\	mor-	4.G#X/	pec-	4.b\	mor-	f	4.dd\	mor-	f	2D/	f	2d\	f	4bb\	f	8ddd\L)	f
.	.	16b\	16gg#\ 16bb\	.	.	.	.	.	.	.	.	.	.	.	.	.	.	.	.	.	.	.	.
.	.	16g#\	16gg#\ 16bb\	.	.	.	.	.	.	.	.	.	.	.	.	.	.	.	.	.	.	8bb\	.
!	!	!	!	!	!	!	!	!	!	!	!	!	!	!	!LO:HP:b	!	!	!	!	!	!	!	!
.	.	16b\	16gg#\ 16bb\	.	.	.	.	.	.	.	.	.	.	.	>	.	.	.	.	.	.	.	.
2F\	.	16g#\	16gg#\ 16bb\	.	.	2E#\	tu-	.	.	.	.	.	.	.	.	.	.	.	.	4gg#X\	.	8gg#X\	.
.	.	16b\	16gg#\ 16bb\	.	.	.	.	.	.	.	.	.	.	.	.	.	.	.	.	.	.	.	.
.	.	16g#\	16gg#\ 16bb\	.	.	.	.	8G#/	-ca-	8b\	-tu-	.	8dd\	-tu-	.	.	.	.	.	.	.	8ffn\J	.
.	.	16b\JJ	16gg#\JJ 16bb\	.	.	.	.	.	.	.	.	.	.	.	.	.	.	.	.	.	.	.	.
.	.	16g#\LL	16gg#\LL 16bb\	.	.	.	.	2G#/	-to-	2b\	-o-	.	2dd\	-o-	]	4D/	.	4d\	.	4bb\	.	8dd\L	.
.	.	16b\	16gg#\ 16bb\	.	.	.	.	.	.	.	.	.	.	.	.	.	.	.	.	.	.	.	.
.	.	16g#\	16gg#\ 16bb\	.	.	.	.	.	.	.	.	.	.	.	.	.	.	.	.	.	.	8ff\	.
.	.	16b\	16gg#\ 16bb\	.	.	.	.	.	.	.	.	.	.	.	.	.	.	.	.	.	.	.	.
4F\	.	16g#\	16gg#\ 16bb\	.	.	4E#\	-o-	.	.	.	.	.	.	.	.	4D/	.	4d\	.	4gg#\	.	8gg#X\	.
.	.	16b\	16gg#\ 16bb\	.	.	.	.	.	.	.	.	.	.	.	.	.	.	.	.	.	.	.	.
.	.	16g#\	16gg#\ 16bb\	.	.	.	.	.	.	.	.	.	.	.	.	.	.	.	.	.	.	8bb\J	.
.	.	16b\JJ	16gg#\JJ 16bb\	.	.	.	.	.	.	.	.	.	.	.	.	.	.	.	.	.	.	.	.
*	*	*Xtremolo	*	*	*	*	*	*	*	*	*	*	*	*	*	*	*	*	*	*	*	*	*
!	!	!LO:LB:g=original	!	!	!	!	!	!	!	!	!	!	!	!	!	!	!	!	!	!LO:LB:g=original	!	!	!
=51	=51	=51	=51	=51	=51	=51	=51	=51	=51	=51	=51	=51	=51	=51	=51	=51	=51	=51	=51	=51	=51	=51	=51
!	!	!	!	!	!	!	!	!	!	!	!	!	!	!	!LO:DY:t=p.	!	!LO:DY:t=po	!	!LO:DY:t=po	!	!LO:DY:t=po.	!	!LO:DY:t=po
4FnX\	.	8f#\L	16aa#X\LL	p	1ryy	2F#\	-rum	2F#/	-rum	2a#X\	-rum	.	2cc#\	-rum	p	4c#\	p	4f#\	p	4ff#\	p	4aa#X\	p
.	.	.	16aa#\	.	.	.	.	.	.	.	.	.	.	.	.	.	.	.	.	.	.	.	.
.	.	8c#\	16aa#\	.	.	.	.	.	.	.	.	.	.	.	.	.	.	.	.	.	.	.	.
.	.	.	16aa#\	.	.	.	.	.	.	.	.	.	.	.	.	.	.	.	.	.	.	.	.
2F\	.	8A#X\	16aa#\	.	.	.	.	.	.	.	.	.	.	.	.	4c#\	.	4f#\	.	4ff#\	.	4aa#\	.
.	.	.	16aa#\	.	.	.	.	.	.	.	.	.	.	.	.	.	.	.	.	.	.	.	.
.	.	8c#\J	16aa#\	.	.	.	.	.	.	.	.	.	.	.	.	.	.	.	.	.	.	.	.
.	.	.	16aa#\	.	.	.	.	.	.	.	.	.	.	.	.	.	.	.	.	.	.	.	.
*	*	*tremolo	*	*	*	*	*	*	*	*	*	*	*	*	*	*	*	*	*	*	*	*	*
!	!	!LO:TX:t=P:problem=mixed beam	!	!	!	!	!	!	!	!	!	!	!	!	!	!	!	!	!	!	!	!	!
.	.	16f#\LL	16aa#\	.	.	4r	.	4r	.	4r	.	.	4r	.	.	2c#\	.	2f#\	.	2ff#\	.	2aa#\	.
.	.	16A#X/	16aa#\	.	.	.	.	.	.	.	.	.	.	.	.	.	.	.	.	.	.	.	.
.	.	16f#\	16aa#\	.	.	.	.	.	.	.	.	.	.	.	.	.	.	.	.	.	.	.	.
.	.	16A#/	16aa#\	.	.	.	.	.	.	.	.	.	.	.	.	.	.	.	.	.	.	.	.
*	*	*	*	*	*	*	*	*	*	*	*	*	*	*ij	*	*	*	*	*	*	*	*	*
4F\	.	16f#\	16aa#\	.	.	8.F#\	mor-	8.F#/	pec-	8.a#X\	mor-	.	8.cc#\L	mor-	.	.	.	.	.	.	.	.	.
.	.	16A#/	16aa#\	.	.	.	.	.	.	.	.	.	.	.	.	.	.	.	.	.	.	.	.
.	.	16f#\	16aa#\	.	.	.	.	.	.	.	.	.	.	.	.	.	.	.	.	.	.	.	.
.	.	16A#/JJ	16aa#\JJ	.	.	16F#\	-tu-	16F#/	-ca-	16a#\	-tu-	.	16cc#\Jk	-tu-	.	.	.	.	.	.	.	.	.
*	*	*	*	*	*	*	*	*	*	*	*	*	*	*	*	*	*	*	*	*	*	*	*
!	!	!	!	!	!	!LO:LB:g=original	!	!	!	!	!	!	!	!	!	!	!	!	!	!	!	!	!
=52	=52	=52	=52	=52	=52	=52	=52	=52	=52	=52	=52	=52	=52	=52	=52	=52	=52	=52	=52	=52	=52	=52	=52
!	!	!	!	!LO:DY:t=fre	!	!	!	!	!	!	!	!	!	!	!LO:DY:rj:t=fr	!	!LO:DY:rj:t=f	!	!	!	!LO:DY:t=f.	!	!
4Fn\	.	16G#X/LL	16gg#X\LL 16bb\	f	1ryy	1E#X\	-o-	1G#X/	-to-	1b\	-o-	.	1dd\	-o-	f	2D/	f	2d\	.	4bb\	f	4ddd\	.
.	.	16B/	16gg#\ 16bb\	.	.	.	.	.	.	.	.	.	.	.	.	.	.	.	.	.	.	.	.
.	.	16G#/	16gg#\ 16bb\	.	.	.	.	.	.	.	.	.	.	.	.	.	.	.	.	.	.	.	.
.	.	16B/	16gg#\ 16bb\	.	.	.	.	.	.	.	.	.	.	.	.	.	.	.	.	.	.	.	.
!	!	!	!	!	!	!	!	!	!	!	!	!	!	!	!	!	!	!	!	!	!	!	!LO:DY:rj:t=fr
2F\	.	16G#/	16gg#\ 16bb\	.	.	.	.	.	.	.	.	.	.	.	.	.	.	.	.	4gg#X\	.	4bb\	f
.	.	16B/	16gg#\ 16bb\	.	.	.	.	.	.	.	.	.	.	.	.	.	.	.	.	.	.	.	.
.	.	16G#/	16gg#\ 16bb\	.	.	.	.	.	.	.	.	.	.	.	.	.	.	.	.	.	.	.	.
.	.	16B/JJ	16gg#\ 16bb\	.	.	.	.	.	.	.	.	.	.	.	.	.	.	.	.	.	.	.	.
*	*	*rep	*	*	*	*	*	*	*	*	*	*	*	*	*	*	*	*	*	*	*	*	*
.	.	16G#/LLyy	16gg#\ 16bb\	.	.	.	.	.	.	.	.	.	.	.	.	4D/	.	4d\	.	4bb\	.	(4ddd\	.
.	.	16B/yy	16gg#\ 16bb\	.	.	.	.	.	.	.	.	.	.	.	.	.	.	.	.	.	.	.	.
.	.	16G#/yy	16gg#\ 16bb\	.	.	.	.	.	.	.	.	.	.	.	.	.	.	.	.	.	.	.	.
.	.	16B/yy	16gg#\ 16bb\	.	.	.	.	.	.	.	.	.	.	.	.	.	.	.	.	.	.	.	.
4F\	.	16G#/yy	16gg#\ 16bb\	.	.	.	.	.	.	.	.	.	.	.	.	4D/	.	4d\	.	4gg#\	.	4bb\)	.
.	.	16B/yy	16gg#\ 16bb\	.	.	.	.	.	.	.	.	.	.	.	.	.	.	.	.	.	.	.	.
.	.	16G#/yy	16gg#\ 16bb\	.	.	.	.	.	.	.	.	.	.	.	.	.	.	.	.	.	.	.	.
.	.	16B/JJyy	16gg#\JJ 16bb\	.	.	.	.	.	.	.	.	.	.	.	.	.	.	.	.	.	.	.	.
*	*	*Xrep	*	*	*	*	*	*	*	*	*	*	*	*	*	*	*	*	*	*	*	*	*
*	*	*Xtremolo	*	*	*	*	*	*	*	*	*	*	*	*	*	*	*	*	*	*	*	*	*
=53	=53	=53	=53	=53	=53	=53	=53	=53	=53	=53	=53	=53	=53	=53	=53	=53	=53	=53	=53	=53	=53	=53	=53
2F#X;\	.	2F#;/ 2A#X/	2aa#X;\	.	1ryy	2F#;\	-rum	2F#;/	-rum	2a#X;\	-rum	.	2cc#;\	-rum	.	2c#;\	.	2f#;\	.	2ff#;\	.	2aa#X;\	.
*	*	*	*	*	*	*	*	*	*Xij	*	*	*	*	*Xij	*	*	*	*	*	*	*	*	*
2r	.	2r	4r	.	.	2r	.	2r	.	2r	.	.	2r	.	.	2r	.	2r	.	2r	.	2r	.
.	.	.	4f#/	.	.	.	.	.	.	.	.	.	.	.	.	.	.	.	.	.	.	.	.
!	!	!	!	!	!	!	!	!	!	!	!	!	!	!	!	!LO:LB:g=original	!	!	!	!	!	!	!
=54||	=54||	=54|	=54||	=54||	=54||	=54||	=54||	=54||	=54||	=54||	=54||	=54||	=54||	=54||	=54||	=54||	=54||	=54||	=54||	=54||	=54||	=54||	=54||
!LO:TX:a:i:t=Vivace	!	!	!LO:TX:a:i:t=allo e Vivace	!	!	!LO:TX:a:i:t=Vivace	!	!LO:TX:a:i:t=Vivace	!	!LO:TX:a:i:t=Vivace	!	!	!LO:TX:a:i:t=Vivace	!	!	!LO:TX:a:i:t=Vivace	!	!LO:TX:a:i:t=Vivace	!	!LO:TX:a:i:t=Vivace	!	!LO:TX:a:i:t=Vivace	!
0r	.	8g\L	8g/L	.	1ryy	0r	.	00r	.	0r	.	.	00r	.	.	00r	.	00r	.	00r	.	0r	.
.	.	8f#\	8f#/	.	.	.	.	.	.	.	.	.	.	.	.	.	.	.	.	.	.	.	.
.	.	8e\	8e/	.	.	.	.	.	.	.	.	.	.	.	.	.	.	.	.	.	.	.	.
.	.	8d\J	8d/J	.	.	.	.	.	.	.	.	.	.	.	.	.	.	.	.	.	.	.	.
.	.	8c#\L	8c#/L	.	.	.	.	.	.	.	.	.	.	.	.	.	.	.	.	.	.	.	.
.	.	8d\	8d/	.	.	.	.	.	.	.	.	.	.	.	.	.	.	.	.	.	.	.	.
.	.	8e\	8e/	.	.	.	.	.	.	.	.	.	.	.	.	.	.	.	.	.	.	.	.
.	.	8d\J	8d/J	.	.	.	.	.	.	.	.	.	.	.	.	.	.	.	.	.	.	.	.
=55	=55	=55	=55	=55	=55	=55	=55	=55	=55	=55	=55	=55	=55	=55	=55	=55	=55	=55	=55	=55	=55	=55	=55
.	.	8c#/L	8c#/L	.	1ryy	.	.	.	.	.	.	.	.	.	.	.	.	.	.	.	.	.	.
.	.	8B/	8B/	.	.	.	.	.	.	.	.	.	.	.	.	.	.	.	.	.	.	.	.
.	.	8A/	8A/	.	.	.	.	.	.	.	.	.	.	.	.	.	.	.	.	.	.	.	.
.	.	8B/J	8B/J	.	.	.	.	.	.	.	.	.	.	.	.	.	.	.	.	.	.	.	.
.	.	8c#\L	8c#/L	.	.	.	.	.	.	.	.	.	.	.	.	.	.	.	.	.	.	.	.
.	.	8d\	8d/	.	.	.	.	.	.	.	.	.	.	.	.	.	.	.	.	.	.	.	.
.	.	8e\	8e/	.	.	.	.	.	.	.	.	.	.	.	.	.	.	.	.	.	.	.	.
.	.	8c#\J	8c#/J	.	.	.	.	.	.	.	.	.	.	.	.	.	.	.	.	.	.	.	.
=56	=56	=56	=56	=56	=56	=56	=56	=56	=56	=56	=56	=56	=56	=56	=56	=56	=56	=56	=56	=56	=56	=56	=56
*	*	*tremolo	*	*	*	*	*	*	*	*	*	*	*	*	*	*	*	*	*	*	*	*	*
!	!	!LO:TX:t=P:problem=mixed beam	!	!	!	!	!	!	!	!	!	!	!	!	!	!	!	!	!	!	!	!	!
2D\	.	8d\L	2d/	.	1ryy	2D\	Et	.	.	2d\	Et	.	.	.	.	.	.	.	.	.	.	8r	.
!	!	!	!	!	!	!	!	!	!	!	!	!	!	!	!	!	!	!	!	!	!	!LO:TX:a:i:t=Solo	!
.	.	8D/	.	.	.	.	.	.	.	.	.	.	.	.	.	.	.	.	.	.	.	8dd\L	.
.	.	8d\	.	.	.	.	.	.	.	.	.	.	.	.	.	.	.	.	.	.	.	8bb\	.
.	.	8D/J	.	.	.	.	.	.	.	.	.	.	.	.	.	.	.	.	.	.	.	8aa\J	.
4C#/	.	8d\L	4e/	.	.	4C#/	vi-	.	.	4e\	vi-	.	.	.	.	.	.	.	.	.	.	8gg#X\L	.
.	.	8D/	.	.	.	.	.	.	.	.	.	.	.	.	.	.	.	.	.	.	.	8aa\	.
4D/	.	8d\	4d/	.	.	4D/	-tam	.	.	4d\	-ta(m)	.	.	.	.	.	.	.	.	.	.	8bb\	.
.	.	8D/J	.	.	.	.	.	.	.	.	.	.	.	.	.	.	.	.	.	.	.	8aa\J	.
!	!	!	!LO:LB:g=original	!	!	!	!	!	!	!	!	!	!	!	!	!	!	!	!	!	!	!	!
=57	=57	=57	=57	=57	=57	=57	=57	=57	=57	=57	=57	=57	=57	=57	=57	=57	=57	=57	=57	=57	=57	=57	=57
!	!	!LO:TX:t=P:problem=mixed beam	!	!	!	!	!	!	!	!	!	!	!	!	!	!	!	!	!	!	!	!	!
4E\	.	8d\L	4c#/	.	1ryy	4E\	ven-	.	.	4c#\	ven-	.	.	.	.	.	.	.	.	.	.	8ggn\L	.
!	!	!	!	!	!	!	!	!	!	!	!	!	!	!	!	!	!	!	!	!	!	!	!
.	.	8D/	.	.	.	.	.	.	.	.	.	.	.	.	.	.	.	.	.	.	.	8ff#\	.
4F#\	.	8d\	4d/	.	.	8.F#\	-tu-	.	.	8.d\	-tu-	.	.	.	.	.	.	.	.	.	.	8ee\	.
.	.	8D/J	.	.	.	.	.	.	.	.	.	.	.	.	.	.	.	.	.	.	.	8dd\J	.
.	.	.	.	.	.	16F#\	-ri	.	.	16d\	-ri	.	.	.	.	.	.	.	.	.	.	.	.
!	!	!	!	!	!	!LO:SIC:v:l:t=-sae-	!	!	!	!	!	!	!	!	!	!	!	!	!	!	!	!	!
4G\	.	8d\L	4e/	.	.	4G\	se-	.	.	4e\	sae-	.	.	.	.	.	.	.	.	.	.	8cc#\L	.
.	.	8D/	.	.	.	.	.	.	.	.	.	.	.	.	.	.	.	.	.	.	.	8dd\	.
4A\	.	8d\	4c#/	.	.	8.A\	-cu-	.	.	8.c#\	-cu-	.	.	.	.	.	.	.	.	.	.	8ee\	.
.	.	8D/J	.	.	.	.	.	.	.	.	.	.	.	.	.	.	.	.	.	.	.	8cc#\J	.
.	.	.	.	.	.	16A\	-li	.	.	16c#\	-li	.	.	.	.	.	.	.	.	.	.	.	.
!	!	!	!	!	!	!	!	!	!	!LO:LB:g=original	!	!	!	!	!	!	!	!	!	!	!	!	!
=58	=58	=58	=58	=58	=58	=58	=58	=58	=58	=58	=58	=58	=58	=58	=58	=58	=58	=58	=58	=58	=58	=58	=58
!	!	!LO:TX:t=P:problem=mixed beam	!	!	!	!	!	!	!	!	!	!	!	!	!	!	!	!	!	!	!	!	!
8F#\	.	8d\L	4d/	.	1ryy	4F#\	a-	4r	.	4d\	a-	.	4r	.	.	0r	.	0r	.	0r	.	8r	.
8r	.	8D/	.	.	.	.	.	.	.	.	.	.	.	.	.	.	.	.	.	.	.	8dd\L	.
(4D/	.	8d\	4dd\	.	.	4D\	-men	4d\	Et	4d\	-men	.	4d/	Et	.	.	.	.	.	.	.	8cc#\	.
.	.	8D/J	.	.	.	.	.	.	.	.	.	.	.	.	.	.	.	.	.	.	.	8dd\J	.
4C#/	.	8d\L	4d/	.	.	2r	.	4c#\	vi-	2r	.	.	4e/	vi-	.	.	.	.	.	.	.	8ee\L	.
.	.	8D/	.	.	.	.	.	.	.	.	.	.	.	.	.	.	.	.	.	.	.	8ff#\	.
4BB#X/)	.	8d\	4d/	.	.	.	.	8.cn\	-ta(m)	.	.	.	8.f#/	-tam	.	.	.	.	.	.	.	8gg\	.
.	.	8D/J	.	.	.	.	.	.	.	.	.	.	.	.	.	.	.	.	.	.	.	8aa\J	.
.	.	.	.	.	.	.	.	16c\	ven-	.	.	.	16f#/	ven-	.	.	.	.	.	.	.	.	.
!	!	!LO:LB:g=original	!	!	!	!	!	!LO:LB:g=original	!	!	!	!	!	!	!	!	!	!	!	!	!	!LO:PB:g=original	!
=59	=59	=59	=59	=59	=59	=59	=59	=59	=59	=59	=59	=59	=59	=59	=59	=59	=59	=59	=59	=59	=59	=59	=59
!	!	!LO:TX:t=P:problem=mixed beam	!	!	!	!	!	!	!	!	!	!	!	!	!	!	!	!	!	!	!	!	!
8BBn/	.	8d\L	4d/	.	1ryy	1r	.	4B\	-tu-	1r	.	.	4g\	-tu-	.	.	.	.	.	.	.	8bb\L	.
8r	.	8D/	.	.	.	.	.	.	.	.	.	.	.	.	.	.	.	.	.	.	.	8gg\	.
(4AA/	.	8d\	4d/	.	.	.	.	4A\	-ri	.	.	.	4a\	-ri	.	.	.	.	.	.	.	8aa\	.
.	.	8D/J	.	.	.	.	.	.	.	.	.	.	.	.	.	.	.	.	.	.	.	8ff#\J	.
4GG/	.	8d\L	4d/	.	.	.	.	4G\	se-	.	.	.	4b\	se-	.	.	.	.	.	.	.	8gg\L	.
.	.	8D/	.	.	.	.	.	.	.	.	.	.	.	.	.	.	.	.	.	.	.	8ee\	.
4AA/)	.	8d\	4g/	.	.	.	.	8.A\	-culi	.	.	.	8.cc#\	-cu-	.	.	.	.	.	.	.	8aa\	.
.	.	8D/J	.	.	.	.	.	.	.	.	.	.	.	.	.	.	.	.	.	.	.	8ee\J	.
.	.	.	.	.	.	.	.	16A\	a-	.	.	.	(16cc#\	li a-	.	.	.	.	.	.	.	.	.
*	*	*Xtremolo	*	*	*	*	*	*	*	*	*	*	*	*	*	*	*	*	*	*	*	*	*
!	!	!	!	!	!	!	!	!	!	!	!	!	!LO:LB:g=original	!	!	!	!	!	!	!	!	!	!
=60	=60	=60	=60	=60	=60	=60	=60	=60	=60	=60	=60	=60	=60	=60	=60	=60	=60	=60	=60	=60	=60	=60	=60
!	!	!	!	!	!	!	!	!	!	!	!	!	!LO:TX:t=P:problem=brak zakończenia łuku	!	!	!	!	!	!	!	!	!	!
8DD/	.	4D/	4A/ 4f#/	.	1ryy	4r	.	4F#/	a-	4r	.	.	8dd\)	-men	.	4F#/	.	4d\	.	4r	.	4ff#\|	.
8r	.	.	.	.	.	.	.	.	.	.	.	.	8r	.	.	.	.	.	.	.	.	.	.
(4D\	.	4F#/	(4f#/	.	.	4D\	-a-	4D/	-men	2r	.	.	4dd\	a-	.	4F#/	.	4d\	.	8d/L	.	(4dd\	>
.	.	.	.	.	.	.	.	.	.	.	.	.	.	.	.	.	.	.	.	8f#/	>	.	.
4E\	.	4G/	4g/	.	.	4E\	.	4G/	a-	.	.	.	4cc#\	.	.	2r	.	2r	.	8e/	.	4cc#\	.
.	.	.	.	.	.	.	.	.	.	.	.	.	.	.	.	.	.	.	.	8g/	.	.	.
4F#\)	.	4A/	4a'/)	.	.	4F#\	.	4A/	.	(4d\	a-	.	(4ccn\	.	.	.	.	.	.	8f#/	]	4ff#\)	]
.	.	.	.	.	.	.	.	.	.	.	.	.	.	.	.	.	.	.	.	8a/J	.	.	.
=61	=61	=61	=61	=61	=61	=61	=61	=61	=61	=61	=61	=61	=61	=61	=61	=61	=61	=61	=61	=61	=61	=61	=61
8G\	.	4B/	4b\	.	1ryy	4G\	-men	4B/	.	4e\)	-men	.	8b\)	-men	.	0r	.	0r	.	(8g/L	.	4gg\	.
8r	.	.	.	.	.	.	.	.	.	.	.	.	8r	.	.	.	.	.	.	8b/J)	.	.	.
!	!	!	!	!	!	!	!	!	!	!	!	!	!	!	!LO:HP:b	!	!	!	!	!	!	!	!
(4E\	.	4E/	(<4g#X/	.	.	4E\	a-	4G#X/	.	4r	.	.	4ee\	a-	>	.	.	.	.	8e/L	.	4r	.
.	.	.	.	.	.	.	.	.	.	.	.	.	.	.	.	.	.	.	.	8g#X/	.	.	.
4F#\	.	4F#/	4a/	.	.	4F#\	.	4A/	.	4r	.	.	4dd#X\	.	.	.	.	.	.	8f#/	.	2r	.
.	.	.	.	.	.	.	.	.	.	.	.	.	.	.	.	.	.	.	.	8a/	.	.	.
*	*	*	*	*	*	*	*	*	*	*	*ij	*	*	*	*	*	*	*	*	*	*	*	*
4G#X\)	.	4G#X/	4b\)	.	.	4G#X\	.	4B/	.	(4e\	a-	.	4ddn\	.	]	.	.	.	.	8g#/	.	.	.
.	.	.	.	.	.	.	.	.	.	.	.	.	.	.	.	.	.	.	.	8b/J	.	.	.
!	!	!	!	!	!	!LO:LB:g=original	!	!	!	!	!	!	!	!	!	!	!	!	!	!	!	!	!
=62	=62	=62	=62	=62	=62	=62	=62	=62	=62	=62	=62	=62	=62	=62	=62	=62	=62	=62	=62	=62	=62	=62	=62
8A\	.	4A/	4cc#\	.	1ryy	4A\	-men	4c#\	.	4f#\)	-men	.	8cc#\	-men	.	.	.	.	.	8a/L	.	4r	.
8r	.	.	.	.	.	.	.	.	.	.	.	.	8r	.	.	.	.	.	.	8cc#/J	>	.	.
(4c#\	.	4A/	4a\	.	.	4c#\	a-	4A\	.	4r	.	.	4aa\	a-	.	.	.	.	.	4a/	.	8a/L	.
!	!	!	!	!	!	!	!	!	!	!	!	!	!	!	!LO:HP:b	!	!	!	!	!	!	!	!
.	.	.	.	.	.	.	.	.	.	.	.	.	.	.	>	.	.	.	.	.	.	8cc#/J	>
4d\	.	4B/	4b\	.	.	4d\	.	4B\	.	4r	.	.	4gg#X\	.	.	.	.	.	.	4g#X/	.	8b\L	.
.	.	.	.	.	.	.	.	.	.	.	.	.	.	.	.	.	.	.	.	.	]	8dd\	.
4e\)	.	4c#/	4cc#/	.	.	4e\	.	4c#\	.	4a\	a-	.	4ggn\	.	]	.	.	.	.	4gn/	.	8cc#\	]
.	.	.	.	.	.	.	.	.	.	.	.	.	.	.	.	.	.	.	.	.	.	8ee\J	.
=63	=63	=63	=63	=63	=63	=63	=63	=63	=63	=63	=63	=63	=63	=63	=63	=63	=63	=63	=63	=63	=63	=63	=63
8d\	.	4d\	4dd\	.	1ryy	4d\	-men	4d\	-men	4a\	-men	.	4ff#\	-men	.	4F#/	.	4d\	.	4f#/	.	8dd\L	.
*	*	*	*	*	*	*	*ij	*	*	*	*Xij	*	*	*	*	*	*	*	*	*	*	*	*
8r	.	.	.	.	.	.	.	.	.	.	.	.	.	.	.	.	.	.	.	.	.	8ff#\J	.
(4F#\	.	4D/	4f#/	.	.	4F#\	a-	4B\	.	4r	.	.	4dd\	a-	.	4F#/	.	4d\	.	4dd\	.	8r	.
.	.	.	.	.	.	.	.	.	.	.	.	.	.	.	.	.	.	.	.	.	.	8ff#\	.
4G\	.	4E/	4g/	.	.	4G\	.	4G\	a-	2r	.	.	4ee\	.	.	4A/	.	4e\	.	4ee\	.	4gg\	.
4A\)	.	4C#/	4e/	.	.	4A\	.	4A\	.	.	.	.	4cc#\	.	.	4A/	.	4e\	.	4cc#\	.	4ee\	.
=64	=64	=64	=64	=64	=64	=64	=64	=64	=64	=64	=64	=64	=64	=64	=64	=64	=64	=64	=64	=64	=64	=64	=64
8D\	.	4D/	4A/ 4f#/	.	1ryy	4D\	-men	8D/	-men	4r	.	.	4dd\	-men	.	4F#/	.	4d\	.	4dd\	.	4ff#\	.
8r	.	.	.	.	.	.	.	8r	.	.	.	.	.	.	.	.	.	.	.	.	.	.	.
*	*	*	*	*	*	*	*Xij	*	*ij	*	*	*	*	*	*	*	*	*	*	*	*	*	*
!LO:LB:g=original	!	!	!	!	!	!	!	!	!	!	!	!	!	!	!	!	!	!	!	!	!	!	!
4F#\	.	4D/	4d/	.	.	4r	.	4D/	a-	4f#\	Et	.	4r	.	.	4r	.	4r	.	4r	.	4r	.
4B\	.	4F#/	4b/	.	.	2r	.	(4F#/	.	4b\	vi-	.	2r	.	.	2r	.	2r	.	2r	.	2r	.
4E\	.	4B/	4e/	.	.	.	.	4A/)	.	4e\	-tam	.	.	.	.	.	.	.	.	.	.	.	.
!	!	!	!	!	!	!	!	!	!	!	!	!	!	!	!	!	!	!LO:LB:g=original	!	!	!	!	!
=65	=65	=65	=65	=65	=65	=65	=65	=65	=65	=65	=65	=65	=65	=65	=65	=65	=65	=65	=65	=65	=65	=65	=65
4A\	.	4c#/	4a/	.	1ryy	1r	.	8c#\	-men	4r	.	.	0r	.	.	0r	.	0r	.	0r	.	0r	.
*	*	*	*	*	*	*	*	*	*Xij	*	*	*	*	*	*	*	*	*	*	*	*	*	*
.	.	.	.	.	.	.	.	8r	.	.	.	.	.	.	.	.	.	.	.	.	.	.	.
4D\	.	4A/	4d/	.	.	.	.	(4A\	a-	4d\	ven-	.	.	.	.	.	.	.	.	.	.	.	.
4G\	.	4G/	4g/	.	.	.	.	4B\	.	4g\	-tu-	.	.	.	.	.	.	.	.	.	.	.	.
4C#\	.	4c#/	4cc#/	.	.	.	.	4G\)	.	4c#\	-ri	.	.	.	.	.	.	.	.	.	.	.	.
=66	=66	=66	=66	=66	=66	=66	=66	=66	=66	=66	=66	=66	=66	=66	=66	=66	=66	=66	=66	=66	=66	=66	=66
4F#\	.	4d\	4ff#\	.	1ryy	2r	.	8A\	-men	4f#\	sae-	.	.	.	.	.	.	.	.	.	.	.	.
.	.	.	.	.	.	.	.	8r	.	.	.	.	.	.	.	.	.	.	.	.	.	.	.
*	*	*	*	*	*	*	*	*	*ij	*	*	*	*	*	*	*	*	*	*	*	*	*	*
4BB/	.	4F#/	4b\	.	.	.	.	(4F#/	a-	4B/	-cu-	.	.	.	.	.	.	.	.	.	.	.	.
4E/	.	4G/	4e/	.	.	4r	.	4G/	.	4e\	-li	.	.	.	.	.	.	.	.	.	.	.	.
4AA/	.	4A/	4cc#\	.	.	(4A\	a-	4c#\	.	4a\	a-	.	.	.	.	.	.	.	.	.	.	.	.
!	!	!	!LO:LB:g=original	!	!	!	!	!	!	!	!	!	!	!	!	!	!	!	!	!LO:PB:g=original	!	!	!
=67	=67	=67	=67	=67	=67	=67	=67	=67	=67	=67	=67	=67	=67	=67	=67	=67	=67	=67	=67	=67	=67	=67	=67
4D\	.	4D/	4dd\	.	1ryy	4D\)	-men	8d\)	-men	4f#\	-men	.	4r	.	.	4D/	.	4d\	.	4r	.	4r	.
*	*	*	*	*	*	*	*ij	*	*Xij	*	*	*	*	*	*	*	*	*	*	*	*	*	*
.	.	.	.	.	.	.	.	8r	.	.	.	.	.	.	.	.	.	.	.	.	.	.	.
4F#\	.	4d\	(4f#/	.	.	4D\	a-	4d\	a-	2.f#\	a-	.	4f#/	a-	.	4D/	.	4d\	.	4dd\	.	4ff#\	.
4G\	.	4e\	4g/	.	.	4E\	.	4c#\	.	.	.	.	4g/	.	.	4D/	.	4d\	.	4ee\	.	4gg\	.
4A\	.	4f#\	4a/)	.	.	4F#\	.	4cn\	.	.	.	.	4a/	.	.	4D/	.	4d\	.	4ff#\	.	4aa\	.
=68	=68	=68	=68	=68	=68	=68	=68	=68	=68	=68	=68	=68	=68	=68	=68	=68	=68	=68	=68	=68	=68	=68	=68
!	!	!	!	!	!	!	!	!	!	!	!	!LO:DY:b:t=fpp.	!	!	!	!	!	!	!	!	!	!	!
8B\	.	4g\	4b\	.	1ryy	4G\	-men	4B\	-men	1d\	.	fpp	4b\	-men-	.	4D/	.	4d\	.	4gg\	.	4bb\	.
8r	.	.	.	.	.	.	.	.	.	.	.	.	.	.	.	.	.	.	.	.	.	.	.
*	*	*	*	*	*	*	*	*	*ij	*	*	*	*	*	*	*	*	*	*	*	*	*	*
(4A\	.	4a\	4cc#\	.	.	4F#\	a-	4d\	a-	.	.	.	4a\	.	.	4D/	.	4d\	.	4ff#\	.	4aa\	.
!	!	!	!	!	!	!	!	!	!	!	!	!	!	!	!	!	!	!	!	!	!LO:DY:t=fr.	!	!LO:DY:t=f.
4B\	.	4b\	4b\	.	.	4G\	.	4c#X\	.	.	.	.	4b\	-a-	.	4D/	.	4d\	.	4gg\	f	4bb\	f
4c#\)	.	4cc#\	4ee\	.	.	4E\	.	4e\	.	.	.	.	4cc#\	.	.	4A/	.	4e\	.	4ee\	.	4ccc#\	.
=69	=69	=69	=69	=69	=69	=69	=69	=69	=69	=69	=69	=69	=69	=69	=69	=69	=69	=69	=69	=69	=69	=69	=69
!	!	!	!	!	!	!	!	!	!	!	!	!	!	!	!LO:DY:t=pp.	!	!LO:DY:rj	!	!LO:DY:t=f	!	!LO:DY:t=pp.	!	!LO:DY:t=pp.
4d\	.	4dd\	8a\ 8ff#\	.	1ryy	4D\	-men	4A\	-men	4f#\	-men	.	4dd\	-men	pp	4F#/	fpp	4d\	f	4ff#\	pp	4ddd\	pp
*	*	*	*	*	*	*	*Xij	*	*Xij	*	*	*	*	*	*	*	*	*	*	*	*	*	*
.	.	.	4a\ 4ff#\	.	.	.	.	.	.	.	.	.	.	.	.	.	.	.	.	.	.	.	.
!	!	!	!	!	!	!	!	!	!	!	!	!	!	!	!	!	!	!	!LO:DY:t=pp.	!	!	!	!
4D/	.	4a\	.	.	.	4r	.	4r	.	4r	.	.	4r	.	.	4F#/	.	4d\	pp	4dd\	.	4ff#\	.
.	.	.	4a\ 4ff#\	.	.	.	.	.	.	.	.	.	.	.	.	.	.	.	.	.	.	.	.
4d\	.	4f#\	.	.	.	2r	.	2r	.	2r	.	.	2r	.	.	4F#/	.	4d\	.	4dd\	.	4ff#\	.
.	.	.	4a\ 4ff#\	.	.	.	.	.	.	.	.	.	.	.	.	.	.	.	.	.	.	.	.
4D/	.	4d\	.	.	.	.	.	.	.	.	.	.	.	.	.	4F#/	.	4d\	.	4dd\	.	4ff#\	.
.	.	.	8a\ 8ff#\	.	.	.	.	.	.	.	.	.	.	.	.	.	.	.	.	.	.	.	.
!	!	!LO:LB:g=original	!	!	!	!	!	!	!	!	!	!	!LO:LB:g=original	!	!	!	!	!	!	!	!	!	!
=70	=70	=70	=70	=70	=70	=70	=70	=70	=70	=70	=70	=70	=70	=70	=70	=70	=70	=70	=70	=70	=70	=70	=70
!	!	!	!	!	!	!	!	!	!	!	!	!LO:HP:b	!	!	!	!.	!	!	!	!	!	!	!
4A\	.	4A/	8a\ 8gg\	.	1ryy	1A\	a-	1c#\	a-	1g\	a-	<	1ee\	a-	<	4A/	<	4e\	<	4cc#\	.	4gg\	.
.	.	.	4a\ 4gg\	.	.	.	.	.	.	.	.	.	.	.	.	.	.	.	.	.	<	.	<
4A\	.	4c#/	.	.	.	.	.	.	.	.	.	.	.	.	.	4A/	.	4e\	.	4ee\	.	4gg\	.
.	.	.	4a\ 4gg\	.	.	.	.	.	.	.	.	.	.	.	.	.	.	.	.	.	.	.	.
4c#\	.	4e\	.	.	.	.	.	.	.	.	.	.	.	.	.	4A/	.	4e\	.	4cc#\	.	4ee\	.
.	.	.	4a\ 4gg\	.	.	.	.	.	.	.	.	.	.	.	.	.	.	.	.	.	.	.	.
4A\	.	4a\	.	.	.	.	.	.	.	.	.	.	.	.	.	4A/	.	4e\	.	4ee\	.	4gg\	.
.	.	.	8a\ 8gg\	.	.	.	.	.	.	.	.	.	.	.	.	.	.	.	.	.	.	.	.
=71	=71	=71	=71	=71	=71	=71	=71	=71	=71	=71	=71	=71	=71	=71	=71	=71	=71	=71	=71	=71	=71	=71	=71
!	!LO:DY:t=p.	!	!LO:TX:t=P:problem=takty 71-72 - repetycja	!	!	!	!	!	!	!	!	!LO:DY:b:rj	!	!	!	!	!LO:DY:t=fr.	!	!	!	!	!	!LO:DY:t=fr.
4d\	p	4dd\	8a\yy 8ff#yy\	.	1ryy	4D\	-men	4A\	-men	4f#\	-men	f	4dd\	-men	.	4F#/	f	4d\	f	4ff#\	.	4ddd\	f
.	.	.	4a\yy 4ff#yy\	.	.	.	.	.	.	.	.	.	.	.	.	.	.	.	.	.	.	.	.
!	!	!	!	!	!	!	!	!	!	!	!	!	!	!	!	!	!	!	!	!	!LO:DY:rj	!	!
4D/	.	4a\	.	.	.	4r	.	4r	.	4r	.	.	4r	.	.	4F#/	.	4d\	.	4dd\	f	4ff#\	.
.	.	.	4a\yy 4ff#yy\	.	.	.	.	.	.	.	.	.	.	.	.	.	.	.	.	.	.	.	.
4d\	.	4f#\	.	.	.	2r	.	2r	.	4r	.	.	2r	.	.	4F#/	.	4d\	.	4dd\	.	4ff#\	.
.	.	.	4a\yy 4ff#yy\	.	.	.	.	.	.	.	.	.	.	.	.	.	.	.	.	.	.	.	.
4D/	.	4d\	.	.	.	.	.	.	.	4r	.	.	.	.	.	4F#/	.	4d\	.	4dd\	.	4ff#\	.
.	.	.	8a\yy 8ff#yy\	.	.	.	.	.	.	.	.	.	.	.	.	.	.	.	.	.	.	.	.
!	!	!	!	!	!	!LO:LB:g=original	!	!	!	!LO:LB:g=original	!	!	!	!	!	!	!	!	!	!	!	!	!
=72	=72	=72	=72	=72	=72	=72	=72	=72	=72	=72	=72	=72	=72	=72	=72	=72	=72	=72	=72	=72	=72	=72	=72
!	!	!	!	!	!	!	!	!	!	!	!	!	!	!	!	!	!LO:DY:t=fr	!	!LO:DY:t=fr	!	!	!	!
*	*	*	*	*	*	*	*ij	*	*ij	*	*ij	*	*	*ij	*	*	*	*	*	*	*	*	*
4A\	<	4A/	8a\yy 8ggyy\	.	1ryy	1A\	a-	1c#\	a-	1g\	a-	.	1ee\	a-	.	4A/	f	4e\	f	4cc#\	.	4gg\	.
.	.	.	4a\yy 4ggyy\	.	.	.	.	.	.	.	.	.	.	.	.	.	.	.	.	.	.	.	.
4A\	.	4c#/	.	.	.	.	.	.	.	.	.	.	.	.	.	4A/	.	4e\	.	4ee\	.	4gg\	.
.	.	.	4a\yy 4ggyy\	.	.	.	.	.	.	.	.	.	.	.	.	.	.	.	.	.	.	.	.
4c#\	.	4e/	.	.	.	.	.	.	.	.	.	.	.	.	.	4A/	.	4e\	.	4cc#\	.	4ee\	.
.	.	.	4a\yy 4ggyy\	.	.	.	.	.	.	.	.	.	.	.	.	.	.	.	.	.	.	.	.
4A\	.	4a\	.	.	.	.	.	.	.	.	.	.	.	.	.	4A/	.	4e\	.	4ee\	.	4gg\	.
.	.	.	8a\yy 8ggyy\	.	.	.	.	.	.	.	.	.	.	.	.	.	.	.	.	.	.	.	.
!LO:LB:g=original	!	!	!	!	!	!	!	!	!	!	!	!	!	!	!	!	!	!	!	!	!	!	!
=73	=73	=73	=73	=73	=73	=73	=73	=73	=73	=73	=73	=73	=73	=73	=73	=73	=73	=73	=73	=73	=73	=73	=73
4d\	.	4dd\	4a\ 4ff#\	.	1ryy	4d\	-men	4A\	-men	4f#\	men	.	4ff#\	men	.	4F#/	.	4d\	.	4dd\	.	4ff#\	.
*	*	*	*	*	*	*	*Xij	*	*	*	*	*	*	*	*	*	*	*	*	*	*	*	*
4A\	.	4a\	4a\ 4gg\	.	.	4A\	a-	4c#\	a-	4a\	a-	.	4ee\	a-	.	4A/	.	4e\	.	4ee\	.	4gg\	.
4d\	.	4dd\	4a\ 4ff#\	.	.	4d\	.	4d\	.	4a\	-men	.	4ff#\	.	.	4F#/	.	4d\	.	4dd\	.	4ff#\	.
4A\	.	4a\	4a\ 4gg\	.	.	4A\	.	4c#\	.	4a\	a-	.	4ee\	.	.	4A/	.	4e\	.	4ee\	.	4gg\	.
=74	=74	=74	=74	=74	=74	=74	=74	=74	=74	=74	=74	=74	=74	=74	=74	=74	=74	=74	=74	=74	=74	=74	=74
!	!LO:DY:t=f.	!	!	!	!	!	!	!	!	!	!	!	!	!	!	!	!	!	!	!	!	!	!
4D\ 4d\	f	4d/	4a\ 4ff#\	.	1ryy	4d\	-men	4A\	-men	4f#\	-men	.	4ff#\	-men	.	4F#/	.	4d\	.	4dd\	.	4ff#\	.
4A\	.	4A/	4a\ 4gg\	.	.	4A\	a-	4c#\	a-	4a\	a-	.	4ee\	a-	.	4A/	.	4e\	.	4ee\	.	4gg\	.
4D\ 4d\	.	4d/	4a\ 4ff#\	.	.	4d\	.	4d\	.	4a\	-men	.	4ff#\	.	.	4F#/	.	4d\	.	4dd\	.	4ff#\	.
4A\	.	4A/	4a\ 4gg\	.	.	4A\	.	4c#\	.	4a\	a-	.	4ee\	.	.	4A/	.	4e\	.	4ee\	.	4gg\	.
=75	=75	=75	=75	=75	=75	=75	=75	=75	=75	=75	=75	=75	=75	=75	=75	=75	=75	=75	=75	=75	=75	=75	=75
4D\ 4d\	.	4d/	4a\ 4ff#\	.	1ryy	4D\	-men	4d\	-men	4a\	-men	.	4ff#\	-men	.	4F#/	.	4d\	.	8dd\	.	8ff#\	.
*	*	*	*	*	*	*	*ij	*	*Xij	*	*	*	*	*Xij	*	*	*	*	*	*	*	*	*
.	.	.	.	.	.	.	.	.	.	.	.	.	.	.	.	.	.	.	.	8r	.	8r	.
4r	.	4r	4r	.	.	4r	.	4r	.	4r	.	.	4r	.	.	(4f#\	.	(4a\	.	(4ff#\	>	(4aa\	.
4r	.	4r	4r	.	.	4r	.	4r	.	4r	.	.	4r	.	.	8d\)	.	8f#\)	.	8dd\)	]	8ff#\)	.
.	.	.	.	.	.	.	.	.	.	.	.	.	.	.	.	8r	.	8r	.	8r	.	8r	.
4A\	.	4A/ 4e/	4a\ 4gg\	.	.	4A\	a-	4e\	a-	4a\	a-	.	4gg\	a-	.	4r	.	4r	.	4r	.	4r	.
=76	=76	=76	=76	=76	=76	=76	=76	=76	=76	=76	=76	=76	=76	=76	=76	=76	=76	=76	=76	=76	=76	=76	=76
4D\ 4d\	.	4d/	4a\ 4ff#\	.	1ryy	4D\	-men	4d\	-men	4a\	-men	.	4ff#\	-men	.	4F#/	.	4d\	.	8dd\	.	8ff#\	.
.	.	.	.	.	.	.	.	.	.	.	.	.	.	.	.	.	.	.	.	8r	.	8r	.
4r	.	4r	4r	.	.	4r	.	4r	.	4r	.	.	4r	.	.	(4f#\	.	(4a\	.	(4ff#\	.	(4aa\	>
4r	.	4r	4r	.	.	4r	.	4r	.	4r	.	.	4r	.	.	8d\)	.	8f#\)	.	8dd\)	.	8ff#\)	]
.	.	.	.	.	.	.	.	.	.	.	.	.	.	.	.	8r	.	8r	.	8r	.	8r	.
*	*	*	*	*	*	*	*	*	*	*	*	*	*	*ij	*	*	*	*	*	*	*	*	*
4AA/	.	4A/ 4e/	4a\ 4gg\	.	.	4c#\	a	4e\	a	4a\	a-	.	4gg\	a-	.	4r	.	4r	.	4r	.	4r	.
!	!	!	!LO:LB:g=original	!	!	!	!	!LO:LB:g=original	!	!	!	!	!	!	!	!LO:LB:g=original	!	!	!	!LO:LB:g=original	!	!	!
=77	=77	=77	=77	=77	=77	=77	=77	=77	=77	=77	=77	=77	=77	=77	=77	=77	=77	=77	=77	=77	=77	=77	=77
!LO:TX:t=P:problem=nadmiarowy takt w Tenorze	!	!LO:TX:t=P:problem=nadmiarowy takt w Tenorze	!	!	!	!LO:TX:t=P:problem=nadmiarowy takt w Tenorze	!	!	!	!LO:TX:t=P:problem=nadmiarowy takt w Tenorze	!	!	!LO:TX:t=P:problem=nadmiarowy takt w Tenorze	!	!	!LO:TX:t=P:problem=nadmiarowy takt w Tenorze	!	!LO:TX:t=P:problem=nadmiarowy takt w Tenorze	!	!LO:TX:t=P:problem=nadmiarowy takt w Tenorze	!	!LO:TX:t=P:problem=nadmiarowy takt w Tenorze	!
1ryy	.	1ryy	1ryy	.	1ryy	1ryy	.	4d\	men	1ryy	.	.	1ryy	.	.	1ryy	.	1ryy	.	1ryy	.	1ryy	.
.	.	.	.	.	.	.	.	4r	.	.	.	.	.	.	.	.	.	.	.	.	.	.	.
.	.	.	.	.	.	.	.	4r	.	.	.	.	.	.	.	.	.	.	.	.	.	.	.
*	*	*	*	*	*	*	*	*	*ij	*	*	*	*	*	*	*	*	*	*	*	*	*	*
.	.	.	.	.	.	.	.	4e\	a-	.	.	.	.	.	.	.	.	.	.	.	.	.	.
=78	=78	=78	=78	=78	=78	=78	=78	=78	=78	=78	=78	=78	=78	=78	=78	=78	=78	=78	=78	=78	=78	=78	=78
4D\	.	4D/ 4d/	4a\ 4ff#\	.	1ryy	4d\	-men	4d\	-men	4a\	-men	.	4ff#\	-men	.	4r	.	4r	.	4r	.	8ff#\	.
*	*	*	*	*	*	*	*	*	*Xij	*	*	*	*	*	*	*	*	*	*	*	*	*	*
.	.	.	.	.	.	.	.	.	.	.	.	.	.	.	.	.	.	.	.	.	.	8r	.
4r	.	4r	4r	.	.	4r	.	4r	.	4r	.	.	4r	.	.	(4f#\	.	(4a\	.	(4ff#\	.	(4aa\	.
4r	.	4r	4r	.	.	4r	.	4r	.	4r	.	.	4r	.	.	8d\)	.	8f#\)	.	8dd\)	.	8ff#\)	.
.	.	.	.	.	.	.	.	.	.	.	.	.	.	.	.	8r	.	8r	.	8r	.	8r	.
4d\	.	4D/ 4d/	4a\ 4ff#\	.	.	4d\	a-	4A\	a-	4f#\	a-	.	4dd\	a-	.	4r	.	4r	.	4r	.	4r	.
=79	=79	=79	=79	=79	=79	=79	=79	=79	=79	=79	=79	=79	=79	=79	=79	=79	=79	=79	=79	=79	=79	=79	=79
2D\	.	2D/ 2d/	2A/ 2f#/	.	1ryy	2D\	-men	2A\	-men	4f#\	-men	.	2dd\	-men	.	2F#/	.	2d\	.	2f#/	.	2dd\	.
*	*	*	*	*	*	*	*	*	*	*	*	*	*	*Xij	*	*	*	*	*	*	*	*	*
.	.	.	.	.	.	.	.	.	.	4r	.	.	.	.	.	.	.	.	.	.	.	.	.
2r	.	2r	2r	.	.	2r	.	2r	.	2r	.	.	2r	.	.	2r	.	2r	.	2r	.	2r	.
==	==	==	==	==	==	==	==	==	==	==	==	==	==	==	==	==	==	==	==	==	==	==	==
*-	*-	*-	*-	*-	*-	*-	*-	*-	*-	*-	*-	*-	*-	*-	*-	*-	*-	*-	*-	*-	*-	*-	*-
!!!system-decoration: [(s1,s2)][(s3,s4)][(s5,s6,s7,s8)][(s9,s10,s11)]s12
!!!RDF**kern: > = above
!!!RDF**kern: < = below
!!!RDF**dynam: f = for
!!!RDF**dynam: < = cres
!!!RDF**kern: | = vertical stroke
!!!ENC: Marta Opryszak
!!!END: 2021-12-25
!!!EED: Andrzej Borzym
!!!EEV: 2021-12-29
